qblc7/bachelorproject/robot_data.csv
actual_q_0 actual_q_1 actual_q_2 actual_q_3 actual_q_4 actual_q_5 actual_TCP_pose_0 actual_TCP_pose_1 actual_TCP_pose_2 actual_TCP_pose_3 actual_TCP_pose_4 actual_TCP_pose_5
-0.029845130209102955 -1.7271 -0.21327923459370624 -0.8079999999999998 1.5951 -0.030999999999999694 0.2575806197746034 -0.1386277140159405 1.0782793917691327 -0.9371110655871907 0.9025707358311288 -1.4078481860623555
-0.029845130209102955 -1.7271 -0.21327923459370624 -0.8079999999999998 1.5951 -0.030999999999999694 0.2575806197746034 -0.1386277140159405 1.0782793917691327 -0.9371110655871907 0.9025707358311288 -1.4078481860623555
-0.029845130209102955 -1.7271 -0.21327923459370624 -0.8079999999999998 1.5951 -0.030999999999999694 0.2575806197746034 -0.1386277140159405 1.0782793917691327 -0.9371110655871907 0.9025707358311288 -1.4078481860623555
-0.029845130209102955 -1.7271 -0.21327923459370624 -0.8079999999999998 1.5951 -0.030999999999999694 0.2575806197746034 -0.1386277140159405 1.0782793917691327 -0.9371110655871907 0.9025707358311288 -1.4078481860623555
-0.029845130209102955 -1.7271 -0.21327923459370624 -0.8079999999999998 1.5951 -0.030999999999999694 0.2575806197746034 -0.1386277140159405 1.0782793917691327 -0.9371110655871907 0.9025707358311288 -1.4078481860623555
-0.029845130209102955 -1.7271 -0.21327923459370624 -0.8079999999999998 1.5951 -0.030999999999999694 0.2575806197746034 -0.1386277140159405 1.0782793917691327 -0.9371110655871907 0.9025707358311288 -1.4078481860623555
-0.029845130209102955 -1.7271 -0.21327923459370624 -0.8079999999999998 1.5951 -0.030999999999999694 0.2575806197746034 -0.1386277140159405 1.0782793917691327 -0.9371110655871907 0.9025707358311288 -1.4078481860623555
-0.029845130209102955 -1.7271 -0.21327923459370624 -0.8079999999999998 1.5951 -0.030999999999999694 0.2575806197746034 -0.1386277140159405 1.0782793917691327 -0.9371110655871907 0.9025707358311288 -1.4078481860623555
-0.029845130209102955 -1.7271 -0.21327923459370624 -0.8079999999999998 1.5951 -0.030999999999999694 0.2575806197746034 -0.1386277140159405 1.0782793917691327 -0.9371110655871907 0.9025707358311288 -1.4078481860623555
-0.029845130209102955 -1.7271 -0.21327923459370624 -0.8079999999999998 1.5951 -0.030999999999999694 0.2575806197746034 -0.1386277140159405 1.0782793917691327 -0.9371110655871907 0.9025707358311288 -1.4078481860623555
-0.029845130209102955 -1.7271 -0.21327923459370624 -0.8079999999999998 1.5951 -0.030999999999999694 0.2575806197746034 -0.1386277140159405 1.0782793917691327 -0.9371110655871907 0.9025707358311288 -1.4078481860623555
-0.029845130209102955 -1.7271 -0.21327923459370624 -0.8079999999999998 1.5951 -0.030999999999999694 0.2575806197746034 -0.1386277140159405 1.0782793917691327 -0.9371110655871907 0.9025707358311288 -1.4078481860623555
-0.029845130209102955 -1.7271 -0.21327923459370624 -0.8079999999999998 1.5951 -0.030999999999999694 0.2575806197746034 -0.1386277140159405 1.0782793917691327 -0.9371110655871907 0.9025707358311288 -1.4078481860623555
-0.029845130209102955 -1.7271 -0.21327923459370624 -0.8079999999999998 1.5951 -0.030999999999999694 0.2575806197746034 -0.1386277140159405 1.0782793917691327 -0.9371110655871907 0.9025707358311288 -1.4078481860623555
-0.029845130209102955 -1.7271 -0.21327923459370624 -0.8079999999999998 1.5951 -0.030999999999999694 0.2575806197746034 -0.1386277140159405 1.0782793917691327 -0.9371110655871907 0.9025707358311288 -1.4078481860623555
-0.029845130209102955 -1.7271 -0.21327923459370624 -0.8079999999999998 1.5951 -0.030999999999999694 0.2575806197746034 -0.1386277140159405 1.0782793917691327 -0.9371110655871907 0.9025707358311288 -1.4078481860623555
-0.029845130209102955 -1.7271 -0.21327923459370624 -0.8079999999999998 1.5951 -0.030999999999999694 0.2575806197746034 -0.1386277140159405 1.0782793917691327 -0.9371110655871907 0.9025707358311288 -1.4078481860623555
-0.029845130209102955 -1.7271 -0.21327923459370624 -0.8079999999999998 1.5951 -0.030999999999999694 0.2575806197746034 -0.1386277140159405 1.0782793917691327 -0.9371110655871907 0.9025707358311288 -1.4078481860623555
-0.029845130209102955 -1.7271 -0.21327923459370624 -0.8079999999999998 1.5951 -0.030999999999999694 0.2575806197746034 -0.1386277140159405 1.0782793917691327 -0.9371110655871907 0.9025707358311288 -1.4078481860623555
-0.029845130209102955 -1.7271 -0.21327923459370624 -0.8079999999999998 1.5951 -0.030999999999999694 0.2575806197746034 -0.1386277140159405 1.0782793917691327 -0.9371110655871907 0.9025707358311288 -1.4078481860623555
-0.029845130209102955 -1.7271 -0.21327923459370624 -0.8079999999999998 1.5951 -0.030999999999999694 0.2575806197746034 -0.1386277140159405 1.0782793917691327 -0.9371110655871907 0.9025707358311288 -1.4078481860623555
-0.029845130209102955 -1.7271 -0.21327923459370624 -0.8079999999999998 1.5951 -0.030999999999999694 0.2575806197746034 -0.1386277140159405 1.0782793917691327 -0.9371110655871907 0.9025707358311288 -1.4078481860623555
-0.029845130209102955 -1.7271 -0.21327923459370624 -0.8079999999999998 1.5951 -0.030999999999999694 0.2575806197746034 -0.1386277140159405 1.0782793917691327 -0.9371110655871907 0.9025707358311288 -1.4078481860623555
-0.029845130209102955 -1.7271 -0.21327923459370624 -0.8079999999999998 1.5951 -0.030999999999999694 0.2575806197746034 -0.1386277140159405 1.0782793917691327 -0.9371110655871907 0.9025707358311288 -1.4078481860623555
-0.029845130209102955 -1.7271 -0.21327923459370624 -0.8079999999999998 1.5951 -0.030999999999999694 0.2575806197746034 -0.1386277140159405 1.0782793917691327 -0.9371110655871907 0.9025707358311288 -1.4078481860623555
-0.029845130209102955 -1.7271 -0.21327923459370624 -0.8079999999999998 1.5951 -0.030999999999999694 0.2575806197746034 -0.1386277140159405 1.0782793917691327 -0.9371110655871907 0.9025707358311288 -1.4078481860623555
-0.029845130209102955 -1.7271 -0.21327923459370624 -0.8079999999999998 1.5951 -0.030999999999999694 0.2575806197746034 -0.1386277140159405 1.0782793917691327 -0.9371110655871907 0.9025707358311288 -1.4078481860623555
-0.029845130209102955 -1.7271 -0.21327923459370624 -0.8079999999999998 1.5951 -0.030999999999999694 0.2575806197746034 -0.1386277140159405 1.0782793917691327 -0.9371110655871907 0.9025707358311288 -1.4078481860623555
-0.029845130209102955 -1.7271 -0.21327923459370624 -0.8079999999999998 1.5951 -0.030999999999999694 0.2575806197746034 -0.1386277140159405 1.0782793917691327 -0.9371110655871907 0.9025707358311288 -1.4078481860623555
-0.029845130209102955 -1.7271 -0.21327923459370624 -0.8079999999999998 1.5951 -0.030999999999999694 0.2575806197746034 -0.1386277140159405 1.0782793917691327 -0.9371110655871907 0.9025707358311288 -1.4078481860623555
-0.029845130209102955 -1.7271 -0.21327923459370624 -0.8079999999999998 1.5951 -0.030999999999999694 0.2575806197746034 -0.1386277140159405 1.0782793917691327 -0.9371110655871907 0.9025707358311288 -1.4078481860623555
-0.029845130209102955 -1.7271 -0.21327923459370624 -0.8079999999999998 1.5951 -0.030999999999999694 0.2575806197746034 -0.1386277140159405 1.0782793917691327 -0.9371110655871907 0.9025707358311288 -1.4078481860623555
-0.029845130209102955 -1.7271 -0.21327923459370624 -0.8079999999999998 1.5951 -0.030999999999999694 0.2575806197746034 -0.1386277140159405 1.0782793917691327 -0.9371110655871907 0.9025707358311288 -1.4078481860623555
-0.029845130209102955 -1.7271 -0.21327923459370624 -0.8079999999999998 1.5951 -0.030999999999999694 0.2575806197746034 -0.1386277140159405 1.0782793917691327 -0.9371110655871907 0.9025707358311288 -1.4078481860623555
-0.029845130209102955 -1.7271 -0.21327923459370624 -0.8079999999999998 1.5951 -0.030999999999999694 0.2575806197746034 -0.1386277140159405 1.0782793917691327 -0.9371110655871907 0.9025707358311288 -1.4078481860623555
-0.029845130209102955 -1.7271 -0.21327923459370624 -0.8079999999999998 1.5951 -0.030999999999999694 0.2575806197746034 -0.1386277140159405 1.0782793917691327 -0.9371110655871907 0.9025707358311288 -1.4078481860623555
-0.029845130209102955 -1.7271 -0.21327923459370624 -0.8079999999999998 1.5951 -0.030999999999999694 0.2575806197746034 -0.1386277140159405 1.0782793917691327 -0.9371110655871907 0.9025707358311288 -1.4078481860623555
-0.029845130209102955 -1.7271 -0.21327923459370624 -0.8079999999999998 1.5951 -0.030999999999999694 0.2575806197746034 -0.1386277140159405 1.0782793917691327 -0.9371110655871907 0.9025707358311288 -1.4078481860623555
-0.029845130209102955 -1.7271 -0.21327923459370624 -0.8079999999999998 1.5951 -0.030999999999999694 0.2575806197746034 -0.1386277140159405 1.0782793917691327 -0.9371110655871907 0.9025707358311288 -1.4078481860623555
-0.029845130209102955 -1.7271 -0.21327923459370624 -0.8079999999999998 1.5951 -0.030999999999999694 0.2575806197746034 -0.1386277140159405 1.0782793917691327 -0.9371110655871907 0.9025707358311288 -1.4078481860623555
-0.029845130209102955 -1.7271 -0.21327923459370624 -0.8079999999999998 1.5951 -0.030999999999999694 0.2575806197746034 -0.1386277140159405 1.0782793917691327 -0.9371110655871907 0.9025707358311288 -1.4078481860623555
-0.029845130209102955 -1.7271 -0.21327923459370624 -0.8079999999999998 1.5951 -0.030999999999999694 0.2575806197746034 -0.1386277140159405 1.0782793917691327 -0.9371110655871907 0.9025707358311288 -1.4078481860623555
-0.029845130209102955 -1.7271 -0.21327923459370624 -0.8079999999999998 1.5951 -0.030999999999999694 0.2575806197746034 -0.1386277140159405 1.0782793917691327 -0.9371110655871907 0.9025707358311288 -1.4078481860623555
-0.029845130209102955 -1.7271 -0.21327923459370624 -0.8079999999999998 1.5951 -0.030999999999999694 0.2575806197746034 -0.1386277140159405 1.0782793917691327 -0.9371110655871907 0.9025707358311288 -1.4078481860623555
-0.029845130209102955 -1.7271 -0.21327923459370624 -0.8079999999999998 1.5951 -0.030999999999999694 0.2575806197746034 -0.1386277140159405 1.0782793917691327 -0.9371110655871907 0.9025707358311288 -1.4078481860623555
-0.029845130209102955 -1.7271 -0.21327923459370624 -0.8079999999999998 1.5951 -0.030999999999999694 0.2575806197746034 -0.1386277140159405 1.0782793917691327 -0.9371110655871907 0.9025707358311288 -1.4078481860623555
-0.029845130209102955 -1.7271 -0.21327923459370624 -0.8079999999999998 1.5951 -0.030999999999999694 0.2575806197746034 -0.1386277140159405 1.0782793917691327 -0.9371110655871907 0.9025707358311288 -1.4078481860623555
-0.029845130209102955 -1.7271 -0.21327923459370624 -0.8079999999999998 1.5951 -0.030999999999999694 0.2575806197746034 -0.1386277140159405 1.0782793917691327 -0.9371110655871907 0.9025707358311288 -1.4078481860623555
-0.029845130209102955 -1.7271 -0.21327923459370624 -0.8079999999999998 1.5951 -0.030999999999999694 0.2575806197746034 -0.1386277140159405 1.0782793917691327 -0.9371110655871907 0.9025707358311288 -1.4078481860623555
-0.029845130209102955 -1.7271 -0.21327923459370624 -0.8079999999999998 1.5951 -0.030999999999999694 0.2575806197746034 -0.1386277140159405 1.0782793917691327 -0.9371110655871907 0.9025707358311288 -1.4078481860623555
-0.029845130209102955 -1.7271 -0.21327923459370624 -0.8079999999999998 1.5951 -0.030999999999999694 0.2575806197746034 -0.1386277140159405 1.0782793917691327 -0.9371110655871907 0.9025707358311288 -1.4078481860623555
-0.029845130209102955 -1.7271 -0.21327923459370624 -0.8079999999999998 1.5951 -0.030999999999999694 0.2575806197746034 -0.1386277140159405 1.0782793917691327 -0.9371110655871907 0.9025707358311288 -1.4078481860623555
-0.029845130209102955 -1.7271 -0.21327923459370624 -0.8079999999999998 1.5951 -0.030999999999999694 0.2575806197746034 -0.1386277140159405 1.0782793917691327 -0.9371110655871907 0.9025707358311288 -1.4078481860623555
-0.029845130209102955 -1.7271 -0.21327923459370624 -0.8079999999999998 1.5951 -0.030999999999999694 0.2575806197746034 -0.1386277140159405 1.0782793917691327 -0.9371110655871907 0.9025707358311288 -1.4078481860623555
-0.029845130209102955 -1.7271 -0.21327923459370624 -0.8079999999999998 1.5951 -0.030999999999999694 0.2575806197746034 -0.1386277140159405 1.0782793917691327 -0.9371110655871907 0.9025707358311288 -1.4078481860623555
-0.029845130209102955 -1.7271 -0.21327923459370624 -0.8079999999999998 1.5951 -0.030999999999999694 0.2575806197746034 -0.1386277140159405 1.0782793917691327 -0.9371110655871907 0.9025707358311288 -1.4078481860623555
-0.029845130209102955 -1.7271 -0.21327923459370624 -0.8079999999999998 1.5951 -0.030999999999999694 0.2575806197746034 -0.1386277140159405 1.0782793917691327 -0.9371110655871907 0.9025707358311288 -1.4078481860623555
-0.029845130209102955 -1.7271 -0.21327923459370624 -0.8079999999999998 1.5951 -0.030999999999999694 0.2575806197746034 -0.1386277140159405 1.0782793917691327 -0.9371110655871907 0.9025707358311288 -1.4078481860623555
-0.029845130209102955 -1.7271 -0.21327923459370624 -0.8079999999999998 1.5951 -0.030999999999999694 0.2575806197746034 -0.1386277140159405 1.0782793917691327 -0.9371110655871907 0.9025707358311288 -1.4078481860623555
-0.029845130209102955 -1.7271 -0.21327923459370624 -0.8079999999999998 1.5951 -0.030999999999999694 0.2575806197746034 -0.1386277140159405 1.0782793917691327 -0.9371110655871907 0.9025707358311288 -1.4078481860623555
-0.029845130209102955 -1.7271 -0.21327923459370624 -0.8079999999999998 1.5951 -0.030999999999999694 0.2575806197746034 -0.1386277140159405 1.0782793917691327 -0.9371110655871907 0.9025707358311288 -1.4078481860623555
-0.029845130209102955 -1.7271 -0.21327923459370624 -0.8079999999999998 1.5951 -0.030999999999999694 0.2575806197746034 -0.1386277140159405 1.0782793917691327 -0.9371110655871907 0.9025707358311288 -1.4078481860623555
-0.029845130209102955 -1.7271 -0.21327923459370624 -0.8079999999999998 1.5951 -0.030999999999999694 0.2575806197746034 -0.1386277140159405 1.0782793917691327 -0.9371110655871907 0.9025707358311288 -1.4078481860623555
-0.029845130209102955 -1.7271 -0.21327923459370624 -0.8079999999999998 1.5951 -0.030999999999999694 0.2575806197746034 -0.1386277140159405 1.0782793917691327 -0.9371110655871907 0.9025707358311288 -1.4078481860623555
-0.029845130209102955 -1.7271 -0.21327923459370624 -0.8079999999999998 1.5951 -0.030999999999999694 0.2575806197746034 -0.1386277140159405 1.0782793917691327 -0.9371110655871907 0.9025707358311288 -1.4078481860623555
-0.029845130209102955 -1.7271 -0.21327923459370624 -0.8079999999999998 1.5951 -0.030999999999999694 0.2575806197746034 -0.1386277140159405 1.0782793917691327 -0.9371110655871907 0.9025707358311288 -1.4078481860623555
-0.029845130209102955 -1.7271 -0.21327923459370624 -0.8079999999999998 1.5951 -0.030999999999999694 0.2575806197746034 -0.1386277140159405 1.0782793917691327 -0.9371110655871907 0.9025707358311288 -1.4078481860623555
-0.029845130209102955 -1.7271 -0.21327923459370624 -0.8079999999999998 1.5951 -0.030999999999999694 0.2575806197746034 -0.1386277140159405 1.0782793917691327 -0.9371110655871907 0.9025707358311288 -1.4078481860623555
-0.029845130209102955 -1.7271 -0.21327923459370624 -0.8079999999999998 1.5951 -0.030999999999999694 0.2575806197746034 -0.1386277140159405 1.0782793917691327 -0.9371110655871907 0.9025707358311288 -1.4078481860623555
-0.029845130209102955 -1.7271 -0.21327923459370624 -0.8079999999999998 1.5951 -0.030999999999999694 0.2575806197746034 -0.1386277140159405 1.0782793917691327 -0.9371110655871907 0.9025707358311288 -1.4078481860623555
-0.029845130209102955 -1.7271 -0.21327923459370624 -0.8079999999999998 1.5951 -0.030999999999999694 0.2575806197746034 -0.1386277140159405 1.0782793917691327 -0.9371110655871907 0.9025707358311288 -1.4078481860623555
-0.029845130209102955 -1.7271 -0.21327923459370624 -0.8079999999999998 1.5951 -0.030999999999999694 0.2575806197746034 -0.1386277140159405 1.0782793917691327 -0.9371110655871907 0.9025707358311288 -1.4078481860623555
-0.029845130209102955 -1.7271 -0.21327923459370624 -0.8079999999999998 1.5951 -0.030999999999999694 0.2575806197746034 -0.1386277140159405 1.0782793917691327 -0.9371110655871907 0.9025707358311288 -1.4078481860623555
-0.029845130209102955 -1.7271 -0.21327923459370624 -0.8079999999999998 1.5951 -0.030999999999999694 0.2575806197746034 -0.1386277140159405 1.0782793917691327 -0.9371110655871907 0.9025707358311288 -1.4078481860623555
-0.029845130209102955 -1.7271 -0.21327923459370624 -0.8079999999999998 1.5951 -0.030999999999999694 0.2575806197746034 -0.1386277140159405 1.0782793917691327 -0.9371110655871907 0.9025707358311288 -1.4078481860623555
-0.029845130209102955 -1.7271 -0.21327923459370624 -0.8079999999999998 1.5951 -0.030999999999999694 0.2575806197746034 -0.1386277140159405 1.0782793917691327 -0.9371110655871907 0.9025707358311288 -1.4078481860623555
-0.029845130209102955 -1.7271 -0.21327923459370624 -0.8079999999999998 1.5951 -0.030999999999999694 0.2575806197746034 -0.1386277140159405 1.0782793917691327 -0.9371110655871907 0.9025707358311288 -1.4078481860623555
-0.029845130209102955 -1.7271 -0.21327923459370624 -0.8079999999999998 1.5951 -0.030999999999999694 0.2575806197746034 -0.1386277140159405 1.0782793917691327 -0.9371110655871907 0.9025707358311288 -1.4078481860623555
-0.029845130209102955 -1.7271 -0.21327923459370624 -0.8079999999999998 1.5951 -0.030999999999999694 0.2575806197746034 -0.1386277140159405 1.0782793917691327 -0.9371110655871907 0.9025707358311288 -1.4078481860623555
-0.029845130209102955 -1.7271 -0.21327923459370624 -0.8079999999999998 1.5951 -0.030999999999999694 0.2575806197746034 -0.1386277140159405 1.0782793917691327 -0.9371110655871907 0.9025707358311288 -1.4078481860623555
-0.029845130209102955 -1.7271 -0.21327923459370624 -0.8079999999999998 1.5951 -0.030999999999999694 0.2575806197746034 -0.1386277140159405 1.0782793917691327 -0.9371110655871907 0.9025707358311288 -1.4078481860623555
-0.029845130209102955 -1.7271 -0.21327923459370624 -0.8079999999999998 1.5951 -0.030999999999999694 0.2575806197746034 -0.1386277140159405 1.0782793917691327 -0.9371110655871907 0.9025707358311288 -1.4078481860623555
-0.029845130209102955 -1.7271 -0.21327923459370624 -0.8079999999999998 1.5951 -0.030999999999999694 0.2575806197746034 -0.1386277140159405 1.0782793917691327 -0.9371110655871907 0.9025707358311288 -1.4078481860623555
-0.029845130209102955 -1.7271 -0.21327923459370624 -0.8079999999999998 1.5951 -0.030999999999999694 0.2575806197746034 -0.1386277140159405 1.0782793917691327 -0.9371110655871907 0.9025707358311288 -1.4078481860623555
-0.029845130209102955 -1.7271 -0.21327923459370624 -0.8079999999999998 1.5951 -0.030999999999999694 0.2575806197746034 -0.1386277140159405 1.0782793917691327 -0.9371110655871907 0.9025707358311288 -1.4078481860623555
-0.029845130209102955 -1.7271 -0.21327923459370624 -0.8079999999999998 1.5951 -0.030999999999999694 0.2575806197746034 -0.1386277140159405 1.0782793917691327 -0.9371110655871907 0.9025707358311288 -1.4078481860623555
-0.029845130209102955 -1.7271 -0.21327923459370624 -0.8079999999999998 1.5951 -0.030999999999999694 0.2575806197746034 -0.1386277140159405 1.0782793917691327 -0.9371110655871907 0.9025707358311288 -1.4078481860623555
-0.029845130209102955 -1.7271 -0.21327923459370624 -0.8079999999999998 1.5951 -0.030999999999999694 0.2575806197746034 -0.1386277140159405 1.0782793917691327 -0.9371110655871907 0.9025707358311288 -1.4078481860623555
-0.029845130209102955 -1.7271 -0.21327923459370624 -0.8079999999999998 1.5951 -0.030999999999999694 0.2575806197746034 -0.1386277140159405 1.0782793917691327 -0.9371110655871907 0.9025707358311288 -1.4078481860623555
-0.029845130209102955 -1.7271 -0.21327923459370624 -0.8079999999999998 1.5951 -0.030999999999999694 0.2575806197746034 -0.1386277140159405 1.0782793917691327 -0.9371110655871907 0.9025707358311288 -1.4078481860623555
-0.029845130209102955 -1.7271 -0.21327923459370624 -0.8079999999999998 1.5951 -0.030999999999999694 0.2575806197746034 -0.1386277140159405 1.0782793917691327 -0.9371110655871907 0.9025707358311288 -1.4078481860623555
-0.029845130209102955 -1.7271 -0.21327923459370624 -0.8079999999999998 1.5951 -0.030999999999999694 0.2575806197746034 -0.1386277140159405 1.0782793917691327 -0.9371110655871907 0.9025707358311288 -1.4078481860623555
-0.029845130209102955 -1.7271 -0.21327923459370624 -0.8079999999999998 1.5951 -0.030999999999999694 0.2575806197746034 -0.1386277140159405 1.0782793917691327 -0.9371110655871907 0.9025707358311288 -1.4078481860623555
-0.029845130209102955 -1.7271 -0.21327923459370624 -0.8079999999999998 1.5951 -0.030999999999999694 0.2575806197746034 -0.1386277140159405 1.0782793917691327 -0.9371110655871907 0.9025707358311288 -1.4078481860623555
-0.029845130209102955 -1.7271 -0.21327923459370624 -0.8079999999999998 1.5951 -0.030999999999999694 0.2575806197746034 -0.1386277140159405 1.0782793917691327 -0.9371110655871907 0.9025707358311288 -1.4078481860623555
-0.029845130209102955 -1.7271 -0.21327923459370624 -0.8079999999999998 1.5951 -0.030999999999999694 0.2575806197746034 -0.1386277140159405 1.0782793917691327 -0.9371110655871907 0.9025707358311288 -1.4078481860623555
-0.029845130209102955 -1.7271 -0.21327923459370624 -0.8079999999999998 1.5951 -0.030999999999999694 0.2575806197746034 -0.1386277140159405 1.0782793917691327 -0.9371110655871907 0.9025707358311288 -1.4078481860623555
-0.029845130209102955 -1.7271 -0.21327923459370624 -0.8079999999999998 1.5951 -0.030999999999999694 0.2575806197746034 -0.1386277140159405 1.0782793917691327 -0.9371110655871907 0.9025707358311288 -1.4078481860623555
-0.029845130209102955 -1.7271 -0.21327923459370624 -0.8079999999999998 1.5951 -0.030999999999999694 0.2575806197746034 -0.1386277140159405 1.0782793917691327 -0.9371110655871907 0.9025707358311288 -1.4078481860623555
-0.029845130209102955 -1.7271 -0.21327923459370624 -0.8079999999999998 1.5951 -0.030999999999999694 0.2575806197746034 -0.1386277140159405 1.0782793917691327 -0.9371110655871907 0.9025707358311288 -1.4078481860623555
-0.029845130209102955 -1.7271 -0.21327923459370624 -0.8079999999999998 1.5951 -0.030999999999999694 0.2575806197746034 -0.1386277140159405 1.0782793917691327 -0.9371110655871907 0.9025707358311288 -1.4078481860623555
-0.029845130209102955 -1.7271 -0.21327923459370624 -0.8079999999999998 1.5951 -0.030999999999999694 0.2575806197746034 -0.1386277140159405 1.0782793917691327 -0.9371110655871907 0.9025707358311288 -1.4078481860623555
-0.029845130209102955 -1.7271 -0.21327923459370624 -0.8079999999999998 1.5951 -0.030999999999999694 0.2575806197746034 -0.1386277140159405 1.0782793917691327 -0.9371110655871907 0.9025707358311288 -1.4078481860623555
-0.029845130209102955 -1.7271 -0.21327923459370624 -0.8079999999999998 1.5951 -0.030999999999999694 0.2575806197746034 -0.1386277140159405 1.0782793917691327 -0.9371110655871907 0.9025707358311288 -1.4078481860623555
-0.029845130209102955 -1.7271 -0.21327923459370624 -0.8079999999999998 1.5951 -0.030999999999999694 0.2575806197746034 -0.1386277140159405 1.0782793917691327 -0.9371110655871907 0.9025707358311288 -1.4078481860623555
-0.029845130209102955 -1.7271 -0.21327923459370624 -0.8079999999999998 1.5951 -0.030999999999999694 0.2575806197746034 -0.1386277140159405 1.0782793917691327 -0.9371110655871907 0.9025707358311288 -1.4078481860623555
-0.029845130209102955 -1.7271 -0.21327923459370624 -0.8079999999999998 1.5951 -0.030999999999999694 0.2575806197746034 -0.1386277140159405 1.0782793917691327 -0.9371110655871907 0.9025707358311288 -1.4078481860623555
-0.029845130209102955 -1.7271 -0.21327923459370624 -0.8079999999999998 1.5951 -0.030999999999999694 0.2575806197746034 -0.1386277140159405 1.0782793917691327 -0.9371110655871907 0.9025707358311288 -1.4078481860623555
-0.029845130209102955 -1.7271 -0.21327923459370624 -0.8079999999999998 1.5951 -0.030999999999999694 0.2575806197746034 -0.1386277140159405 1.0782793917691327 -0.9371110655871907 0.9025707358311288 -1.4078481860623555
-0.029845130209102955 -1.7271 -0.21327923459370624 -0.8079999999999998 1.5951 -0.030999999999999694 0.2575806197746034 -0.1386277140159405 1.0782793917691327 -0.9371110655871907 0.9025707358311288 -1.4078481860623555
-0.029845130209102955 -1.7271 -0.21327923459370624 -0.8079999999999998 1.5951 -0.030999999999999694 0.2575806197746034 -0.1386277140159405 1.0782793917691327 -0.9371110655871907 0.9025707358311288 -1.4078481860623555
-0.029845130209102955 -1.7271 -0.21327923459370624 -0.8079999999999998 1.5951 -0.030999999999999694 0.2575806197746034 -0.1386277140159405 1.0782793917691327 -0.9371110655871907 0.9025707358311288 -1.4078481860623555
-0.029845130209102955 -1.7271 -0.21327923459370624 -0.8079999999999998 1.5951 -0.030999999999999694 0.2575806197746034 -0.1386277140159405 1.0782793917691327 -0.9371110655871907 0.9025707358311288 -1.4078481860623555
-0.029845130209102955 -1.7271 -0.21327923459370624 -0.8079999999999998 1.5951 -0.030999999999999694 0.2575806197746034 -0.1386277140159405 1.0782793917691327 -0.9371110655871907 0.9025707358311288 -1.4078481860623555
-0.029845130209102955 -1.7271 -0.21327923459370624 -0.8079999999999998 1.5951 -0.030999999999999694 0.2575806197746034 -0.1386277140159405 1.0782793917691327 -0.9371110655871907 0.9025707358311288 -1.4078481860623555
-0.029845130209102955 -1.7271 -0.21327923459370624 -0.8079999999999998 1.5951 -0.030999999999999694 0.2575806197746034 -0.1386277140159405 1.0782793917691327 -0.9371110655871907 0.9025707358311288 -1.4078481860623555
-0.029845130209102955 -1.7271 -0.21327923459370624 -0.8079999999999998 1.5951 -0.030999999999999694 0.2575806197746034 -0.1386277140159405 1.0782793917691327 -0.9371110655871907 0.9025707358311288 -1.4078481860623555
-0.029845130209102955 -1.7271 -0.21327923459370624 -0.8079999999999998 1.5951 -0.030999999999999694 0.2575806197746034 -0.1386277140159405 1.0782793917691327 -0.9371110655871907 0.9025707358311288 -1.4078481860623555
-0.029845130209102955 -1.7271 -0.21327923459370624 -0.8079999999999998 1.5951 -0.030999999999999694 0.2575806197746034 -0.1386277140159405 1.0782793917691327 -0.9371110655871907 0.9025707358311288 -1.4078481860623555
-0.029845130209102955 -1.7271 -0.21327923459370624 -0.8079999999999998 1.5951 -0.030999999999999694 0.2575806197746034 -0.1386277140159405 1.0782793917691327 -0.9371110655871907 0.9025707358311288 -1.4078481860623555
-0.029845130209102955 -1.7271 -0.21327923459370624 -0.8079999999999998 1.5951 -0.030999999999999694 0.2575806197746034 -0.1386277140159405 1.0782793917691327 -0.9371110655871907 0.9025707358311288 -1.4078481860623555
-0.029845130209102955 -1.7271 -0.21327923459370624 -0.8079999999999998 1.5951 -0.030999999999999694 0.2575806197746034 -0.1386277140159405 1.0782793917691327 -0.9371110655871907 0.9025707358311288 -1.4078481860623555
-0.029845130209102955 -1.7271 -0.21327923459370624 -0.8079999999999998 1.5951 -0.030999999999999694 0.2575806197746034 -0.1386277140159405 1.0782793917691327 -0.9371110655871907 0.9025707358311288 -1.4078481860623555
-0.029845130209102955 -1.7271 -0.21327923459370624 -0.8079999999999998 1.5951 -0.030999999999999694 0.2575806197746034 -0.1386277140159405 1.0782793917691327 -0.9371110655871907 0.9025707358311288 -1.4078481860623555
-0.029845130209102955 -1.7271 -0.21327923459370624 -0.8079999999999998 1.5951 -0.030999999999999694 0.2575806197746034 -0.1386277140159405 1.0782793917691327 -0.9371110655871907 0.9025707358311288 -1.4078481860623555
-0.029845130209102955 -1.7271 -0.21327923459370624 -0.8079999999999998 1.5951 -0.030999999999999694 0.2575806197746034 -0.1386277140159405 1.0782793917691327 -0.9371110655871907 0.9025707358311288 -1.4078481860623555
-0.029845130209102955 -1.7271 -0.21327923459370624 -0.8079999999999998 1.5951 -0.030999999999999694 0.2575806197746034 -0.1386277140159405 1.0782793917691327 -0.9371110655871907 0.9025707358311288 -1.4078481860623555
-0.029845130209102955 -1.7271 -0.21327923459370624 -0.8079999999999998 1.5951 -0.030999999999999694 0.2575806197746034 -0.1386277140159405 1.0782793917691327 -0.9371110655871907 0.9025707358311288 -1.4078481860623555
-0.029845130209102955 -1.7271 -0.21327923459370624 -0.8079999999999998 1.5951 -0.030999999999999694 0.2575806197746034 -0.1386277140159405 1.0782793917691327 -0.9371110655871907 0.9025707358311288 -1.4078481860623555
-0.029845130209102955 -1.7271 -0.21327923459370624 -0.8079999999999998 1.5951 -0.030999999999999694 0.2575806197746034 -0.1386277140159405 1.0782793917691327 -0.9371110655871907 0.9025707358311288 -1.4078481860623555
-0.029845130209102955 -1.7271 -0.21327923459370624 -0.8079999999999998 1.5951 -0.030999999999999694 0.2575806197746034 -0.1386277140159405 1.0782793917691327 -0.9371110655871907 0.9025707358311288 -1.4078481860623555
-0.029845130209102955 -1.7271 -0.21327923459370624 -0.8079999999999998 1.5951 -0.030999999999999694 0.2575806197746034 -0.1386277140159405 1.0782793917691327 -0.9371110655871907 0.9025707358311288 -1.4078481860623555
-0.029845130209102955 -1.7271 -0.21327923459370624 -0.8079999999999998 1.5951 -0.030999999999999694 0.2575806197746034 -0.1386277140159405 1.0782793917691327 -0.9371110655871907 0.9025707358311288 -1.4078481860623555
-0.029845130209102955 -1.7271 -0.21327923459370624 -0.8079999999999998 1.5951 -0.030999999999999694 0.2575806197746034 -0.1386277140159405 1.0782793917691327 -0.9371110655871907 0.9025707358311288 -1.4078481860623555
-0.029845130209102955 -1.7271 -0.21327923459370624 -0.8079999999999998 1.5951 -0.030999999999999694 0.2575806197746034 -0.1386277140159405 1.0782793917691327 -0.9371110655871907 0.9025707358311288 -1.4078481860623555
-0.029845130209102955 -1.7271 -0.21327923459370624 -0.8079999999999998 1.5951 -0.030999999999999694 0.2575806197746034 -0.1386277140159405 1.0782793917691327 -0.9371110655871907 0.9025707358311288 -1.4078481860623555
-0.029845130209102955 -1.7271 -0.21327923459370624 -0.8079999999999998 1.5951 -0.030999999999999694 0.2575806197746034 -0.1386277140159405 1.0782793917691327 -0.9371110655871907 0.9025707358311288 -1.4078481860623555
-0.029845130209102955 -1.7271 -0.21327923459370624 -0.8079999999999998 1.5951 -0.030999999999999694 0.2575806197746034 -0.1386277140159405 1.0782793917691327 -0.9371110655871907 0.9025707358311288 -1.4078481860623555
-0.029845130209102955 -1.7271 -0.21327923459370624 -0.8079999999999998 1.5951 -0.030999999999999694 0.2575806197746034 -0.1386277140159405 1.0782793917691327 -0.9371110655871907 0.9025707358311288 -1.4078481860623555
-0.029845130209102955 -1.7271 -0.21327923459370624 -0.8079999999999998 1.5951 -0.030999999999999694 0.2575806197746034 -0.1386277140159405 1.0782793917691327 -0.9371110655871907 0.9025707358311288 -1.4078481860623555
-0.029845130209102955 -1.7271 -0.21327923459370624 -0.8079999999999998 1.5951 -0.030999999999999694 0.2575806197746034 -0.1386277140159405 1.0782793917691327 -0.9371110655871907 0.9025707358311288 -1.4078481860623555
-0.029845130209102955 -1.7271 -0.21327923459370624 -0.8079999999999998 1.5951 -0.030999999999999694 0.2575806197746034 -0.1386277140159405 1.0782793917691327 -0.9371110655871907 0.9025707358311288 -1.4078481860623555
-0.029845130209102955 -1.7271 -0.21327923459370624 -0.8079999999999998 1.5951 -0.030999999999999694 0.2575806197746034 -0.1386277140159405 1.0782793917691327 -0.9371110655871907 0.9025707358311288 -1.4078481860623555
-0.029845130209102955 -1.7271 -0.21327923459370624 -0.8079999999999998 1.5951 -0.030999999999999694 0.2575806197746034 -0.1386277140159405 1.0782793917691327 -0.9371110655871907 0.9025707358311288 -1.4078481860623555
-0.029845130209102955 -1.7271 -0.21327923459370624 -0.8079999999999998 1.5951 -0.030999999999999694 0.2575806197746034 -0.1386277140159405 1.0782793917691327 -0.9371110655871907 0.9025707358311288 -1.4078481860623555
-0.029845130209102955 -1.7271 -0.21327923459370624 -0.8079999999999998 1.5951 -0.030999999999999694 0.2575806197746034 -0.1386277140159405 1.0782793917691327 -0.9371110655871907 0.9025707358311288 -1.4078481860623555
-0.029845130209102955 -1.7271 -0.21327923459370624 -0.8079999999999998 1.5951 -0.030999999999999694 0.2575806197746034 -0.1386277140159405 1.0782793917691327 -0.9371110655871907 0.9025707358311288 -1.4078481860623555
-0.029845130209102955 -1.7271 -0.21327923459370624 -0.8079999999999998 1.5951 -0.030999999999999694 0.2575806197746034 -0.1386277140159405 1.0782793917691327 -0.9371110655871907 0.9025707358311288 -1.4078481860623555
-0.029845130209102955 -1.7271 -0.21327923459370624 -0.8079999999999998 1.5951 -0.030999999999999694 0.2575806197746034 -0.1386277140159405 1.0782793917691327 -0.9371110655871907 0.9025707358311288 -1.4078481860623555
-0.029845130209102955 -1.7271 -0.21327923459370624 -0.8079999999999998 1.5951 -0.030999999999999694 0.2575806197746034 -0.1386277140159405 1.0782793917691327 -0.9371110655871907 0.9025707358311288 -1.4078481860623555
-0.029845130209102955 -1.7271 -0.21327923459370624 -0.8079999999999998 1.5951 -0.030999999999999694 0.2575806197746034 -0.1386277140159405 1.0782793917691327 -0.9371110655871907 0.9025707358311288 -1.4078481860623555
-0.029845130209102955 -1.7271 -0.21327923459370624 -0.8079999999999998 1.5951 -0.030999999999999694 0.2575806197746034 -0.1386277140159405 1.0782793917691327 -0.9371110655871907 0.9025707358311288 -1.4078481860623555
-0.029845130209102955 -1.7271 -0.21327923459370624 -0.8079999999999998 1.5951 -0.030999999999999694 0.2575806197746034 -0.1386277140159405 1.0782793917691327 -0.9371110655871907 0.9025707358311288 -1.4078481860623555
-0.029845130209102955 -1.7271 -0.21327923459370624 -0.8079999999999998 1.5951 -0.030999999999999694 0.2575806197746034 -0.1386277140159405 1.0782793917691327 -0.9371110655871907 0.9025707358311288 -1.4078481860623555
-0.029845130209102955 -1.7271 -0.21327923459370624 -0.8079999999999998 1.5951 -0.030999999999999694 0.2575806197746034 -0.1386277140159405 1.0782793917691327 -0.9371110655871907 0.9025707358311288 -1.4078481860623555
-0.029845130209102955 -1.7271 -0.21327923459370624 -0.8079999999999998 1.5951 -0.030999999999999694 0.2575806197746034 -0.1386277140159405 1.0782793917691327 -0.9371110655871907 0.9025707358311288 -1.4078481860623555
-0.029845130209102955 -1.7271 -0.21327923459370624 -0.8079999999999998 1.5951 -0.030999999999999694 0.2575806197746034 -0.1386277140159405 1.0782793917691327 -0.9371110655871907 0.9025707358311288 -1.4078481860623555
-0.029845130209102955 -1.7271 -0.21327923459370624 -0.8079999999999998 1.5951 -0.030999999999999694 0.2575806197746034 -0.1386277140159405 1.0782793917691327 -0.9371110655871907 0.9025707358311288 -1.4078481860623555
-0.029845130209102955 -1.7271 -0.21327923459370624 -0.8079999999999998 1.5951 -0.030999999999999694 0.2575806197746034 -0.1386277140159405 1.0782793917691327 -0.9371110655871907 0.9025707358311288 -1.4078481860623555
-0.029845130209102955 -1.7271 -0.21327923459370624 -0.8079999999999998 1.5951 -0.030999999999999694 0.2575806197746034 -0.1386277140159405 1.0782793917691327 -0.9371110655871907 0.9025707358311288 -1.4078481860623555
-0.029845130209102955 -1.7271 -0.21327923459370624 -0.8079999999999998 1.5951 -0.030999999999999694 0.2575806197746034 -0.1386277140159405 1.0782793917691327 -0.9371110655871907 0.9025707358311288 -1.4078481860623555
-0.029845130209102955 -1.7271 -0.21327923459370624 -0.8079999999999998 1.5951 -0.030999999999999694 0.2575806197746034 -0.1386277140159405 1.0782793917691327 -0.9371110655871907 0.9025707358311288 -1.4078481860623555
-0.029845130209102955 -1.7271 -0.21327923459370624 -0.8079999999999998 1.5951 -0.030999999999999694 0.2575806197746034 -0.1386277140159405 1.0782793917691327 -0.9371110655871907 0.9025707358311288 -1.4078481860623555
-0.029845130209102955 -1.7271 -0.21327923459370624 -0.8079999999999998 1.5951 -0.030999999999999694 0.2575806197746034 -0.1386277140159405 1.0782793917691327 -0.9371110655871907 0.9025707358311288 -1.4078481860623555
-0.029845130209102955 -1.7271 -0.21327923459370624 -0.8079999999999998 1.5951 -0.030999999999999694 0.2575806197746034 -0.1386277140159405 1.0782793917691327 -0.9371110655871907 0.9025707358311288 -1.4078481860623555
-0.029845130209102955 -1.7271 -0.21327923459370624 -0.8079999999999998 1.5951 -0.030999999999999694 0.2575806197746034 -0.1386277140159405 1.0782793917691327 -0.9371110655871907 0.9025707358311288 -1.4078481860623555
-0.029845130209102955 -1.7271 -0.21327923459370624 -0.8079999999999998 1.5951 -0.030999999999999694 0.2575806197746034 -0.1386277140159405 1.0782793917691327 -0.9371110655871907 0.9025707358311288 -1.4078481860623555
-0.029845130209102955 -1.7271 -0.21327923459370624 -0.8079999999999998 1.5951 -0.030999999999999694 0.2575806197746034 -0.1386277140159405 1.0782793917691327 -0.9371110655871907 0.9025707358311288 -1.4078481860623555
-0.029845130209102955 -1.7271 -0.21327923459370624 -0.8079999999999998 1.5951 -0.030999999999999694 0.2575806197746034 -0.1386277140159405 1.0782793917691327 -0.9371110655871907 0.9025707358311288 -1.4078481860623555
-0.029845130209102955 -1.7271 -0.21327923459370624 -0.8079999999999998 1.5951 -0.030999999999999694 0.2575806197746034 -0.1386277140159405 1.0782793917691327 -0.9371110655871907 0.9025707358311288 -1.4078481860623555
-0.029845130209102955 -1.7271 -0.21327923459370624 -0.8079999999999998 1.5951 -0.030999999999999694 0.2575806197746034 -0.1386277140159405 1.0782793917691327 -0.9371110655871907 0.9025707358311288 -1.4078481860623555
-0.029845130209102955 -1.7271 -0.21327923459370624 -0.8079999999999998 1.5951 -0.030999999999999694 0.2575806197746034 -0.1386277140159405 1.0782793917691327 -0.9371110655871907 0.9025707358311288 -1.4078481860623555
-0.029845130209102955 -1.7271 -0.21327923459370624 -0.8079999999999998 1.5951 -0.030999999999999694 0.2575806197746034 -0.1386277140159405 1.0782793917691327 -0.9371110655871907 0.9025707358311288 -1.4078481860623555
-0.029845130209102955 -1.7271 -0.21327923459370624 -0.8079999999999998 1.5951 -0.030999999999999694 0.2575806197746034 -0.1386277140159405 1.0782793917691327 -0.9371110655871907 0.9025707358311288 -1.4078481860623555
-0.029845130209102955 -1.7271 -0.21327923459370624 -0.8079999999999998 1.5951 -0.030999999999999694 0.2575806197746034 -0.1386277140159405 1.0782793917691327 -0.9371110655871907 0.9025707358311288 -1.4078481860623555
-0.029845130209102955 -1.7271 -0.21327923459370624 -0.8079999999999998 1.5951 -0.030999999999999694 0.2575806197746034 -0.1386277140159405 1.0782793917691327 -0.9371110655871907 0.9025707358311288 -1.4078481860623555
-0.029845130209102955 -1.7271 -0.21327923459370624 -0.8079999999999998 1.5951 -0.030999999999999694 0.2575806197746034 -0.1386277140159405 1.0782793917691327 -0.9371110655871907 0.9025707358311288 -1.4078481860623555
-0.029845130209102955 -1.7271 -0.21327923459370624 -0.8079999999999998 1.5951 -0.030999999999999694 0.2575806197746034 -0.1386277140159405 1.0782793917691327 -0.9371110655871907 0.9025707358311288 -1.4078481860623555
-0.029845130209102955 -1.7271 -0.21327923459370624 -0.8079999999999998 1.5951 -0.030999999999999694 0.2575806197746034 -0.1386277140159405 1.0782793917691327 -0.9371110655871907 0.9025707358311288 -1.4078481860623555
-0.029845130209102955 -1.7271 -0.21327923459370624 -0.8079999999999998 1.5951 -0.030999999999999694 0.2575806197746034 -0.1386277140159405 1.0782793917691327 -0.9371110655871907 0.9025707358311288 -1.4078481860623555
-0.029845130209102955 -1.7271 -0.21327923459370624 -0.8079999999999998 1.5951 -0.030999999999999694 0.2575806197746034 -0.1386277140159405 1.0782793917691327 -0.9371110655871907 0.9025707358311288 -1.4078481860623555
-0.029845130209102955 -1.7271 -0.21327923459370624 -0.8079999999999998 1.5951 -0.030999999999999694 0.2575806197746034 -0.1386277140159405 1.0782793917691327 -0.9371110655871907 0.9025707358311288 -1.4078481860623555
-0.029845130209102955 -1.7271 -0.21327923459370624 -0.8079999999999998 1.5951 -0.030999999999999694 0.2575806197746034 -0.1386277140159405 1.0782793917691327 -0.9371110655871907 0.9025707358311288 -1.4078481860623555
-0.029845130209102955 -1.7271 -0.21327923459370624 -0.8079999999999998 1.5951 -0.030999999999999694 0.2575806197746034 -0.1386277140159405 1.0782793917691327 -0.9371110655871907 0.9025707358311288 -1.4078481860623555
-0.029845130209102955 -1.7271 -0.21327923459370624 -0.8079999999999998 1.5951 -0.030999999999999694 0.2575806197746034 -0.1386277140159405 1.0782793917691327 -0.9371110655871907 0.9025707358311288 -1.4078481860623555
-0.029845130209102955 -1.7271 -0.21327923459370624 -0.8079999999999998 1.5951 -0.030999999999999694 0.2575806197746034 -0.1386277140159405 1.0782793917691327 -0.9371110655871907 0.9025707358311288 -1.4078481860623555
-0.029845130209102955 -1.7271 -0.21327923459370624 -0.8079999999999998 1.5951 -0.030999999999999694 0.2575806197746034 -0.1386277140159405 1.0782793917691327 -0.9371110655871907 0.9025707358311288 -1.4078481860623555
-0.029845130209102955 -1.7271 -0.21327923459370624 -0.8079999999999998 1.5951 -0.030999999999999694 0.2575806197746034 -0.1386277140159405 1.0782793917691327 -0.9371110655871907 0.9025707358311288 -1.4078481860623555
-0.029845130209102955 -1.7271 -0.21327923459370624 -0.8079999999999998 1.5951 -0.030999999999999694 0.2575806197746034 -0.1386277140159405 1.0782793917691327 -0.9371110655871907 0.9025707358311288 -1.4078481860623555
-0.029845130209102955 -1.7271 -0.21327923459370624 -0.8079999999999998 1.5951 -0.030999999999999694 0.2575806197746034 -0.1386277140159405 1.0782793917691327 -0.9371110655871907 0.9025707358311288 -1.4078481860623555
-0.029845130209102955 -1.7271 -0.21327923459370624 -0.8079999999999998 1.5951 -0.030999999999999694 0.2575806197746034 -0.1386277140159405 1.0782793917691327 -0.9371110655871907 0.9025707358311288 -1.4078481860623555
-0.029845130209102955 -1.7271 -0.21327923459370624 -0.8079999999999998 1.5951 -0.030999999999999694 0.2575806197746034 -0.1386277140159405 1.0782793917691327 -0.9371110655871907 0.9025707358311288 -1.4078481860623555
-0.029845130209102955 -1.7271 -0.21327923459370624 -0.8079999999999998 1.5951 -0.030999999999999694 0.2575806197746034 -0.1386277140159405 1.0782793917691327 -0.9371110655871907 0.9025707358311288 -1.4078481860623555
-0.029845130209102955 -1.7271 -0.21327923459370624 -0.8079999999999998 1.5951 -0.030999999999999694 0.2575806197746034 -0.1386277140159405 1.0782793917691327 -0.9371110655871907 0.9025707358311288 -1.4078481860623555
-0.029845130209102955 -1.7271 -0.21327923459370624 -0.8079999999999998 1.5951 -0.030999999999999694 0.2575806197746034 -0.1386277140159405 1.0782793917691327 -0.9371110655871907 0.9025707358311288 -1.4078481860623555
-0.029845130209102955 -1.7271 -0.21327923459370624 -0.8079999999999998 1.5951 -0.030999999999999694 0.2575806197746034 -0.1386277140159405 1.0782793917691327 -0.9371110655871907 0.9025707358311288 -1.4078481860623555
-0.029845130209102955 -1.7271 -0.21327923459370624 -0.8079999999999998 1.5951 -0.030999999999999694 0.2575806197746034 -0.1386277140159405 1.0782793917691327 -0.9371110655871907 0.9025707358311288 -1.4078481860623555
-0.029845130209102955 -1.7271 -0.21327923459370624 -0.8079999999999998 1.5951 -0.030999999999999694 0.2575806197746034 -0.1386277140159405 1.0782793917691327 -0.9371110655871907 0.9025707358311288 -1.4078481860623555
-0.029845130209102955 -1.7271 -0.21327923459370624 -0.8079999999999998 1.5951 -0.030999999999999694 0.2575806197746034 -0.1386277140159405 1.0782793917691327 -0.9371110655871907 0.9025707358311288 -1.4078481860623555
-0.029845130209102955 -1.7271 -0.21327923459370624 -0.8079999999999998 1.5951 -0.030999999999999694 0.2575806197746034 -0.1386277140159405 1.0782793917691327 -0.9371110655871907 0.9025707358311288 -1.4078481860623555
-0.029845130209102955 -1.7271 -0.21327923459370624 -0.8079999999999998 1.5951 -0.030999999999999694 0.2575806197746034 -0.1386277140159405 1.0782793917691327 -0.9371110655871907 0.9025707358311288 -1.4078481860623555
-0.029845130209102955 -1.7271 -0.21327923459370624 -0.8079999999999998 1.5951 -0.030999999999999694 0.2575806197746034 -0.1386277140159405 1.0782793917691327 -0.9371110655871907 0.9025707358311288 -1.4078481860623555
-0.029845130209102955 -1.7271 -0.21327923459370624 -0.8079999999999998 1.5951 -0.030999999999999694 0.2575806197746034 -0.1386277140159405 1.0782793917691327 -0.9371110655871907 0.9025707358311288 -1.4078481860623555
-0.029845130209102955 -1.7271 -0.21327923459370624 -0.8079999999999998 1.5951 -0.030999999999999694 0.2575806197746034 -0.1386277140159405 1.0782793917691327 -0.9371110655871907 0.9025707358311288 -1.4078481860623555
-0.029845130209102955 -1.7271 -0.21327923459370624 -0.8079999999999998 1.5951 -0.030999999999999694 0.2575806197746034 -0.1386277140159405 1.0782793917691327 -0.9371110655871907 0.9025707358311288 -1.4078481860623555
-0.029845130209102955 -1.7271 -0.21327923459370624 -0.8079999999999998 1.5951 -0.030999999999999694 0.2575806197746034 -0.1386277140159405 1.0782793917691327 -0.9371110655871907 0.9025707358311288 -1.4078481860623555
-0.029845130209102955 -1.7271 -0.21327923459370624 -0.8079999999999998 1.5951 -0.030999999999999694 0.2575806197746034 -0.1386277140159405 1.0782793917691327 -0.9371110655871907 0.9025707358311288 -1.4078481860623555
-0.029845130209102955 -1.7271 -0.21327923459370624 -0.8079999999999998 1.5951 -0.030999999999999694 0.2575806197746034 -0.1386277140159405 1.0782793917691327 -0.9371110655871907 0.9025707358311288 -1.4078481860623555
-0.029845130209102955 -1.7271 -0.21327923459370624 -0.8079999999999998 1.5951 -0.030999999999999694 0.2575806197746034 -0.1386277140159405 1.0782793917691327 -0.9371110655871907 0.9025707358311288 -1.4078481860623555
-0.029845130209102955 -1.7271 -0.21327923459370624 -0.8079999999999998 1.5951 -0.030999999999999694 0.2575806197746034 -0.1386277140159405 1.0782793917691327 -0.9371110655871907 0.9025707358311288 -1.4078481860623555
-0.029845130209102955 -1.7271 -0.21327923459370624 -0.8079999999999998 1.5951 -0.030999999999999694 0.2575806197746034 -0.1386277140159405 1.0782793917691327 -0.9371110655871907 0.9025707358311288 -1.4078481860623555
-0.029845130209102955 -1.7271 -0.21327923459370624 -0.8079999999999998 1.5951 -0.030999999999999694 0.2575806197746034 -0.1386277140159405 1.0782793917691327 -0.9371110655871907 0.9025707358311288 -1.4078481860623555
-0.029845130209102955 -1.7271 -0.21327923459370624 -0.8079999999999998 1.5951 -0.030999999999999694 0.2575806197746034 -0.1386277140159405 1.0782793917691327 -0.9371110655871907 0.9025707358311288 -1.4078481860623555
-0.029845130209102955 -1.7271 -0.21327923459370624 -0.8079999999999998 1.5951 -0.030999999999999694 0.2575806197746034 -0.1386277140159405 1.0782793917691327 -0.9371110655871907 0.9025707358311288 -1.4078481860623555
-0.029845130209102955 -1.7271 -0.21327923459370624 -0.8079999999999998 1.5951 -0.030999999999999694 0.2575806197746034 -0.1386277140159405 1.0782793917691327 -0.9371110655871907 0.9025707358311288 -1.4078481860623555
-0.029845130209102955 -1.7271 -0.21327923459370624 -0.8079999999999998 1.5951 -0.030999999999999694 0.2575806197746034 -0.1386277140159405 1.0782793917691327 -0.9371110655871907 0.9025707358311288 -1.4078481860623555
-0.029845130209102955 -1.7271 -0.21327923459370624 -0.8079999999999998 1.5951 -0.030999999999999694 0.2575806197746034 -0.1386277140159405 1.0782793917691327 -0.9371110655871907 0.9025707358311288 -1.4078481860623555
-0.029845130209102955 -1.7271 -0.21327923459370624 -0.8079999999999998 1.5951 -0.030999999999999694 0.2575806197746034 -0.1386277140159405 1.0782793917691327 -0.9371110655871907 0.9025707358311288 -1.4078481860623555
-0.029845130209102955 -1.7271 -0.21327923459370624 -0.8079999999999998 1.5951 -0.030999999999999694 0.2575806197746034 -0.1386277140159405 1.0782793917691327 -0.9371110655871907 0.9025707358311288 -1.4078481860623555
-0.029845130209102955 -1.7271 -0.21327923459370624 -0.8079999999999998 1.5951 -0.030999999999999694 0.2575806197746034 -0.1386277140159405 1.0782793917691327 -0.9371110655871907 0.9025707358311288 -1.4078481860623555
-0.029845130209102955 -1.7271 -0.21327923459370624 -0.8079999999999998 1.5951 -0.030999999999999694 0.2575806197746034 -0.1386277140159405 1.0782793917691327 -0.9371110655871907 0.9025707358311288 -1.4078481860623555
-0.029845130209102955 -1.7271 -0.21327923459370624 -0.8079999999999998 1.5951 -0.030999999999999694 0.2575806197746034 -0.1386277140159405 1.0782793917691327 -0.9371110655871907 0.9025707358311288 -1.4078481860623555
-0.029845130209102955 -1.7271 -0.21327923459370624 -0.8079999999999998 1.5951 -0.030999999999999694 0.2575806197746034 -0.1386277140159405 1.0782793917691327 -0.9371110655871907 0.9025707358311288 -1.4078481860623555
-0.029845130209102955 -1.7271 -0.21327923459370624 -0.8079999999999998 1.5951 -0.030999999999999694 0.2575806197746034 -0.1386277140159405 1.0782793917691327 -0.9371110655871907 0.9025707358311288 -1.4078481860623555
-0.029845130209102955 -1.7271 -0.21327923459370624 -0.8079999999999998 1.5951 -0.030999999999999694 0.2575806197746034 -0.1386277140159405 1.0782793917691327 -0.9371110655871907 0.9025707358311288 -1.4078481860623555
-0.029845130209102955 -1.7271 -0.21327923459370624 -0.8079999999999998 1.5951 -0.030999999999999694 0.2575806197746034 -0.1386277140159405 1.0782793917691327 -0.9371110655871907 0.9025707358311288 -1.4078481860623555
-0.029845130209102955 -1.7271 -0.21327923459370624 -0.8079999999999998 1.5951 -0.030999999999999694 0.2575806197746034 -0.1386277140159405 1.0782793917691327 -0.9371110655871907 0.9025707358311288 -1.4078481860623555
-0.029845130209102955 -1.7271 -0.21327923459370624 -0.8079999999999998 1.5951 -0.030999999999999694 0.2575806197746034 -0.1386277140159405 1.0782793917691327 -0.9371110655871907 0.9025707358311288 -1.4078481860623555
-0.029845130209102955 -1.7271 -0.21327923459370624 -0.8079999999999998 1.5951 -0.030999999999999694 0.2575806197746034 -0.1386277140159405 1.0782793917691327 -0.9371110655871907 0.9025707358311288 -1.4078481860623555
-0.029845130209102955 -1.7271 -0.21327923459370624 -0.8079999999999998 1.5951 -0.030999999999999694 0.2575806197746034 -0.1386277140159405 1.0782793917691327 -0.9371110655871907 0.9025707358311288 -1.4078481860623555
-0.029845130209102955 -1.7271 -0.21327923459370624 -0.8079999999999998 1.5951 -0.030999999999999694 0.2575806197746034 -0.1386277140159405 1.0782793917691327 -0.9371110655871907 0.9025707358311288 -1.4078481860623555
-0.029845130209102955 -1.7271 -0.21327923459370624 -0.8079999999999998 1.5951 -0.030999999999999694 0.2575806197746034 -0.1386277140159405 1.0782793917691327 -0.9371110655871907 0.9025707358311288 -1.4078481860623555
-0.029845130209102955 -1.7271 -0.21327923459370624 -0.8079999999999998 1.5951 -0.030999999999999694 0.2575806197746034 -0.1386277140159405 1.0782793917691327 -0.9371110655871907 0.9025707358311288 -1.4078481860623555
-0.029845130209102955 -1.7271 -0.21327923459370624 -0.8079999999999998 1.5951 -0.030999999999999694 0.2575806197746034 -0.1386277140159405 1.0782793917691327 -0.9371110655871907 0.9025707358311288 -1.4078481860623555
-0.029845130209102955 -1.7271 -0.21327923459370624 -0.8079999999999998 1.5951 -0.030999999999999694 0.2575806197746034 -0.1386277140159405 1.0782793917691327 -0.9371110655871907 0.9025707358311288 -1.4078481860623555
-0.029845130209102955 -1.7271 -0.21327923459370624 -0.8079999999999998 1.5951 -0.030999999999999694 0.2575806197746034 -0.1386277140159405 1.0782793917691327 -0.9371110655871907 0.9025707358311288 -1.4078481860623555
-0.029845130209102955 -1.7271 -0.21327923459370624 -0.8079999999999998 1.5951 -0.030999999999999694 0.2575806197746034 -0.1386277140159405 1.0782793917691327 -0.9371110655871907 0.9025707358311288 -1.4078481860623555
-0.029845130209102955 -1.7271 -0.21327923459370624 -0.8079999999999998 1.5951 -0.030999999999999694 0.2575806197746034 -0.1386277140159405 1.0782793917691327 -0.9371110655871907 0.9025707358311288 -1.4078481860623555
-0.029845130209102955 -1.7271 -0.21327923459370624 -0.8079999999999998 1.5951 -0.030999999999999694 0.2575806197746034 -0.1386277140159405 1.0782793917691327 -0.9371110655871907 0.9025707358311288 -1.4078481860623555
-0.029845130209102955 -1.7271 -0.21327923459370624 -0.8079999999999998 1.5951 -0.030999999999999694 0.2575806197746034 -0.1386277140159405 1.0782793917691327 -0.9371110655871907 0.9025707358311288 -1.4078481860623555
-0.029845130209102955 -1.7271 -0.21327923459370624 -0.8079999999999998 1.5951 -0.030999999999999694 0.2575806197746034 -0.1386277140159405 1.0782793917691327 -0.9371110655871907 0.9025707358311288 -1.4078481860623555
-0.029845130209102955 -1.7271 -0.21327923459370624 -0.8079999999999998 1.5951 -0.030999999999999694 0.2575806197746034 -0.1386277140159405 1.0782793917691327 -0.9371110655871907 0.9025707358311288 -1.4078481860623555
-0.029845130209102955 -1.7271 -0.21327923459370624 -0.8079999999999998 1.5951 -0.030999999999999694 0.2575806197746034 -0.1386277140159405 1.0782793917691327 -0.9371110655871907 0.9025707358311288 -1.4078481860623555
-0.029845130209102955 -1.7271 -0.21327923459370624 -0.8079999999999998 1.5951 -0.030999999999999694 0.2575806197746034 -0.1386277140159405 1.0782793917691327 -0.9371110655871907 0.9025707358311288 -1.4078481860623555
-0.029845130209102955 -1.7271 -0.21327923459370624 -0.8079999999999998 1.5951 -0.030999999999999694 0.2575806197746034 -0.1386277140159405 1.0782793917691327 -0.9371110655871907 0.9025707358311288 -1.4078481860623555
-0.029845130209102955 -1.7271 -0.21327923459370624 -0.8079999999999998 1.5951 -0.030999999999999694 0.2575806197746034 -0.1386277140159405 1.0782793917691327 -0.9371110655871907 0.9025707358311288 -1.4078481860623555
-0.029845130209102955 -1.7271 -0.21327923459370624 -0.8079999999999998 1.5951 -0.030999999999999694 0.2575806197746034 -0.1386277140159405 1.0782793917691327 -0.9371110655871907 0.9025707358311288 -1.4078481860623555
-0.029845130209102955 -1.7271 -0.21327923459370624 -0.8079999999999998 1.5951 -0.030999999999999694 0.2575806197746034 -0.1386277140159405 1.0782793917691327 -0.9371110655871907 0.9025707358311288 -1.4078481860623555
-0.029845130209102955 -1.7271 -0.21327923459370624 -0.8079999999999998 1.5951 -0.030999999999999694 0.2575806197746034 -0.1386277140159405 1.0782793917691327 -0.9371110655871907 0.9025707358311288 -1.4078481860623555
-0.029845130209102955 -1.7271 -0.21327923459370624 -0.8079999999999998 1.5951 -0.030999999999999694 0.2575806197746034 -0.1386277140159405 1.0782793917691327 -0.9371110655871907 0.9025707358311288 -1.4078481860623555
-0.029845130209102955 -1.7271 -0.21327923459370624 -0.8079999999999998 1.5951 -0.030999999999999694 0.2575806197746034 -0.1386277140159405 1.0782793917691327 -0.9371110655871907 0.9025707358311288 -1.4078481860623555
-0.029845130209102955 -1.7271 -0.21327923459370624 -0.8079999999999998 1.5951 -0.030999999999999694 0.2575806197746034 -0.1386277140159405 1.0782793917691327 -0.9371110655871907 0.9025707358311288 -1.4078481860623555
-0.029845130209102955 -1.7271 -0.21327923459370624 -0.8079999999999998 1.5951 -0.030999999999999694 0.2575806197746034 -0.1386277140159405 1.0782793917691327 -0.9371110655871907 0.9025707358311288 -1.4078481860623555
-0.029845130209102955 -1.7271 -0.21327923459370624 -0.8079999999999998 1.5951 -0.030999999999999694 0.2575806197746034 -0.1386277140159405 1.0782793917691327 -0.9371110655871907 0.9025707358311288 -1.4078481860623555
-0.029845130209102955 -1.7271 -0.21327923459370624 -0.8079999999999998 1.5951 -0.030999999999999694 0.2575806197746034 -0.1386277140159405 1.0782793917691327 -0.9371110655871907 0.9025707358311288 -1.4078481860623555
-0.029845130209102955 -1.7271 -0.21327923459370624 -0.8079999999999998 1.5951 -0.030999999999999694 0.2575806197746034 -0.1386277140159405 1.0782793917691327 -0.9371110655871907 0.9025707358311288 -1.4078481860623555
-0.029845130209102955 -1.7271 -0.21327923459370624 -0.8079999999999998 1.5951 -0.030999999999999694 0.2575806197746034 -0.1386277140159405 1.0782793917691327 -0.9371110655871907 0.9025707358311288 -1.4078481860623555
-0.029845130209102955 -1.7271 -0.21327923459370624 -0.8079999999999998 1.5951 -0.030999999999999694 0.2575806197746034 -0.1386277140159405 1.0782793917691327 -0.9371110655871907 0.9025707358311288 -1.4078481860623555
-0.029845130209102955 -1.7271 -0.21327923459370624 -0.8079999999999998 1.5951 -0.030999999999999694 0.2575806197746034 -0.1386277140159405 1.0782793917691327 -0.9371110655871907 0.9025707358311288 -1.4078481860623555
-0.029845130209102955 -1.7271 -0.21327923459370624 -0.8079999999999998 1.5951 -0.030999999999999694 0.2575806197746034 -0.1386277140159405 1.0782793917691327 -0.9371110655871907 0.9025707358311288 -1.4078481860623555
-0.029845130209102955 -1.7271 -0.21327923459370624 -0.8079999999999998 1.5951 -0.030999999999999694 0.2575806197746034 -0.1386277140159405 1.0782793917691327 -0.9371110655871907 0.9025707358311288 -1.4078481860623555
-0.029845130209102955 -1.7271 -0.21327923459370624 -0.8079999999999998 1.5951 -0.030999999999999694 0.2575806197746034 -0.1386277140159405 1.0782793917691327 -0.9371110655871907 0.9025707358311288 -1.4078481860623555
-0.029845130209102955 -1.7271 -0.21327923459370624 -0.8079999999999998 1.5951 -0.030999999999999694 0.2575806197746034 -0.1386277140159405 1.0782793917691327 -0.9371110655871907 0.9025707358311288 -1.4078481860623555
-0.029845130209102955 -1.7271 -0.21327923459370624 -0.8079999999999998 1.5951 -0.030999999999999694 0.2575806197746034 -0.1386277140159405 1.0782793917691327 -0.9371110655871907 0.9025707358311288 -1.4078481860623555
-0.029845130209102955 -1.7271 -0.21327923459370624 -0.8079999999999998 1.5951 -0.030999999999999694 0.2575806197746034 -0.1386277140159405 1.0782793917691327 -0.9371110655871907 0.9025707358311288 -1.4078481860623555
-0.029845130209102955 -1.7271 -0.21327923459370624 -0.8079999999999998 1.5951 -0.030999999999999694 0.2575806197746034 -0.1386277140159405 1.0782793917691327 -0.9371110655871907 0.9025707358311288 -1.4078481860623555
-0.029845130209102955 -1.7271 -0.21327923459370624 -0.8079999999999998 1.5951 -0.030999999999999694 0.2575806197746034 -0.1386277140159405 1.0782793917691327 -0.9371110655871907 0.9025707358311288 -1.4078481860623555
-0.029845130209102955 -1.7271 -0.21327923459370624 -0.8079999999999998 1.5951 -0.030999999999999694 0.2575806197746034 -0.1386277140159405 1.0782793917691327 -0.9371110655871907 0.9025707358311288 -1.4078481860623555
-0.029845130209102955 -1.7271 -0.21327923459370624 -0.8079999999999998 1.5951 -0.030999999999999694 0.2575806197746034 -0.1386277140159405 1.0782793917691327 -0.9371110655871907 0.9025707358311288 -1.4078481860623555
-0.029845130209102955 -1.7271 -0.21327923459370624 -0.8079999999999998 1.5951 -0.030999999999999694 0.2575806197746034 -0.1386277140159405 1.0782793917691327 -0.9371110655871907 0.9025707358311288 -1.4078481860623555
-0.029845130209102955 -1.7271 -0.21327923459370624 -0.8079999999999998 1.5951 -0.030999999999999694 0.2575806197746034 -0.1386277140159405 1.0782793917691327 -0.9371110655871907 0.9025707358311288 -1.4078481860623555
-0.029845130209102955 -1.7271 -0.21327923459370624 -0.8079999999999998 1.5951 -0.030999999999999694 0.2575806197746034 -0.1386277140159405 1.0782793917691327 -0.9371110655871907 0.9025707358311288 -1.4078481860623555
-0.029845130209102955 -1.7271 -0.21327923459370624 -0.8079999999999998 1.5951 -0.030999999999999694 0.2575806197746034 -0.1386277140159405 1.0782793917691327 -0.9371110655871907 0.9025707358311288 -1.4078481860623555
-0.029845130209102955 -1.7271 -0.21327923459370624 -0.8079999999999998 1.5951 -0.030999999999999694 0.2575806197746034 -0.1386277140159405 1.0782793917691327 -0.9371110655871907 0.9025707358311288 -1.4078481860623555
-0.029845130209102955 -1.7271 -0.21327923459370624 -0.8079999999999998 1.5951 -0.030999999999999694 0.2575806197746034 -0.1386277140159405 1.0782793917691327 -0.9371110655871907 0.9025707358311288 -1.4078481860623555
-0.029845130209102955 -1.7271 -0.21327923459370624 -0.8079999999999998 1.5951 -0.030999999999999694 0.2575806197746034 -0.1386277140159405 1.0782793917691327 -0.9371110655871907 0.9025707358311288 -1.4078481860623555
-0.029845130209102955 -1.7271 -0.21327923459370624 -0.8079999999999998 1.5951 -0.030999999999999694 0.2575806197746034 -0.1386277140159405 1.0782793917691327 -0.9371110655871907 0.9025707358311288 -1.4078481860623555
-0.029845130209102955 -1.7271 -0.21327923459370624 -0.8079999999999998 1.5951 -0.030999999999999694 0.2575806197746034 -0.1386277140159405 1.0782793917691327 -0.9371110655871907 0.9025707358311288 -1.4078481860623555
-0.029845130209102955 -1.7271 -0.21327923459370624 -0.8079999999999998 1.5951 -0.030999999999999694 0.2575806197746034 -0.1386277140159405 1.0782793917691327 -0.9371110655871907 0.9025707358311288 -1.4078481860623555
-0.029845130209102955 -1.7271 -0.21327923459370624 -0.8079999999999998 1.5951 -0.030999999999999694 0.2575806197746034 -0.1386277140159405 1.0782793917691327 -0.9371110655871907 0.9025707358311288 -1.4078481860623555
-0.029845130209102955 -1.7271 -0.21327923459370624 -0.8079999999999998 1.5951 -0.030999999999999694 0.2575806197746034 -0.1386277140159405 1.0782793917691327 -0.9371110655871907 0.9025707358311288 -1.4078481860623555
-0.029845130209102955 -1.7271 -0.21327923459370624 -0.8079999999999998 1.5951 -0.030999999999999694 0.2575806197746034 -0.1386277140159405 1.0782793917691327 -0.9371110655871907 0.9025707358311288 -1.4078481860623555
-0.029845130209102955 -1.7271 -0.21327923459370624 -0.8079999999999998 1.5951 -0.030999999999999694 0.2575806197746034 -0.1386277140159405 1.0782793917691327 -0.9371110655871907 0.9025707358311288 -1.4078481860623555
-0.029845130209102955 -1.7271 -0.21327923459370624 -0.8079999999999998 1.5951 -0.030999999999999694 0.2575806197746034 -0.1386277140159405 1.0782793917691327 -0.9371110655871907 0.9025707358311288 -1.4078481860623555
-0.029845130209102955 -1.7271 -0.21327923459370624 -0.8079999999999998 1.5951 -0.030999999999999694 0.2575806197746034 -0.1386277140159405 1.0782793917691327 -0.9371110655871907 0.9025707358311288 -1.4078481860623555
-0.029845130209102955 -1.7271 -0.21327923459370624 -0.8079999999999998 1.5951 -0.030999999999999694 0.2575806197746034 -0.1386277140159405 1.0782793917691327 -0.9371110655871907 0.9025707358311288 -1.4078481860623555
-0.029845130209102955 -1.7271 -0.21327923459370624 -0.8079999999999998 1.5951 -0.030999999999999694 0.2575806197746034 -0.1386277140159405 1.0782793917691327 -0.9371110655871907 0.9025707358311288 -1.4078481860623555
-0.029845130209102955 -1.7271 -0.21327923459370624 -0.8079999999999998 1.5951 -0.030999999999999694 0.2575806197746034 -0.1386277140159405 1.0782793917691327 -0.9371110655871907 0.9025707358311288 -1.4078481860623555
-0.029845130209102955 -1.7271 -0.21327923459370624 -0.8079999999999998 1.5951 -0.030999999999999694 0.2575806197746034 -0.1386277140159405 1.0782793917691327 -0.9371110655871907 0.9025707358311288 -1.4078481860623555
-0.029845130209102955 -1.7271 -0.21327923459370624 -0.8079999999999998 1.5951 -0.030999999999999694 0.2575806197746034 -0.1386277140159405 1.0782793917691327 -0.9371110655871907 0.9025707358311288 -1.4078481860623555
-0.029845130209102955 -1.7271 -0.21327923459370624 -0.8079999999999998 1.5951 -0.030999999999999694 0.2575806197746034 -0.1386277140159405 1.0782793917691327 -0.9371110655871907 0.9025707358311288 -1.4078481860623555
-0.029845130209102955 -1.7271 -0.21327923459370624 -0.8079999999999998 1.5951 -0.030999999999999694 0.2575806197746034 -0.1386277140159405 1.0782793917691327 -0.9371110655871907 0.9025707358311288 -1.4078481860623555
-0.029845130209102955 -1.7271 -0.21327923459370624 -0.8079999999999998 1.5951 -0.030999999999999694 0.2575806197746034 -0.1386277140159405 1.0782793917691327 -0.9371110655871907 0.9025707358311288 -1.4078481860623555
-0.029845130209102955 -1.7271 -0.21327923459370624 -0.8079999999999998 1.5951 -0.030999999999999694 0.2575806197746034 -0.1386277140159405 1.0782793917691327 -0.9371110655871907 0.9025707358311288 -1.4078481860623555
-0.029845130209102955 -1.7271 -0.21327923459370624 -0.8079999999999998 1.5951 -0.030999999999999694 0.2575806197746034 -0.1386277140159405 1.0782793917691327 -0.9371110655871907 0.9025707358311288 -1.4078481860623555
-0.029845130209102955 -1.7271 -0.21327923459370624 -0.8079999999999998 1.5951 -0.030999999999999694 0.2575806197746034 -0.1386277140159405 1.0782793917691327 -0.9371110655871907 0.9025707358311288 -1.4078481860623555
-0.029845130209102955 -1.7271 -0.21327923459370624 -0.8079999999999998 1.5951 -0.030999999999999694 0.2575806197746034 -0.1386277140159405 1.0782793917691327 -0.9371110655871907 0.9025707358311288 -1.4078481860623555
-0.029845130209102955 -1.7271 -0.21327923459370624 -0.8079999999999998 1.5951 -0.030999999999999694 0.2575806197746034 -0.1386277140159405 1.0782793917691327 -0.9371110655871907 0.9025707358311288 -1.4078481860623555
-0.029845130209102955 -1.7271 -0.21327923459370624 -0.8079999999999998 1.5951 -0.030999999999999694 0.2575806197746034 -0.1386277140159405 1.0782793917691327 -0.9371110655871907 0.9025707358311288 -1.4078481860623555
-0.029845130209102955 -1.7271 -0.21327923459370624 -0.8079999999999998 1.5951 -0.030999999999999694 0.2575806197746034 -0.1386277140159405 1.0782793917691327 -0.9371110655871907 0.9025707358311288 -1.4078481860623555
-0.029845130209102955 -1.7271 -0.21327923459370624 -0.8079999999999998 1.5951 -0.030999999999999694 0.2575806197746034 -0.1386277140159405 1.0782793917691327 -0.9371110655871907 0.9025707358311288 -1.4078481860623555
-0.029845130209102955 -1.7271 -0.21327923459370624 -0.8079999999999998 1.5951 -0.030999999999999694 0.2575806197746034 -0.1386277140159405 1.0782793917691327 -0.9371110655871907 0.9025707358311288 -1.4078481860623555
-0.029845130209102955 -1.7271 -0.21327923459370624 -0.8079999999999998 1.5951 -0.030999999999999694 0.2575806197746034 -0.1386277140159405 1.0782793917691327 -0.9371110655871907 0.9025707358311288 -1.4078481860623555
-0.029845130209102955 -1.7271 -0.21327923459370624 -0.8079999999999998 1.5951 -0.030999999999999694 0.2575806197746034 -0.1386277140159405 1.0782793917691327 -0.9371110655871907 0.9025707358311288 -1.4078481860623555
-0.029845130209102955 -1.7271 -0.21327923459370624 -0.8079999999999998 1.5951 -0.030999999999999694 0.2575806197746034 -0.1386277140159405 1.0782793917691327 -0.9371110655871907 0.9025707358311288 -1.4078481860623555
-0.029845130209102955 -1.7271 -0.21327923459370624 -0.8079999999999998 1.5951 -0.030999999999999694 0.2575806197746034 -0.1386277140159405 1.0782793917691327 -0.9371110655871907 0.9025707358311288 -1.4078481860623555
-0.029845130209102955 -1.7271 -0.21327923459370624 -0.8079999999999998 1.5951 -0.030999999999999694 0.2575806197746034 -0.1386277140159405 1.0782793917691327 -0.9371110655871907 0.9025707358311288 -1.4078481860623555
-0.029845130209102955 -1.7271 -0.21327923459370624 -0.8079999999999998 1.5951 -0.030999999999999694 0.2575806197746034 -0.1386277140159405 1.0782793917691327 -0.9371110655871907 0.9025707358311288 -1.4078481860623555
-0.029845130209102955 -1.7271 -0.21327923459370624 -0.8079999999999998 1.5951 -0.030999999999999694 0.2575806197746034 -0.1386277140159405 1.0782793917691327 -0.9371110655871907 0.9025707358311288 -1.4078481860623555
-0.029845130209102955 -1.7271 -0.21327923459370624 -0.8079999999999998 1.5951 -0.030999999999999694 0.2575806197746034 -0.1386277140159405 1.0782793917691327 -0.9371110655871907 0.9025707358311288 -1.4078481860623555
-0.029845130209102955 -1.7271 -0.21327923459370624 -0.8079999999999998 1.5951 -0.030999999999999694 0.2575806197746034 -0.1386277140159405 1.0782793917691327 -0.9371110655871907 0.9025707358311288 -1.4078481860623555
-0.029845130209102955 -1.7271 -0.21327923459370624 -0.8079999999999998 1.5951 -0.030999999999999694 0.2575806197746034 -0.1386277140159405 1.0782793917691327 -0.9371110655871907 0.9025707358311288 -1.4078481860623555
-0.029845130209102955 -1.7271 -0.21327923459370624 -0.8079999999999998 1.5951 -0.030999999999999694 0.2575806197746034 -0.1386277140159405 1.0782793917691327 -0.9371110655871907 0.9025707358311288 -1.4078481860623555
-0.029845130209102955 -1.7271 -0.21327923459370624 -0.8079999999999998 1.5951 -0.030999999999999694 0.2575806197746034 -0.1386277140159405 1.0782793917691327 -0.9371110655871907 0.9025707358311288 -1.4078481860623555
-0.029845130209102955 -1.7271 -0.21327923459370624 -0.8079999999999998 1.5951 -0.030999999999999694 0.2575806197746034 -0.1386277140159405 1.0782793917691327 -0.9371110655871907 0.9025707358311288 -1.4078481860623555
-0.029845130209102955 -1.7271 -0.21327923459370624 -0.8079999999999998 1.5951 -0.030999999999999694 0.2575806197746034 -0.1386277140159405 1.0782793917691327 -0.9371110655871907 0.9025707358311288 -1.4078481860623555
-0.029845130209102955 -1.7271 -0.21327923459370624 -0.8079999999999998 1.5951 -0.030999999999999694 0.2575806197746034 -0.1386277140159405 1.0782793917691327 -0.9371110655871907 0.9025707358311288 -1.4078481860623555
-0.029845130209102955 -1.7271 -0.21327923459370624 -0.8079999999999998 1.5951 -0.030999999999999694 0.2575806197746034 -0.1386277140159405 1.0782793917691327 -0.9371110655871907 0.9025707358311288 -1.4078481860623555
-0.029845130209102955 -1.7271 -0.21327923459370624 -0.8079999999999998 1.5951 -0.030999999999999694 0.2575806197746034 -0.1386277140159405 1.0782793917691327 -0.9371110655871907 0.9025707358311288 -1.4078481860623555
-0.029845130209102955 -1.7271 -0.21327923459370624 -0.8079999999999998 1.5951 -0.030999999999999694 0.2575806197746034 -0.1386277140159405 1.0782793917691327 -0.9371110655871907 0.9025707358311288 -1.4078481860623555
-0.029845130209102955 -1.7271 -0.21327923459370624 -0.8079999999999998 1.5951 -0.030999999999999694 0.2575806197746034 -0.1386277140159405 1.0782793917691327 -0.9371110655871907 0.9025707358311288 -1.4078481860623555
-0.029845130209102955 -1.7271 -0.21327923459370624 -0.8079999999999998 1.5951 -0.030999999999999694 0.2575806197746034 -0.1386277140159405 1.0782793917691327 -0.9371110655871907 0.9025707358311288 -1.4078481860623555
-0.029845130209102955 -1.7271 -0.21327923459370624 -0.8079999999999998 1.5951 -0.030999999999999694 0.2575806197746034 -0.1386277140159405 1.0782793917691327 -0.9371110655871907 0.9025707358311288 -1.4078481860623555
-0.029845130209102955 -1.7271 -0.21327923459370624 -0.8079999999999998 1.5951 -0.030999999999999694 0.2575806197746034 -0.1386277140159405 1.0782793917691327 -0.9371110655871907 0.9025707358311288 -1.4078481860623555
-0.029845130209102955 -1.7271 -0.21327923459370624 -0.8079999999999998 1.5951 -0.030999999999999694 0.2575806197746034 -0.1386277140159405 1.0782793917691327 -0.9371110655871907 0.9025707358311288 -1.4078481860623555
-0.029845130209102955 -1.7271 -0.21327923459370624 -0.8079999999999998 1.5951 -0.030999999999999694 0.2575806197746034 -0.1386277140159405 1.0782793917691327 -0.9371110655871907 0.9025707358311288 -1.4078481860623555
-0.029845130209102955 -1.7271 -0.21327923459370624 -0.8079999999999998 1.5951 -0.030999999999999694 0.2575806197746034 -0.1386277140159405 1.0782793917691327 -0.9371110655871907 0.9025707358311288 -1.4078481860623555
-0.029845130209102955 -1.7271 -0.21327923459370624 -0.8079999999999998 1.5951 -0.030999999999999694 0.2575806197746034 -0.1386277140159405 1.0782793917691327 -0.9371110655871907 0.9025707358311288 -1.4078481860623555
-0.029845130209102955 -1.7271 -0.21327923459370624 -0.8079999999999998 1.5951 -0.030999999999999694 0.2575806197746034 -0.1386277140159405 1.0782793917691327 -0.9371110655871907 0.9025707358311288 -1.4078481860623555
-0.029845130209102955 -1.7271 -0.21327923459370624 -0.8079999999999998 1.5951 -0.030999999999999694 0.2575806197746034 -0.1386277140159405 1.0782793917691327 -0.9371110655871907 0.9025707358311288 -1.4078481860623555
-0.029845130209102955 -1.7271 -0.21327923459370624 -0.8079999999999998 1.5951 -0.030999999999999694 0.2575806197746034 -0.1386277140159405 1.0782793917691327 -0.9371110655871907 0.9025707358311288 -1.4078481860623555
-0.029845130209102955 -1.7271 -0.21327923459370624 -0.8079999999999998 1.5951 -0.030999999999999694 0.2575806197746034 -0.1386277140159405 1.0782793917691327 -0.9371110655871907 0.9025707358311288 -1.4078481860623555
-0.029845130209102955 -1.7271 -0.21327923459370624 -0.8079999999999998 1.5951 -0.030999999999999694 0.2575806197746034 -0.1386277140159405 1.0782793917691327 -0.9371110655871907 0.9025707358311288 -1.4078481860623555
-0.029845130209102955 -1.7271 -0.21327923459370624 -0.8079999999999998 1.5951 -0.030999999999999694 0.2575806197746034 -0.1386277140159405 1.0782793917691327 -0.9371110655871907 0.9025707358311288 -1.4078481860623555
-0.029845130209102955 -1.7271 -0.21327923459370624 -0.8079999999999998 1.5951 -0.030999999999999694 0.2575806197746034 -0.1386277140159405 1.0782793917691327 -0.9371110655871907 0.9025707358311288 -1.4078481860623555
-0.029845130209102955 -1.7271 -0.21327923459370624 -0.8079999999999998 1.5951 -0.030999999999999694 0.2575806197746034 -0.1386277140159405 1.0782793917691327 -0.9371110655871907 0.9025707358311288 -1.4078481860623555
-0.029845130209102955 -1.7271 -0.21327923459370624 -0.8079999999999998 1.5951 -0.030999999999999694 0.2575806197746034 -0.1386277140159405 1.0782793917691327 -0.9371110655871907 0.9025707358311288 -1.4078481860623555
-0.029845130209102955 -1.7271 -0.21327923459370624 -0.8079999999999998 1.5951 -0.030999999999999694 0.2575806197746034 -0.1386277140159405 1.0782793917691327 -0.9371110655871907 0.9025707358311288 -1.4078481860623555
-0.029845130209102955 -1.7271 -0.21327923459370624 -0.8079999999999998 1.5951 -0.030999999999999694 0.2575806197746034 -0.1386277140159405 1.0782793917691327 -0.9371110655871907 0.9025707358311288 -1.4078481860623555
-0.029845130209102955 -1.7271 -0.21327923459370624 -0.8079999999999998 1.5951 -0.030999999999999694 0.2575806197746034 -0.1386277140159405 1.0782793917691327 -0.9371110655871907 0.9025707358311288 -1.4078481860623555
-0.029845130209102955 -1.7271 -0.21327923459370624 -0.8079999999999998 1.5951 -0.030999999999999694 0.2575806197746034 -0.1386277140159405 1.0782793917691327 -0.9371110655871907 0.9025707358311288 -1.4078481860623555
-0.029845130209102955 -1.7271 -0.21327923459370624 -0.8079999999999998 1.5951 -0.030999999999999694 0.2575806197746034 -0.1386277140159405 1.0782793917691327 -0.9371110655871907 0.9025707358311288 -1.4078481860623555
-0.029845130209102955 -1.7271 -0.21327923459370624 -0.8079999999999998 1.5951 -0.030999999999999694 0.2575806197746034 -0.1386277140159405 1.0782793917691327 -0.9371110655871907 0.9025707358311288 -1.4078481860623555
-0.029845130209102955 -1.7271 -0.21327923459370624 -0.8079999999999998 1.5951 -0.030999999999999694 0.2575806197746034 -0.1386277140159405 1.0782793917691327 -0.9371110655871907 0.9025707358311288 -1.4078481860623555
-0.029845130209102955 -1.7271 -0.21327923459370624 -0.8079999999999998 1.5951 -0.030999999999999694 0.2575806197746034 -0.1386277140159405 1.0782793917691327 -0.9371110655871907 0.9025707358311288 -1.4078481860623555
-0.029845130209102955 -1.7271 -0.21327923459370624 -0.8079999999999998 1.5951 -0.030999999999999694 0.2575806197746034 -0.1386277140159405 1.0782793917691327 -0.9371110655871907 0.9025707358311288 -1.4078481860623555
-0.029845130209102955 -1.7271 -0.21327923459370624 -0.8079999999999998 1.5951 -0.030999999999999694 0.2575806197746034 -0.1386277140159405 1.0782793917691327 -0.9371110655871907 0.9025707358311288 -1.4078481860623555
-0.029845130209102955 -1.7271 -0.21327923459370624 -0.8079999999999998 1.5951 -0.030999999999999694 0.2575806197746034 -0.1386277140159405 1.0782793917691327 -0.9371110655871907 0.9025707358311288 -1.4078481860623555
-0.029845130209102955 -1.7271 -0.21327923459370624 -0.8079999999999998 1.5951 -0.030999999999999694 0.2575806197746034 -0.1386277140159405 1.0782793917691327 -0.9371110655871907 0.9025707358311288 -1.4078481860623555
-0.029845130209102955 -1.7271 -0.21327923459370624 -0.8079999999999998 1.5951 -0.030999999999999694 0.2575806197746034 -0.1386277140159405 1.0782793917691327 -0.9371110655871907 0.9025707358311288 -1.4078481860623555
-0.029845130209102955 -1.7271 -0.21327923459370624 -0.8079999999999998 1.5951 -0.030999999999999694 0.2575806197746034 -0.1386277140159405 1.0782793917691327 -0.9371110655871907 0.9025707358311288 -1.4078481860623555
-0.029845130209102955 -1.7271 -0.21327923459370624 -0.8079999999999998 1.5951 -0.030999999999999694 0.2575806197746034 -0.1386277140159405 1.0782793917691327 -0.9371110655871907 0.9025707358311288 -1.4078481860623555
-0.029845130209102955 -1.7271 -0.21327923459370624 -0.8079999999999998 1.5951 -0.030999999999999694 0.2575806197746034 -0.1386277140159405 1.0782793917691327 -0.9371110655871907 0.9025707358311288 -1.4078481860623555
-0.029845130209102955 -1.7271 -0.21327923459370624 -0.8079999999999998 1.5951 -0.030999999999999694 0.2575806197746034 -0.1386277140159405 1.0782793917691327 -0.9371110655871907 0.9025707358311288 -1.4078481860623555
-0.029845130209102955 -1.7271 -0.21327923459370624 -0.8079999999999998 1.5951 -0.030999999999999694 0.2575806197746034 -0.1386277140159405 1.0782793917691327 -0.9371110655871907 0.9025707358311288 -1.4078481860623555
-0.029845130209102955 -1.7271 -0.21327923459370624 -0.8079999999999998 1.5951 -0.030999999999999694 0.2575806197746034 -0.1386277140159405 1.0782793917691327 -0.9371110655871907 0.9025707358311288 -1.4078481860623555
-0.029845130209102955 -1.7271 -0.21327923459370624 -0.8079999999999998 1.5951 -0.030999999999999694 0.2575806197746034 -0.1386277140159405 1.0782793917691327 -0.9371110655871907 0.9025707358311288 -1.4078481860623555
-0.029845130209102955 -1.7271 -0.21327923459370624 -0.8079999999999998 1.5951 -0.030999999999999694 0.2575806197746034 -0.1386277140159405 1.0782793917691327 -0.9371110655871907 0.9025707358311288 -1.4078481860623555
-0.029845130209102955 -1.7271 -0.21327923459370624 -0.8079999999999998 1.5951 -0.030999999999999694 0.2575806197746034 -0.1386277140159405 1.0782793917691327 -0.9371110655871907 0.9025707358311288 -1.4078481860623555
-0.029845130209102955 -1.7271 -0.21327923459370624 -0.8079999999999998 1.5951 -0.030999999999999694 0.2575806197746034 -0.1386277140159405 1.0782793917691327 -0.9371110655871907 0.9025707358311288 -1.4078481860623555
-0.029845130209102955 -1.7271 -0.21327923459370624 -0.8079999999999998 1.5951 -0.030999999999999694 0.2575806197746034 -0.1386277140159405 1.0782793917691327 -0.9371110655871907 0.9025707358311288 -1.4078481860623555
-0.029845130209102955 -1.7271 -0.21327923459370624 -0.8079999999999998 1.5951 -0.030999999999999694 0.2575806197746034 -0.1386277140159405 1.0782793917691327 -0.9371110655871907 0.9025707358311288 -1.4078481860623555
-0.029845130209102955 -1.7271 -0.21327923459370624 -0.8079999999999998 1.5951 -0.030999999999999694 0.2575806197746034 -0.1386277140159405 1.0782793917691327 -0.9371110655871907 0.9025707358311288 -1.4078481860623555
-0.029845130209102955 -1.7271 -0.21327923459370624 -0.8079999999999998 1.5951 -0.030999999999999694 0.2575806197746034 -0.1386277140159405 1.0782793917691327 -0.9371110655871907 0.9025707358311288 -1.4078481860623555
-0.029845130209102955 -1.7271 -0.21327923459370624 -0.8079999999999998 1.5951 -0.030999999999999694 0.2575806197746034 -0.1386277140159405 1.0782793917691327 -0.9371110655871907 0.9025707358311288 -1.4078481860623555
-0.029845130209102955 -1.7271 -0.21327923459370624 -0.8079999999999998 1.5951 -0.030999999999999694 0.2575806197746034 -0.1386277140159405 1.0782793917691327 -0.9371110655871907 0.9025707358311288 -1.4078481860623555
-0.029845130209102955 -1.7271 -0.21327923459370624 -0.8079999999999998 1.5951 -0.030999999999999694 0.2575806197746034 -0.1386277140159405 1.0782793917691327 -0.9371110655871907 0.9025707358311288 -1.4078481860623555
-0.029845130209102955 -1.7271 -0.21327923459370624 -0.8079999999999998 1.5951 -0.030999999999999694 0.2575806197746034 -0.1386277140159405 1.0782793917691327 -0.9371110655871907 0.9025707358311288 -1.4078481860623555
-0.029845130209102955 -1.7271 -0.21327923459370624 -0.8079999999999998 1.5951 -0.030999999999999694 0.2575806197746034 -0.1386277140159405 1.0782793917691327 -0.9371110655871907 0.9025707358311288 -1.4078481860623555
-0.029845130209102955 -1.7271 -0.21327923459370624 -0.8079999999999998 1.5951 -0.030999999999999694 0.2575806197746034 -0.1386277140159405 1.0782793917691327 -0.9371110655871907 0.9025707358311288 -1.4078481860623555
-0.029845130209102955 -1.7271 -0.21327923459370624 -0.8079999999999998 1.5951 -0.030999999999999694 0.2575806197746034 -0.1386277140159405 1.0782793917691327 -0.9371110655871907 0.9025707358311288 -1.4078481860623555
-0.029845130209102955 -1.7271 -0.21327923459370624 -0.8079999999999998 1.5951 -0.030999999999999694 0.2575806197746034 -0.1386277140159405 1.0782793917691327 -0.9371110655871907 0.9025707358311288 -1.4078481860623555
-0.029845130209102955 -1.7271 -0.21327923459370624 -0.8079999999999998 1.5951 -0.030999999999999694 0.2575806197746034 -0.1386277140159405 1.0782793917691327 -0.9371110655871907 0.9025707358311288 -1.4078481860623555
-0.029845130209102955 -1.7271 -0.21327923459370624 -0.8079999999999998 1.5951 -0.030999999999999694 0.2575806197746034 -0.1386277140159405 1.0782793917691327 -0.9371110655871907 0.9025707358311288 -1.4078481860623555
-0.029845130209102955 -1.7271 -0.21327923459370624 -0.8079999999999998 1.5951 -0.030999999999999694 0.2575806197746034 -0.1386277140159405 1.0782793917691327 -0.9371110655871907 0.9025707358311288 -1.4078481860623555
-0.029845130209102955 -1.7271 -0.21327923459370624 -0.8079999999999998 1.5951 -0.030999999999999694 0.2575806197746034 -0.1386277140159405 1.0782793917691327 -0.9371110655871907 0.9025707358311288 -1.4078481860623555
-0.029845130209102955 -1.7271 -0.21327923459370624 -0.8079999999999998 1.5951 -0.030999999999999694 0.2575806197746034 -0.1386277140159405 1.0782793917691327 -0.9371110655871907 0.9025707358311288 -1.4078481860623555
-0.029845130209102955 -1.7271 -0.21327923459370624 -0.8079999999999998 1.5951 -0.030999999999999694 0.2575806197746034 -0.1386277140159405 1.0782793917691327 -0.9371110655871907 0.9025707358311288 -1.4078481860623555
-0.029845130209102955 -1.7271 -0.21327923459370624 -0.8079999999999998 1.5951 -0.030999999999999694 0.2575806197746034 -0.1386277140159405 1.0782793917691327 -0.9371110655871907 0.9025707358311288 -1.4078481860623555
-0.029845130209102955 -1.7271 -0.21327923459370624 -0.8079999999999998 1.5951 -0.030999999999999694 0.2575806197746034 -0.1386277140159405 1.0782793917691327 -0.9371110655871907 0.9025707358311288 -1.4078481860623555
-0.029845130209102955 -1.7271 -0.21327923459370624 -0.8079999999999998 1.5951 -0.030999999999999694 0.2575806197746034 -0.1386277140159405 1.0782793917691327 -0.9371110655871907 0.9025707358311288 -1.4078481860623555
-0.029845130209102955 -1.7271 -0.21327923459370624 -0.8079999999999998 1.5951 -0.030999999999999694 0.2575806197746034 -0.1386277140159405 1.0782793917691327 -0.9371110655871907 0.9025707358311288 -1.4078481860623555
-0.029845148066835137 -1.7271 -0.21327925721317342 -0.8079999999999998 1.5951 -0.030999999999999694 0.25758062851239044 -0.1386277189505101 1.078279387348299 -0.9371110767322158 0.9025707634993232 -1.4078481928091007
-0.02984553312417937 -1.7271 -0.21327974494543245 -0.8079999999999998 1.5951 -0.030999999999999694 0.2575808169208761 -0.1386278253522515 1.078279292024011 -0.9371113170467305 0.902571360094836 -1.4078483382856857
-0.029847401503162452 -1.7271 -0.21328211152463172 -0.8079999999999998 1.5951 -0.030999999999999694 0.2575817311170768 -0.13862834163814594 1.0782788294889014 -0.9371124831007372 0.9025742549035476 -1.4078490441660467
-0.02985269605887808 -1.7271 -0.21328881786501608 -0.8079999999999998 1.5951 -0.030999999999999694 0.25758432172701473 -0.13862980469446837 1.0782775187558418 -0.9371157874075042 0.9025824581442974 -1.407851044445566
-0.029864186393270487 -1.7271 -0.21330337207838213 -0.8079999999999998 1.5951 -0.030999999999999694 0.2575899438538507 -0.1386329799508855 1.0782746741040479 -0.937122958359471 0.9026002610557805 -1.4078553853698346
-0.02988546885513177 -1.7271 -0.21333032947407737 -0.8079999999999998 1.5951 -0.030999999999999694 0.25760035697650335 -0.13863886156499727 1.078269404946529 -0.9371362400373917 0.9026332360686237 -1.4078634252339364
-0.029920966540104565 -1.7271 -0.21337529255900112 -0.8079999999999998 1.5951 -0.030999999999999694 0.2576177247366832 -0.13864867280989385 1.0782606155517152 -0.9371583918094671 0.9026882371667767 -1.4078768339608878
-0.029975929290677605 -1.7271 -0.21344491103760266 -0.8079999999999998 1.5951 -0.030999999999999694 0.2576446145508647 -0.1386638667799446 1.0782470045364727 -0.9371926876011762 0.9027734005456581 -1.4078975923337593
-0.030056433696190155 -1.7271 -0.21354688181188397 -0.8079999999999998 1.5951 -0.030999999999999694 0.2576839969689236 -0.13868612755643067 1.0782270640287268 -0.9372429146889908 0.9028981456991526 -1.4079279907270825
-0.030169383092832014 -1.7271 -0.21368994898139704 -0.8079999999999998 1.5951 -0.030999999999999694 0.2577392446861225 -0.1387173720008998 1.0781990783789395 -0.9373133718435243 0.9030731770920774 -1.4079706271540648
-0.03032250756363819 -1.7271 -0.21388390384324651 -0.8079999999999998 1.5951 -0.030999999999999694 0.2578141310996913 -0.13875975237021115 1.0781611222807876 -0.9374088666198798 0.903310486599168 -1.4080284044168463
-0.030524363938495114 -1.7271 -0.21413958489208618 -0.8079999999999998 1.5951 -0.030999999999999694 0.25791282828518314 -0.138815659973034 1.0781110581425708 -0.9375347115648289 0.9036233569158274 -1.4081045261174825
-0.030784335794137974 -1.7271 -0.21446887782012247 -0.8079999999999998 1.5951 -0.030999999999999694 0.2580399042508623 -0.1388877301129245 1.0780465325321864 -0.9376967190820169 0.9040263661697839 -1.4082024912572482
-0.031112633454150718 -1.7271 -0.21488471551711363 -0.8079999999999998 1.5951 -0.030999999999999694 0.25820031931018267 -0.1389788485878832 1.077964971500012 -0.9379011946672804 0.9045353939862663 -1.408326087121214
-0.031520293988964276 -1.7271 -0.21540107807036613 -0.8079999999999998 1.5951 -0.030999999999999694 0.2583994213925789 -0.13909216004025046 1.0778635745657872 -0.9381549281963757 0.9051676292821978 -1.4084793801135027
-0.032019181215860115 -1.7271 -0.21603299276474175 -0.8079999999999998 1.5951 -0.030999999999999694 0.2586429400907636 -0.13923107847367597 1.077739307137647 -0.9384651829165896 0.9059415800870557 -1.4086667041759726
-0.03262198569896935 -1.7271 -0.21679653408264965 -0.8079999999999998 1.5951 -0.030999999999999694 0.25893697921787695 -0.1393993002753622 1.0775888911139837 -0.9388396817615698 0.9068770857091273 -1.40889264638897
-0.033342224749270954 -1.7271 -0.21770882370405342 -0.8079999999999998 1.5951 -0.030999999999999694 0.2592880076195164 -0.13960082010144326 1.0774087934018504 -0.939286590575009 0.9079953315858081 -1.4091620293168352
-0.03419424242459268 -1.7271 -0.2187880305064649 -0.8079999999999998 1.5951 -0.030999999999999694 0.2597028479529736 -0.13983995000072313 1.0771952120693629 -0.9398144977930093 0.9093188671748261 -1.4094798896226726
-0.03519320952961014 -1.7271 -0.22005337056494945 -0.8079999999999998 1.5951 -0.030999999999999694 0.26018866310809746 -0.14012134216648228 1.076944059834148 -0.9404323900967506 0.9108716272595916 -1.409851452435862
-0.036333577270173834 -1.7271 -0.22149781550842196 -0.8079999999999998 1.5951 -0.030999999999999694 0.2607424837227087 -0.1404439073354749 1.0766563898027435 -0.9411363374145943 0.9126454296050365 -1.4102741299427868
-0.037584720834797025 -1.7271 -0.22308257446923285 -0.8079999999999998 1.5951 -0.030999999999999694 0.26134916585151613 -0.14079945133074948 1.0763395888529002 -0.9419069403604294 0.9145930762631044 -1.4107360504174697
-0.03894609731260257 -1.7271 -0.22480695977020382 -0.8079999999999998 1.5951 -0.030999999999999694 0.26200818052096225 -0.14118827282730284 1.0759934664520856 -0.9427433833047467 0.9167141458706185 -1.4112365068921717
-0.04041770670359046 -1.7271 -0.22667097141133397 -0.8079999999999998 1.5951 -0.030999999999999694 0.2627192366185631 -0.14161086221634245 1.0756176669294621 -0.9436451425944212 0.9190090975400304 -1.41177494811322
-0.041999549007760706 -1.7271 -0.2286746093926233 -0.8079999999999998 1.5951 -0.030999999999999694 0.2634820163728874 -0.14206774802848388 1.0752118062900642 -0.9446116507487412 0.9214784264559596 -1.4123507765885153
-0.04369162422511419 -1.7271 -0.2308178737140718 -0.8079999999999998 1.5951 -0.030999999999999694 0.26429617464112043 -0.1425594965504577 1.0747754723292036 -0.945642296125144 0.9241226636103965 -1.4129633482122066
-0.045493932355650024 -1.7271 -0.2331007643756804 -0.8079999999999998 1.5951000000000002 -0.030999999999999694 0.26516133814646137 -0.1430867114067327 1.0743082247567388 -0.9467364225594725 0.9269423755152922 -1.4136119718608073
-0.0474064733993691 -1.7271 -0.23552328137744905 -0.8079999999999998 1.5951000000000002 -0.030999999999999694 0.2660771046660904 -0.1436500331046999 1.0738095953314957 -0.9478933289806551 0.9299381638919318 -1.4142959089606892
-0.04942924735627052 -1.7271 -0.23808542471937688 -0.8079999999999998 1.5951000000000002 -0.030999999999999694 0.2670430421705202 -0.14425013854197152 1.073279088006129 -0.949112268999726 0.9331106653364103 -1.4150143730268352
-0.0515622542263543 -1.7271 -0.2407871944014639 -0.8079999999999998 1.5951000000000002 -0.030999999999999694 0.2680586879152075 -0.14488774047427128 1.0727161790827455 -0.9503924504730819 0.9364605509605085 -1.4157665291727852
-0.053805494009620425 -1.7271 -0.2436285904237101 -0.8079999999999998 1.5951000000000002 -0.030999999999999694 0.26912354748537953 -0.14556358694230326 1.0721203173796239 -0.9517330350398809 0.9399885260071872 -1.416551493591668
-0.05615896670606979 -1.7271 -0.24660961278611637 -0.8079999999999998 1.5951000000000002 -0.030999999999999694 0.27023709379511185 -0.1462784606559118 1.0714909244093764 -0.9531331376334825 0.943695329439887 -1.4173683330082212
-0.05862267231570151 -1.7271 -0.24973026148868271 -0.8079999999999998 1.5951000000000002 -0.030999999999999694 0.27139876604176794 -0.14703317833376345 1.0708273945689357 -0.9545918259668239 0.9475817335047462 -1.4182160641017145
-0.061196610838515575 -1.7271 -0.25299053653140824 -0.8079999999999998 1.5951000000000002 -0.030999999999999694 0.27260796861700615 -0.14782858999671228 1.070129095341739 -0.9561081199916368 0.9516485432648193 -1.4190936528996798
-0.06388078227451288 -1.7271 -0.25639043791429295 -0.8079999999999998 1.5951000000000002 -0.030999999999999694 0.2738640699756446 -0.1486655782129313 1.0693953675125292 -0.9576809913314001 0.9558965961052946 -1.4200000141423448
-0.06667518662369254 -1.7271 -0.2599299656373377 -0.8079999999999998 1.5951000000000002 -0.030999999999999694 0.27516640146377014 -0.1495450572928274 1.068625525395184 -0.9593093626879314 0.960326761208659 -1.4209340106176898
-0.06957982388605455 -1.7271 -0.2636091197005417 -0.8079999999999998 1.5951000000000002 -0.030999999999999694 0.27651425610757396 -0.15046797243169294 1.067818857074019 -0.9609921072215136 0.964939938998704 -1.4218944524670463
-0.0725946940615998 -1.7271 -0.2674279001039048 -0.8079999999999998 1.5951000000000002 -0.030999999999999694 0.2779068873645078 -0.1514352987979807 1.0669746246590188 -0.9627280479044764 0.9697370605521995 -1.4228800964611428
-0.0757197971503274 -1.7271 -0.27138630684742804 -0.8079999999999998 1.5951000000000002 -0.030999999999999694 0.27934350783845385 -0.15244804056503297 1.0660920645554641 -0.964515956848131 0.9747190869769811 -1.42388964524653
-0.07895513315223734 -1.7271 -0.2754843399311113 -0.8079999999999998 1.5951000000000004 -0.030999999999999694 0.28082328796071654 -0.15350722988404175 1.0651703877484504 -0.9663545546029827 0.979887008755156 -1.4249217465623252
-0.08230070206732965 -1.7271 -0.2797219993549529 -0.8079999999999998 1.5951000000000004 -0.030999999999999694 0.2823453546387662 -0.1546139257959659 1.0642087801027913 -0.9682425094321452 0.9852418450500404 -1.4259749924272123
-0.08575650389560519 -1.7271 -0.28409928511895544 -0.8079999999999998 1.5951000000000004 -0.030999999999999694 0.28390878987478796 -0.1557692130800852 1.0632064026788326 -0.9701784365578998 0.9907846429753844 -1.4270479182966462
-0.08932253863706308 -1.7271 -0.28861619722311627 -0.8079999999999998 1.5951000000000004 -0.030999999999999694 0.2855126293562007 -0.15697420103683157 1.0621623920647052 -0.9721608973813213 0.9965164768253397 -1.4281390021902434
-0.0929988062917042 -1.7271 -0.29327273566743717 -0.8079999999999998 1.5951000000000004 -0.030999999999999694 0.28715586102047475 -0.15823002220250523 1.0610758607255673 -0.9741883986749608 1.0024384472635992 -1.4292466637893293
-0.09678530685952769 -1.7271 -0.29806890045191814 -0.8079999999999998 1.5951000000000004 -0.030999999999999694 0.28883742359667974 -0.15953783099344723 1.0599458973703912 -0.9762593917485319 1.00855168046999 -1.4303692635046508
-0.10068204034053352 -1.7271 -0.3030046915765574 -0.8079999999999998 1.5951000000000004 -0.030999999999999694 0.29055620512636315 -0.1608988022772249 1.0587715673368745 -0.978372271587597 1.0148573272427754 -1.4315051015142632
-0.1046890067347217 -1.7271 -0.30808010904135763 -0.8079999999999998 1.5951000000000004 -0.030999999999999694 0.2923110414665001 -0.16231412986836297 1.0575519129950566 -0.9805253759652707 1.0213565620548173 -1.4326524167716475
-0.10880620604209312 -1.7271 -0.31329515284631615 -0.8079999999999998 1.5951000000000006 -0.030999999999999694 0.2941007147773965 -0.16378502494614477 1.056285954170245 -0.982716984526949 1.0280505820616346 -1.4338093859841046
-0.1130336382626469 -1.7271 -0.31864982299143474 -0.8079999999999998 1.5951000000000006 -0.030999999999999694 0.2959239519986136 -0.16531271439200618 1.0549726885858552 -0.984945317848139 1.0349406060593622 -1.434974122561536
-0.11737130339638302 -1.7271 -0.3241441194767134 -0.8079999999999998 1.5951000000000006 -0.030999999999999694 0.29777942331611035 -0.16689843904404716 1.0536110923267912 -0.9872085364654424 1.0420278733904553 -1.4361446755357283
-0.12181920144330238 -1.7271 -0.32977804230215035 -0.8079999999999998 1.5951000000000006 -0.030999999999999694 0.2996657406239985 -0.1685434518661983 1.0522001203239935 -0.9895047398808231 1.0493136427949346 -1.437319028450302
-0.1263773324034041 -1.7271 -0.33555159146774827 -0.8079999999999998 1.5951000000000006 -0.030999999999999694 0.3015814559844677 -0.1702490160295998 1.0507387068607958 -0.9918319655392837 1.056799191204847 -1.4384950982215017
-0.13104569627668816 -1.7271 -0.3414647669735045 -0.8079999999999998 1.5951000000000006 -0.030999999999999694 0.3035250600896011 -0.17201640290378162 1.0492257661017486 -0.9941881877801227 1.0644858124795096 -1.4396707339701
-0.13582429306315547 -1.7271 -0.34751756881942075 -0.8079999999999998 1.5951000000000006 -0.030999999999999694 0.30549498072901826 -0.1738468899552689 1.0476601926445521 -0.9965713167620058 1.0723748160790154 -1.4408437158246532
-0.14071312276280423 -1.7271 -0.3537099970054971 -0.8079999999999998 1.5951000000000009 -0.030999999999999694 0.3074895812674323 -0.17574175855128515 1.0460408620957797 -0.9989791973620809 1.0804675256733445 -1.442011753696464
-0.14571218537563713 -1.7271 -0.36004205153173263 -0.8079999999999998 1.5951000000000009 -0.030999999999999694 0.30950715913642507 -0.17770229166629037 1.0443666316710551 -1.0014096080494583 1.0887652776843408 -1.4431724860266344
-0.15082148090165148 -1.7271 -0.36651373239812735 -0.8079999999999998 1.5951000000000009 -0.030999999999999694 0.3115459443449331 -0.1797297714891452 1.0426363408203623 -1.0038602597334134 1.0972694197576618 -1.4443234785056287
-0.15604100934084908 -1.7271 -0.37312503960468213 -0.8079999999999998 1.5951000000000009 -0.030999999999999694 0.31360409801312644 -0.18182547692879428 1.0408488118791717 -1.0063287945867014 1.105981309161731 -1.44546222276588
-0.16137077069322903 -1.7271 -0.3798759731513961 -0.8079999999999998 1.5951000000000009 -0.030999999999999694 0.3156797109345775 -0.18399068101642838 1.0390028507460711 -1.0088127848444794 1.1149023111105525 -1.4465861350479932
-0.1668107649587922 -1.7271 -0.38676653303826924 -0.8079999999999998 1.5951000000000009 -0.030999999999999694 0.3177708021718187 -0.1862266482022115 1.0370972475875846 -1.0113097315793558 1.124033797007167 -1.4476925548412056
-0.17236099213753686 -1.7271 -0.39379671926530246 -0.8079999999999998 1.595100000000001 -0.030999999999999694 0.31987531769059085 -0.1885346315447576 1.0351307775708765 -1.0138170634531902 1.1333771426043537 -1.448778743498828
-0.17802145222946564 -1.7271 -0.40096653183249575 -0.8079999999999998 1.595100000000001 -0.030999999999999694 0.3219911290382992 -0.19091586979168498 1.0331022016250293 -1.0163321354463146 1.142933726079094 -1.449841882829498
-0.18379214523457588 -1.7271 -0.40827597073984734 -0.8079999999999998 1.595100000000001 -0.030999999999999694 0.32411603207240974 -0.19337158434970408 1.0310102672315884 -1.0188522275649623 1.152704926017126 -1.4508790736651413
-0.18967307115286935 -1.7271 -0.4157250359873599 -0.8079999999999998 1.595100000000001 -0.030999999999999694 0.3262477457447245 -0.19590297614287164 1.0288537092450583 -1.021374543527759 1.162692119303839 -1.4518873344066756
-0.19566422998434518 -1.7271 -0.4233137275750307 -0.8079999999999998 1.595100000000001 -0.030999999999999694 0.32838391094769087 -0.1985112223577913 1.0266312507440507 -1.0238962094322306 1.1728966789175503 -1.452863599548579
-0.20176562172900336 -1.7271 -0.4310420455028616 -0.8079999999999998 1.5951000000000013 -0.030999999999999694 0.3305220894291245 -0.20119747307475078 1.024341603913748 -1.026414272402409 1.183319971621113 -1.453804718183563
-0.20797724638684478 -1.7271 -0.4389099897708526 -0.8079999999999998 1.5951000000000013 -0.030999999999999694 0.33265976278192144 -0.2039628477839715 1.0219834709603808 -1.0289256992186968 1.1939633555476337 -1.4547074524887416
-0.21429910395786855 -1.7271 -0.44691756037900277 -0.8079999999999998 1.5951000000000013 -0.030999999999999694 0.3347943315155686 -0.20680843178637084 1.019555545058374 -1.0314273749313074 1.204828177675918 -1.4555684761947965
-0.22073119444207467 -1.7271 -0.4550647573273121 -0.8079999999999998 1.5951000000000013 -0.030999999999999694 0.33692311421645765 -0.20973527247847543 1.0170565113308365 -1.0339161014587048 1.2159157711911368 -1.4563843730398054
-0.22727351783946403 -1.7271 -0.46335158061578063 -0.8079999999999998 1.5951000000000013 -0.030999999999999694 0.3390433468042269 -0.21274437552136816 1.01448504786404 -1.0363885961726276 1.2272274527260365 -1.457151635209563
-0.23392607415003486 -1.7271 -0.47177803024440923 -0.8079999999999998 1.5951000000000015 -0.030999999999999694 0.3411521818915556 -0.21583670089382448 1.0118398267565343 -1.0388414904714147 1.238764519477844 -1.4578666617663714
-0.2406888633737898 -1.7271 -0.4803441062131979 -0.8079999999999998 1.5951000000000015 -0.030999999999999694 0.3432466882550378 -0.2190131588300852 1.0091195152035295 -1.0412713283435229 1.2505282461959053 -1.4585257570684902
-0.24756188551072622 -1.7271 -0.48904980852214575 -0.8079999999999998 1.5951000000000015 -0.030999999999999694 0.34532385042496644 -0.2222746056430032 1.006322776617156 -1.0436745649233108 1.262519882034889 -1.4591251291826064
