qblc7/bachelorproject/robot_data.csv
actual_q_0 actual_q_1 actual_q_2 actual_q_3 actual_q_4 actual_q_5 actual_TCP_pose_0 actual_TCP_pose_1 actual_TCP_pose_2 actual_TCP_pose_3 actual_TCP_pose_4 actual_TCP_pose_5
-1.6007000000000033 -1.7271 -2.2029999999999976 -0.8079999999999998 1.5951000000000113 -0.031000000000000583 -0.14396865671352205 -0.4356200608031923 0.2020300254283853 -0.001221359681584674 3.1162765284819582 0.03889191563688395
-1.6007000000000033 -1.7271 -2.2029999999999976 -0.8079999999999998 1.5951000000000113 -0.031000000000000583 -0.14396865671352205 -0.4356200608031923 0.2020300254283853 -0.001221359681584674 3.1162765284819582 0.03889191563688395
-1.6007000000000033 -1.7271 -2.2029999999999976 -0.8079999999999998 1.5951000000000113 -0.031000000000000583 -0.14396865671352205 -0.4356200608031923 0.2020300254283853 -0.001221359681584674 3.1162765284819582 0.03889191563688395
-1.6007000000000033 -1.7271 -2.2029999999999976 -0.8079999999999998 1.5951000000000113 -0.031000000000000583 -0.14396865671352205 -0.4356200608031923 0.2020300254283853 -0.001221359681584674 3.1162765284819582 0.03889191563688395
-1.6007000000000033 -1.7271 -2.2029999999999976 -0.8079999999999998 1.5951000000000113 -0.031000000000000583 -0.14396865671352205 -0.4356200608031923 0.2020300254283853 -0.001221359681584674 3.1162765284819582 0.03889191563688395
-1.6007000000000033 -1.7271 -2.2029999999999976 -0.8079999999999998 1.5951000000000113 -0.031000000000000583 -0.14396865671352205 -0.4356200608031923 0.2020300254283853 -0.001221359681584674 3.1162765284819582 0.03889191563688395
-1.6007000000000033 -1.7271 -2.2029999999999976 -0.8079999999999998 1.5951000000000113 -0.031000000000000583 -0.14396865671352205 -0.4356200608031923 0.2020300254283853 -0.001221359681584674 3.1162765284819582 0.03889191563688395
-1.6007000000000033 -1.7271 -2.2029999999999976 -0.8079999999999998 1.5951000000000113 -0.031000000000000583 -0.14396865671352205 -0.4356200608031923 0.2020300254283853 -0.001221359681584674 3.1162765284819582 0.03889191563688395
-1.6007000000000033 -1.7271 -2.2029999999999976 -0.8079999999999998 1.5951000000000113 -0.031000000000000583 -0.14396865671352205 -0.4356200608031923 0.2020300254283853 -0.001221359681584674 3.1162765284819582 0.03889191563688395
-1.6007000000000033 -1.7271 -2.2029999999999976 -0.8079999999999998 1.5951000000000113 -0.031000000000000583 -0.14396865671352205 -0.4356200608031923 0.2020300254283853 -0.001221359681584674 3.1162765284819582 0.03889191563688395
-1.6007000000000033 -1.7271 -2.2029999999999976 -0.8079999999999998 1.5951000000000113 -0.031000000000000583 -0.14396865671352205 -0.4356200608031923 0.2020300254283853 -0.001221359681584674 3.1162765284819582 0.03889191563688395
-1.6007000000000033 -1.7271 -2.2029999999999976 -0.8079999999999998 1.5951000000000113 -0.031000000000000583 -0.14396865671352205 -0.4356200608031923 0.2020300254283853 -0.001221359681584674 3.1162765284819582 0.03889191563688395
-1.6007000000000033 -1.7271 -2.2029999999999976 -0.8079999999999998 1.5951000000000113 -0.031000000000000583 -0.14396865671352205 -0.4356200608031923 0.2020300254283853 -0.001221359681584674 3.1162765284819582 0.03889191563688395
-1.6007000000000033 -1.7271 -2.2029999999999976 -0.8079999999999998 1.5951000000000113 -0.031000000000000583 -0.14396865671352205 -0.4356200608031923 0.2020300254283853 -0.001221359681584674 3.1162765284819582 0.03889191563688395
-1.6007000000000033 -1.7271 -2.2029999999999976 -0.8079999999999998 1.5951000000000113 -0.031000000000000583 -0.14396865671352205 -0.4356200608031923 0.2020300254283853 -0.001221359681584674 3.1162765284819582 0.03889191563688395
-1.6007000000000033 -1.7271 -2.2029999999999976 -0.8079999999999998 1.5951000000000113 -0.031000000000000583 -0.14396865671352205 -0.4356200608031923 0.2020300254283853 -0.001221359681584674 3.1162765284819582 0.03889191563688395
-1.6007000000000033 -1.7271 -2.2029999999999976 -0.8079999999999998 1.5951000000000113 -0.031000000000000583 -0.14396865671352205 -0.4356200608031923 0.2020300254283853 -0.001221359681584674 3.1162765284819582 0.03889191563688395
-1.6007000000000033 -1.7271 -2.2029999999999976 -0.8079999999999998 1.5951000000000113 -0.031000000000000583 -0.14396865671352205 -0.4356200608031923 0.2020300254283853 -0.001221359681584674 3.1162765284819582 0.03889191563688395
-1.6007000000000033 -1.7271 -2.2029999999999976 -0.8079999999999998 1.5951000000000113 -0.031000000000000583 -0.14396865671352205 -0.4356200608031923 0.2020300254283853 -0.001221359681584674 3.1162765284819582 0.03889191563688395
-1.6007000000000033 -1.7271 -2.2029999999999976 -0.8079999999999998 1.5951000000000113 -0.031000000000000583 -0.14396865671352205 -0.4356200608031923 0.2020300254283853 -0.001221359681584674 3.1162765284819582 0.03889191563688395
-1.6007000000000033 -1.7271 -2.2029999999999976 -0.8079999999999998 1.5951000000000113 -0.031000000000000583 -0.14396865671352205 -0.4356200608031923 0.2020300254283853 -0.001221359681584674 3.1162765284819582 0.03889191563688395
-1.6007000000000033 -1.7271 -2.2029999999999976 -0.8079999999999998 1.5951000000000113 -0.031000000000000583 -0.14396865671352205 -0.4356200608031923 0.2020300254283853 -0.001221359681584674 3.1162765284819582 0.03889191563688395
-1.6007000000000033 -1.7271 -2.2029999999999976 -0.8079999999999998 1.5951000000000113 -0.031000000000000583 -0.14396865671352205 -0.4356200608031923 0.2020300254283853 -0.001221359681584674 3.1162765284819582 0.03889191563688395
-1.6007000000000033 -1.7271 -2.2029999999999976 -0.8079999999999998 1.5951000000000113 -0.031000000000000583 -0.14396865671352205 -0.4356200608031923 0.2020300254283853 -0.001221359681584674 3.1162765284819582 0.03889191563688395
-1.6007000000000033 -1.7271 -2.2029999999999976 -0.8079999999999998 1.5951000000000113 -0.031000000000000583 -0.14396865671352205 -0.4356200608031923 0.2020300254283853 -0.001221359681584674 3.1162765284819582 0.03889191563688395
-1.6007000000000033 -1.7271 -2.2029999999999976 -0.8079999999999998 1.5951000000000113 -0.031000000000000583 -0.14396865671352205 -0.4356200608031923 0.2020300254283853 -0.001221359681584674 3.1162765284819582 0.03889191563688395
-1.6007000000000033 -1.7271 -2.2029999999999976 -0.8079999999999998 1.5951000000000113 -0.031000000000000583 -0.14396865671352205 -0.4356200608031923 0.2020300254283853 -0.001221359681584674 3.1162765284819582 0.03889191563688395
-1.6007000000000033 -1.7271 -2.2029999999999976 -0.8079999999999998 1.5951000000000113 -0.031000000000000583 -0.14396865671352205 -0.4356200608031923 0.2020300254283853 -0.001221359681584674 3.1162765284819582 0.03889191563688395
-1.6007000000000033 -1.7271 -2.2029999999999976 -0.8079999999999998 1.5951000000000113 -0.031000000000000583 -0.14396865671352205 -0.4356200608031923 0.2020300254283853 -0.001221359681584674 3.1162765284819582 0.03889191563688395
-1.6007000000000033 -1.7271 -2.2029999999999976 -0.8079999999999998 1.5951000000000113 -0.031000000000000583 -0.14396865671352205 -0.4356200608031923 0.2020300254283853 -0.001221359681584674 3.1162765284819582 0.03889191563688395
-1.6007000000000033 -1.7271 -2.2029999999999976 -0.8079999999999998 1.5951000000000113 -0.031000000000000583 -0.14396865671352205 -0.4356200608031923 0.2020300254283853 -0.001221359681584674 3.1162765284819582 0.03889191563688395
-1.6007000000000033 -1.7271 -2.2029999999999976 -0.8079999999999998 1.5951000000000113 -0.031000000000000583 -0.14396865671352205 -0.4356200608031923 0.2020300254283853 -0.001221359681584674 3.1162765284819582 0.03889191563688395
-1.6007000000000033 -1.7271 -2.2029999999999976 -0.8079999999999998 1.5951000000000113 -0.031000000000000583 -0.14396865671352205 -0.4356200608031923 0.2020300254283853 -0.001221359681584674 3.1162765284819582 0.03889191563688395
-1.6007000000000033 -1.7271 -2.2029999999999976 -0.8079999999999998 1.5951000000000113 -0.031000000000000583 -0.14396865671352205 -0.4356200608031923 0.2020300254283853 -0.001221359681584674 3.1162765284819582 0.03889191563688395
-1.6007000000000033 -1.7271 -2.2029999999999976 -0.8079999999999998 1.5951000000000113 -0.031000000000000583 -0.14396865671352205 -0.4356200608031923 0.2020300254283853 -0.001221359681584674 3.1162765284819582 0.03889191563688395
-1.6007000000000033 -1.7271 -2.2029999999999976 -0.8079999999999998 1.5951000000000113 -0.031000000000000583 -0.14396865671352205 -0.4356200608031923 0.2020300254283853 -0.001221359681584674 3.1162765284819582 0.03889191563688395
-1.6007000000000033 -1.7271 -2.2029999999999976 -0.8079999999999998 1.5951000000000113 -0.031000000000000583 -0.14396865671352205 -0.4356200608031923 0.2020300254283853 -0.001221359681584674 3.1162765284819582 0.03889191563688395
-1.6007000000000033 -1.7271 -2.2029999999999976 -0.8079999999999998 1.5951000000000113 -0.031000000000000583 -0.14396865671352205 -0.4356200608031923 0.2020300254283853 -0.001221359681584674 3.1162765284819582 0.03889191563688395
-1.6007000000000033 -1.7271 -2.2029999999999976 -0.8079999999999998 1.5951000000000113 -0.031000000000000583 -0.14396865671352205 -0.4356200608031923 0.2020300254283853 -0.001221359681584674 3.1162765284819582 0.03889191563688395
-1.6007000000000033 -1.7271 -2.2029999999999976 -0.8079999999999998 1.5951000000000113 -0.031000000000000583 -0.14396865671352205 -0.4356200608031923 0.2020300254283853 -0.001221359681584674 3.1162765284819582 0.03889191563688395
-1.6007000000000033 -1.7271 -2.2029999999999976 -0.8079999999999998 1.5951000000000113 -0.031000000000000583 -0.14396865671352205 -0.4356200608031923 0.2020300254283853 -0.001221359681584674 3.1162765284819582 0.03889191563688395
-1.6007000000000033 -1.7271 -2.2029999999999976 -0.8079999999999998 1.5951000000000113 -0.031000000000000583 -0.14396865671352205 -0.4356200608031923 0.2020300254283853 -0.001221359681584674 3.1162765284819582 0.03889191563688395
-1.6007000000000033 -1.7271 -2.2029999999999976 -0.8079999999999998 1.5951000000000113 -0.031000000000000583 -0.14396865671352205 -0.4356200608031923 0.2020300254283853 -0.001221359681584674 3.1162765284819582 0.03889191563688395
-1.6007000000000033 -1.7271 -2.2029999999999976 -0.8079999999999998 1.5951000000000113 -0.031000000000000583 -0.14396865671352205 -0.4356200608031923 0.2020300254283853 -0.001221359681584674 3.1162765284819582 0.03889191563688395
-1.6007000000000033 -1.7271 -2.2029999999999976 -0.8079999999999998 1.5951000000000113 -0.031000000000000583 -0.14396865671352205 -0.4356200608031923 0.2020300254283853 -0.001221359681584674 3.1162765284819582 0.03889191563688395
-1.6007000000000033 -1.7271 -2.2029999999999976 -0.8079999999999998 1.5951000000000113 -0.031000000000000583 -0.14396865671352205 -0.4356200608031923 0.2020300254283853 -0.001221359681584674 3.1162765284819582 0.03889191563688395
-1.6007000000000033 -1.7271 -2.2029999999999976 -0.8079999999999998 1.5951000000000113 -0.031000000000000583 -0.14396865671352205 -0.4356200608031923 0.2020300254283853 -0.001221359681584674 3.1162765284819582 0.03889191563688395
-1.6007000000000033 -1.7271 -2.2029999999999976 -0.8079999999999998 1.5951000000000113 -0.031000000000000583 -0.14396865671352205 -0.4356200608031923 0.2020300254283853 -0.001221359681584674 3.1162765284819582 0.03889191563688395
-1.6007000000000033 -1.7271 -2.2029999999999976 -0.8079999999999998 1.5951000000000113 -0.031000000000000583 -0.14396865671352205 -0.4356200608031923 0.2020300254283853 -0.001221359681584674 3.1162765284819582 0.03889191563688395
-1.6007000000000033 -1.7271 -2.2029999999999976 -0.8079999999999998 1.5951000000000113 -0.031000000000000583 -0.14396865671352205 -0.4356200608031923 0.2020300254283853 -0.001221359681584674 3.1162765284819582 0.03889191563688395
-1.6007000000000033 -1.7271 -2.2029999999999976 -0.8079999999999998 1.5951000000000113 -0.031000000000000583 -0.14396865671352205 -0.4356200608031923 0.2020300254283853 -0.001221359681584674 3.1162765284819582 0.03889191563688395
-1.6007000000000033 -1.7271 -2.2029999999999976 -0.8079999999999998 1.5951000000000113 -0.031000000000000583 -0.14396865671352205 -0.4356200608031923 0.2020300254283853 -0.001221359681584674 3.1162765284819582 0.03889191563688395
-1.6007000000000033 -1.7271 -2.2029999999999976 -0.8079999999999998 1.5951000000000113 -0.031000000000000583 -0.14396865671352205 -0.4356200608031923 0.2020300254283853 -0.001221359681584674 3.1162765284819582 0.03889191563688395
-1.6007000000000033 -1.7271 -2.2029999999999976 -0.8079999999999998 1.5951000000000113 -0.031000000000000583 -0.14396865671352205 -0.4356200608031923 0.2020300254283853 -0.001221359681584674 3.1162765284819582 0.03889191563688395
-1.6007000000000033 -1.7271 -2.2029999999999976 -0.8079999999999998 1.5951000000000113 -0.031000000000000583 -0.14396865671352205 -0.4356200608031923 0.2020300254283853 -0.001221359681584674 3.1162765284819582 0.03889191563688395
-1.6007000000000033 -1.7271 -2.2029999999999976 -0.8079999999999998 1.5951000000000113 -0.031000000000000583 -0.14396865671352205 -0.4356200608031923 0.2020300254283853 -0.001221359681584674 3.1162765284819582 0.03889191563688395
-1.6007000000000033 -1.7271 -2.2029999999999976 -0.8079999999999998 1.5951000000000113 -0.031000000000000583 -0.14396865671352205 -0.4356200608031923 0.2020300254283853 -0.001221359681584674 3.1162765284819582 0.03889191563688395
-1.6007000000000033 -1.7271 -2.2029999999999976 -0.8079999999999998 1.5951000000000113 -0.031000000000000583 -0.14396865671352205 -0.4356200608031923 0.2020300254283853 -0.001221359681584674 3.1162765284819582 0.03889191563688395
-1.6007000000000033 -1.7271 -2.2029999999999976 -0.8079999999999998 1.5951000000000113 -0.031000000000000583 -0.14396865671352205 -0.4356200608031923 0.2020300254283853 -0.001221359681584674 3.1162765284819582 0.03889191563688395
-1.6007000000000033 -1.7271 -2.2029999999999976 -0.8079999999999998 1.5951000000000113 -0.031000000000000583 -0.14396865671352205 -0.4356200608031923 0.2020300254283853 -0.001221359681584674 3.1162765284819582 0.03889191563688395
-1.6007000000000033 -1.7271 -2.2029999999999976 -0.8079999999999998 1.5951000000000113 -0.031000000000000583 -0.14396865671352205 -0.4356200608031923 0.2020300254283853 -0.001221359681584674 3.1162765284819582 0.03889191563688395
-1.6007000000000033 -1.7271 -2.2029999999999976 -0.8079999999999998 1.5951000000000113 -0.031000000000000583 -0.14396865671352205 -0.4356200608031923 0.2020300254283853 -0.001221359681584674 3.1162765284819582 0.03889191563688395
-1.6007000000000033 -1.7271 -2.2029999999999976 -0.8079999999999998 1.5951000000000113 -0.031000000000000583 -0.14396865671352205 -0.4356200608031923 0.2020300254283853 -0.001221359681584674 3.1162765284819582 0.03889191563688395
-1.6007000000000033 -1.7271 -2.2029999999999976 -0.8079999999999998 1.5951000000000113 -0.031000000000000583 -0.14396865671352205 -0.4356200608031923 0.2020300254283853 -0.001221359681584674 3.1162765284819582 0.03889191563688395
-1.6007000000000033 -1.7271 -2.2029999999999976 -0.8079999999999998 1.5951000000000113 -0.031000000000000583 -0.14396865671352205 -0.4356200608031923 0.2020300254283853 -0.001221359681584674 3.1162765284819582 0.03889191563688395
-1.6007000000000033 -1.7271 -2.2029999999999976 -0.8079999999999998 1.5951000000000113 -0.031000000000000583 -0.14396865671352205 -0.4356200608031923 0.2020300254283853 -0.001221359681584674 3.1162765284819582 0.03889191563688395
-1.6007000000000033 -1.7271 -2.2029999999999976 -0.8079999999999998 1.5951000000000113 -0.031000000000000583 -0.14396865671352205 -0.4356200608031923 0.2020300254283853 -0.001221359681584674 3.1162765284819582 0.03889191563688395
-1.6007000000000033 -1.7271 -2.2029999999999976 -0.8079999999999998 1.5951000000000113 -0.031000000000000583 -0.14396865671352205 -0.4356200608031923 0.2020300254283853 -0.001221359681584674 3.1162765284819582 0.03889191563688395
-1.6007000000000033 -1.7271 -2.2029999999999976 -0.8079999999999998 1.5951000000000113 -0.031000000000000583 -0.14396865671352205 -0.4356200608031923 0.2020300254283853 -0.001221359681584674 3.1162765284819582 0.03889191563688395
-1.6007000000000033 -1.7271 -2.2029999999999976 -0.8079999999999998 1.5951000000000113 -0.031000000000000583 -0.14396865671352205 -0.4356200608031923 0.2020300254283853 -0.001221359681584674 3.1162765284819582 0.03889191563688395
-1.6007000000000033 -1.7271 -2.2029999999999976 -0.8079999999999998 1.5951000000000113 -0.031000000000000583 -0.14396865671352205 -0.4356200608031923 0.2020300254283853 -0.001221359681584674 3.1162765284819582 0.03889191563688395
-1.6007000000000033 -1.7271 -2.2029999999999976 -0.8079999999999998 1.5951000000000113 -0.031000000000000583 -0.14396865671352205 -0.4356200608031923 0.2020300254283853 -0.001221359681584674 3.1162765284819582 0.03889191563688395
-1.6007000000000033 -1.7271 -2.2029999999999976 -0.8079999999999998 1.5951000000000113 -0.031000000000000583 -0.14396865671352205 -0.4356200608031923 0.2020300254283853 -0.001221359681584674 3.1162765284819582 0.03889191563688395
-1.6007000000000033 -1.7271 -2.2029999999999976 -0.8079999999999998 1.5951000000000113 -0.031000000000000583 -0.14396865671352205 -0.4356200608031923 0.2020300254283853 -0.001221359681584674 3.1162765284819582 0.03889191563688395
-1.6007000000000033 -1.7271 -2.2029999999999976 -0.8079999999999998 1.5951000000000113 -0.031000000000000583 -0.14396865671352205 -0.4356200608031923 0.2020300254283853 -0.001221359681584674 3.1162765284819582 0.03889191563688395
-1.6007000000000033 -1.7271 -2.2029999999999976 -0.8079999999999998 1.5951000000000113 -0.031000000000000583 -0.14396865671352205 -0.4356200608031923 0.2020300254283853 -0.001221359681584674 3.1162765284819582 0.03889191563688395
-1.6007000000000033 -1.7271 -2.2029999999999976 -0.8079999999999998 1.5951000000000113 -0.031000000000000583 -0.14396865671352205 -0.4356200608031923 0.2020300254283853 -0.001221359681584674 3.1162765284819582 0.03889191563688395
-1.6007000000000033 -1.7271 -2.2029999999999976 -0.8079999999999998 1.5951000000000113 -0.031000000000000583 -0.14396865671352205 -0.4356200608031923 0.2020300254283853 -0.001221359681584674 3.1162765284819582 0.03889191563688395
-1.6007000000000033 -1.7271 -2.2029999999999976 -0.8079999999999998 1.5951000000000113 -0.031000000000000583 -0.14396865671352205 -0.4356200608031923 0.2020300254283853 -0.001221359681584674 3.1162765284819582 0.03889191563688395
-1.6007000000000033 -1.7271 -2.2029999999999976 -0.8079999999999998 1.5951000000000113 -0.031000000000000583 -0.14396865671352205 -0.4356200608031923 0.2020300254283853 -0.001221359681584674 3.1162765284819582 0.03889191563688395
-1.6007000000000033 -1.7271 -2.2029999999999976 -0.8079999999999998 1.5951000000000113 -0.031000000000000583 -0.14396865671352205 -0.4356200608031923 0.2020300254283853 -0.001221359681584674 3.1162765284819582 0.03889191563688395
-1.6007000000000033 -1.7271 -2.2029999999999976 -0.8079999999999998 1.5951000000000113 -0.031000000000000583 -0.14396865671352205 -0.4356200608031923 0.2020300254283853 -0.001221359681584674 3.1162765284819582 0.03889191563688395
-1.6007000000000033 -1.7271 -2.2029999999999976 -0.8079999999999998 1.5951000000000113 -0.031000000000000583 -0.14396865671352205 -0.4356200608031923 0.2020300254283853 -0.001221359681584674 3.1162765284819582 0.03889191563688395
-1.6007000000000033 -1.7271 -2.2029999999999976 -0.8079999999999998 1.5951000000000113 -0.031000000000000583 -0.14396865671352205 -0.4356200608031923 0.2020300254283853 -0.001221359681584674 3.1162765284819582 0.03889191563688395
-1.6007000000000033 -1.7271 -2.2029999999999976 -0.8079999999999998 1.5951000000000113 -0.031000000000000583 -0.14396865671352205 -0.4356200608031923 0.2020300254283853 -0.001221359681584674 3.1162765284819582 0.03889191563688395
-1.6007000000000033 -1.7271 -2.2029999999999976 -0.8079999999999998 1.5951000000000113 -0.031000000000000583 -0.14396865671352205 -0.4356200608031923 0.2020300254283853 -0.001221359681584674 3.1162765284819582 0.03889191563688395
-1.6007000000000033 -1.7271 -2.2029999999999976 -0.8079999999999998 1.5951000000000113 -0.031000000000000583 -0.14396865671352205 -0.4356200608031923 0.2020300254283853 -0.001221359681584674 3.1162765284819582 0.03889191563688395
-1.6007000000000033 -1.7271 -2.2029999999999976 -0.8079999999999998 1.5951000000000113 -0.031000000000000583 -0.14396865671352205 -0.4356200608031923 0.2020300254283853 -0.001221359681584674 3.1162765284819582 0.03889191563688395
-1.6007000000000033 -1.7271 -2.2029999999999976 -0.8079999999999998 1.5951000000000113 -0.031000000000000583 -0.14396865671352205 -0.4356200608031923 0.2020300254283853 -0.001221359681584674 3.1162765284819582 0.03889191563688395
-1.6007000000000033 -1.7271 -2.2029999999999976 -0.8079999999999998 1.5951000000000113 -0.031000000000000583 -0.14396865671352205 -0.4356200608031923 0.2020300254283853 -0.001221359681584674 3.1162765284819582 0.03889191563688395
-1.6007000000000033 -1.7271 -2.2029999999999976 -0.8079999999999998 1.5951000000000113 -0.031000000000000583 -0.14396865671352205 -0.4356200608031923 0.2020300254283853 -0.001221359681584674 3.1162765284819582 0.03889191563688395
-1.6007000000000033 -1.7271 -2.2029999999999976 -0.8079999999999998 1.5951000000000113 -0.031000000000000583 -0.14396865671352205 -0.4356200608031923 0.2020300254283853 -0.001221359681584674 3.1162765284819582 0.03889191563688395
-1.6007000000000033 -1.7271 -2.2029999999999976 -0.8079999999999998 1.5951000000000113 -0.031000000000000583 -0.14396865671352205 -0.4356200608031923 0.2020300254283853 -0.001221359681584674 3.1162765284819582 0.03889191563688395
-1.6007000000000033 -1.7271 -2.2029999999999976 -0.8079999999999998 1.5951000000000113 -0.031000000000000583 -0.14396865671352205 -0.4356200608031923 0.2020300254283853 -0.001221359681584674 3.1162765284819582 0.03889191563688395
-1.600699879305144 -1.7270997888151607 -2.2030000603345155 -0.8079999698137605 1.595100011789408 -0.03100003018274311 -0.14396860211961535 -0.43562005001724735 0.2020300987132651 -0.0012215979614181127 3.116276526722603 0.0388916348291556
-1.6006982404485006 -1.7270969212392 -2.2030008795875187 -0.80799955992953 1.5951001718718785 -0.03100044001949165 -0.14396786081600524 -0.4356199035582531 0.20203109381201978 -0.0012248334475101926 3.116276502827245 0.03888782187806675
-1.6006913728112568 -1.7270849046472998 -2.2030043126714682 -0.8079978423075413 1.5951008426982987 -0.03100215744250434 -0.14396475438807296 -0.4356192897824562 0.20203526376038697 -0.0012383917747851767 3.1162764025739302 0.0388718436893003
-1.6006731718269753 -1.7270530576244383 -2.2030134112165403 -0.8079932901726945 1.5951026205588203 -0.031006709050016568 -0.14395652163228556 -0.4356176628189407 0.20204631504199527 -0.001274324835858471 3.1162761359419884 0.03882949744728979
-1.600635138981593 -1.7269865099653892 -2.203032423570628 -0.8079837780145551 1.5951063355828698 -0.031016220106235615 -0.14393931875267707 -0.4356142616959486 0.20206940717858432 -0.0013494109187184582 3.116275574403293 0.038741010671767696
-1.6005663818134268 -1.72686620267472 -2.2030667947993408 -0.8079665815873556 1.5951130517391485 -0.03103341454134423 -0.14390821985003407 -0.4356081081676449 0.20211115171043778 -0.0014851550486412665 3.116274544183734 0.0385810413590523
-1.600453613913169 -1.7266688879667944 -2.203123166686007 -0.807938377909994 1.595124066835633 -0.03106161495149795 -0.1438572179171189 -0.4355980023008154 0.20217961012480706 -0.0017077896792815866 3.116272812575609 0.03831867827146184
-1.6002811549238878 -1.7263671292657712 -2.2032093777316675 -0.8078952452660353 1.595140912519575 -0.031104742598826896 -0.14377922661631673 -0.435582514617794 0.2022842901643825 -0.002048275913420014 3.1162700635600085 0.037917441460676965
-1.6000309305410312 -1.7259293012056034 -2.2033344631550813 -0.8078326632037109 1.595165354277501 -0.031167317411435747 -0.14366608318336457 -0.4355599733312815 0.20243613982043718 -0.0025423054597816185 3.1162658581747746 0.03733528313975013
-1.5996824725124217 -1.7253195896300406 -2.203508654892725 -0.8077455125359192 1.595199391435213 -0.03125445798340287 -0.1435085528755444 -0.43552844495055887 0.20264753818491682 -0.0032303035442288277 3.1162595742418238 0.036524589058853016
-1.599212918638261 -1.724497991592628 -2.203743381598791 -0.8076280753402241 1.5952452571577873 -0.031371881574780325 -0.14329633546944956 -0.4354857062896965 0.20293228220062967 -0.004157432980829156 3.1162503192437163 0.03543218059872663
-1.5985970127711262 -1.7234203153567034 -2.204051268645186 -0.8074740349588554 1.5953054184495763 -0.0315259041115965 -0.14301807441816214 -0.4354292056705419 0.2033055682064377 -0.005373599559237978 3.1162368093165647 0.033999317882654555
-1.5978071048159723 -1.722038180395403 -2.2044461381215363 -0.8072764759987114 1.5953825761542064 -0.03172344018584994 -0.14266136940828159 -0.435356010891599 0.20378396702187404 -0.0069334588025086255 3.1162172065028266 0.03216170433484609
-1.5968131507301297 -1.720299017391656 -2.2049430088351842 -0.8070278843313554 1.59547966495458 -0.031972003055516396 -0.14221279322329033 -0.4352627413349793 0.20438539114914506 -0.008896423975573636 3.1161889055853957 0.029849493295816276
-1.5955827125233082 -1.7181460682381875 -2.2055580963111856 -0.8067201470930172 1.5955998533728737 -0.03227970464454444 -0.14165791403290218 -0.4351454814158404 0.20512905248538688 -0.011326674951061997 3.116148261004157 0.02698729756271985
-1.594080958257594 -1.7155183860375178 -2.206308812792315 -0.8063445526845916 1.5957465437705398 -0.0326552555428572 -0.1409813245017925 -0.4349996724528851 0.2060354087291415 -0.014293167138775473 3.1160902435428026 0.023494203077248508
-1.592270662047449 -1.7123508351019634 -2.2072137672390646 -0.8058917907716436 1.5959233723483053 -0.03310796500635149 -0.14016667946088843 -0.43481997996810257 0.2071260964262393 -0.017869639120548522 3.1160080156713352 0.01928378846246485
-1.5901122040597135 -1.7085740909536344 -2.2082927653296407 -0.8053519522844006 1.5961342091461723 -0.0336477409568996 -0.13919674432708293 -0.4346001334260831 0.2084238483251285 -0.022134616861142747 3.1158924136486896 0.014264152743977701
-1.5875635705136038 -1.7041146403244358 -2.2095668094599663 -0.80471452941776 1.5963831580434182 -0.03428508998234481 -0.13805345701081628 -0.434332735519364 0.20995239239327068 -0.027171411341842224 3.115731323745209 0.008337954415706646
-1.584580353680714 -1.6988947811560706 -2.211058098743683 -0.8039684156312816 1.5966745567585952 -0.035031117336508544 -0.1367180067337418 -0.43400903832330623 0.21173632947765597 -0.033068105128597626 3.1155089392587727 0.0014024660657330863
-1.5812128673577313 -1.6930025496013386 -2.212741481664816 -0.8031261945953672 1.5970034906721728 -0.035873240806722606 -0.13521424194384607 -0.4336298364297515 0.21374321723739464 -0.03972551170999126 3.115214077524937 -0.006424651398562846
-1.5775261880183535 -1.686551812685967 -2.214584426948141 -0.8022041421816404 1.5973636031557579 -0.036795186406815006 -0.13357257565061417 -0.43319798423384576 0.21593196358110928 -0.047015089936702094 3.114837972069502 -0.014991361758191147
-1.573520315662578 -1.679542570409958 -2.2165869345936606 -0.8012022583901022 1.5977548942093502 -0.037796954136784855 -0.13179443406772484 -0.43270905916910557 0.21830023059390025 -0.05493679731206869 3.114366166325497 -0.024296769410200793
-1.5691952502904067 -1.6719748227733104 -2.2187490046013716 -0.8001205432207525 1.5981773638329497 -0.03887854399663393 -0.12988143771335398 -0.4321583067699791 0.2208454500901391 -0.06349043561753488 3.1137829620412725 -0.03433978597510638
-1.5645509919018386 -1.6638485697760252 -2.221070636971276 -0.7989589966735906 1.5986310120265568 -0.040039955986360454 -0.12783541798033266 -0.4315406544860676 0.2235648171318664 -0.07267561316287927 3.113071424375412 -0.04511910194461111
-1.5595875404968744 -1.6551638114181007 -2.2235518317033725 -0.7977176187486172 1.5991158387901712 -0.041281190105965315 -0.12565843458570639 -0.4308507270190826 0.2264552832137272 -0.08249170410838906 3.11221338843141 -0.056633156232816194
-1.5543048960755144 -1.6459205476995393 -2.2261925887976624 -0.7963964094458316 1.599631844123793 -0.042602246355448514 -0.12335279378924291 -0.43008286326724726 0.22951354915776273 -0.09293780489732113 3.1111894674647704 -0.06888010368321026
-1.5487030586377566 -1.6361187786203386 -2.2289929082541438 -0.7949953687652345 1.600179028027422 -0.04400312473480916 -0.12092106725926478 -0.4292311349633827 0.23273605776504214 -0.1040126878483723 3.109979063009597 -0.08185778059302555
-1.5427820281836038 -1.6257585041805003 -2.2319527900728193 -0.7935144967068251 1.6007573905010586 -0.04548382524404815 -0.11836611145251098 -0.428289367093347 0.23611898627475547 -0.11571475196869532 3.108560377185531 -0.09556366832675185
-1.5365418047130532 -1.6148397243800243 -2.2350722342536873 -0.7919537932706042 1.6013669315447023 -0.04704434788316547 -0.11569108736258775 -0.4272511601807428 0.23965823868518402 -0.12804197106195478 3.106910427458623 -0.10999485510203104
-1.5299823882261068 -1.603362439218909 -2.2383512407967476 -0.790313258456572 1.6020076511583534 -0.04868469265216113 -0.11289948047903778 -0.4261099145217242 0.2433494379947143 -0.14099183922088274 3.1050050641409506 -0.12514799604346838
-1.5231037787227644 -1.591326648697156 -2.2417898097020004 -0.7885928922647274 1.602679549342012 -0.05040485955103424 -0.10999512078609593 -0.42485885645030463 0.24718791842493912 -0.15456131381015706 3.102818990923917 -0.14101927161348507
-1.5159059762030251 -1.5787323528147645 -2.2453879409694455 -0.7867926946950714 1.6033826260956778 -0.05220484857978658 -0.10698220261698463 -0.4234910667095755 0.2511687176917611 -0.16874675606409575 3.1003257887480387 -0.1576043445439749
-1.50838898066689 -1.5655795515717355 -2.249145634599085 -0.7849126657476031 1.6041168814193512 -0.05408465973841636 -0.10386530416611839 -0.421999510997682 0.25528656939430927 -0.18354386944345089 3.097497943319031 -0.17489831540812212
-1.500552792114357 -1.5518682449680679 -2.2530628905909156 -0.7829528054223234 1.6048823153130316 -0.056044293026924485 -0.10064940644798359 -0.42037707274911373 0.2595358955954123 -0.19894763591724632 3.094306876583351 -0.1928956769884873
-1.4923974105454292 -1.5375984330037626 -2.2571397089449396 -0.7809131137192313 1.6056789277767196 -0.05808374844531006 -0.09733991147784467 -0.41861658820174963 0.26391079967124953 -0.21495225035900664 3.0907229824787006 -0.21159026761496508
-1.4839228359601044 -1.522770115678819 -2.261376089661156 -0.7787935906383279 1.606506718810415 -0.060203025993573966 -0.09394265943589773 -0.41671088378810195 0.2684050595117182 -0.23155105327107497 3.086715667273484 -0.230975223664858
-1.4751290683583829 -1.5073832929932367 -2.265772032739566 -0.776594236179613 1.6073656884141176 -0.06240212567171621 -0.09046394456326391 -0.4146528158751615 0.27301212115684514 -0.24873646207730377 3.08225339480556 -0.25104293143624523
-1.4660161077402654 -1.4914379649470169 -2.270327538180168 -0.7743150503430858 1.6082558365878277 -0.0646810474797368 -0.08691052952537152 -0.4124353128611552 0.27772509295835957 -0.2664999012513218 3.0773037369230214 -0.2717849786258235
-1.456583954105751 -1.4749341315401585 -2.2750426059829625 -0.7719560331287472 1.609177163331545 -0.06703979141763572 -0.08328965796608741 -0.4100514196192527 0.28253674035917814 -0.2848317315763748 3.0718334294188616 -0.29319210566235354
-1.4468326074548408 -1.4578717927726617 -2.2799172361479503 -0.7695171845365962 1.6101296686452697 -0.06947835748541209 -0.07960906496458402 -0.4074943442577725 0.28743948138708597 -0.3037211788616886 3.0658084337367537 -0.31525415716734406
-1.4367620677875337 -1.4402509486445272 -2.2849514286751305 -0.7669985045666339 1.6111133525290018 -0.0719967456830668 -0.07587698509660766 -0.4047575071436822 0.2924253829622508 -0.32315626247026685 3.059194004706125 -0.3379600338348651
-1.4263723351038307 -1.4220715991557533 -2.2901451835645035 -0.7643999932188592 1.6121282149827412 -0.07459495601059984 -0.07210215779281651 -0.4018345921111329 0.29748615812136636 -0.343123724043107 3.0519547645415503 -0.36129764504245937
-1.4156634094037308 -1.4033337443063427 -2.295498500816069 -0.7617216504932731 1.613174256006488 -0.07727298846801123 -0.06829382967941378 -0.3987195997494129 0.3026131642641294 -0.3636089568347402 3.0440547833138254 -0.38525386252445476
-1.404635290687235 -1.3840373840962936 -2.3010113804298276 -0.7589634763898756 1.6142514756002422 -0.08003084305530006 -0.06446175358074724 -0.3954069026350568 0.3077974025304009 -0.38459593610449294 3.035457666067422 -0.4098144754577555
-1.3932879789543424 -1.364182518525606 -2.3066838224057786 -0.7561254709086658 1.6153598737640036 -0.08286851977246723 -0.0606161838601323 -0.3918913023409642 0.31302951841868293 -0.4060671510365443 3.0261266467218837 -0.4349641473271474
-1.381621474205053 -1.34376914759428 -2.3125158267439225 -0.7532076340496445 1.6164994504977725 -0.08578601861951274 -0.05676786777426077 -0.38816808802130387 0.3182998037584875 -0.4280035386889493 3.0160246888524886 -0.46068637495306336
-1.3696840543830975 -1.3228817452381127 -2.3184832596369773 -0.7502220403087048 1.617665490042835 -0.08877126649929235 -0.052943264748827636 -0.3842491630286637 0.323577095689325 -0.4502946000153404 3.005159612606342 -0.4868579184851621
-1.3577143162682317 -1.3019377942141812 -2.324466848219204 -0.7472283636407617 1.618834686418111 -0.091764596369722 -0.04922549541821101 -0.3802137357457607 0.3287505466083622 -0.4724796381726324 2.993733847978055 -0.5129434848669631
-1.3457445781533668 -1.2809938431902488 -2.330450436801431 -0.7442346869728196 1.6200038827933867 -0.09475792624015167 -0.04562726961323639 -0.3760774312264858 0.333804811029465 -0.49448889182353634 2.9817818997948593 -0.5388655438008756
-1.333774840038501 -1.2600498921663164 -2.336434025383658 -0.7412410103048765 1.6211730791686627 -0.09775125611058133 -0.042150610062353114 -0.3718454530612878 0.33873905273161437 -0.5163133109531116 2.969309828741853 -0.564617759768777
-1.3218051019236352 -1.2391059411423848 -2.342417613965885 -0.7382473336369344 1.6223422755439385 -0.10074458598101099 -0.038797362646412564 -0.3675230392480022 0.3435524986907861 -0.5379439971470693 2.956323935804406 -0.590193934896053
-1.3098353638087694 -1.2181619901184533 -2.3484012025481116 -0.7352536569689914 1.6235114719192143 -0.10373791585144065 -0.035569196154390886 -0.3631154560931006 0.34824443908215097 -0.5593722089483547 2.942830754653065 -0.6155880121663674
-1.2978656256939036 -1.1972180390945208 -2.3543847911303386 -0.7322599803010483 1.62468066829449 -0.10673124572187032 -0.03246760224397979 -0.35862799212970714 0.35281422725210454 -0.5805893669459236 2.9288370438654283 -0.6407940784131296
-1.2858958875790378 -1.1762740880705893 -2.3603683797125656 -0.7292663036331053 1.625849864669766 -0.10972457559229998 -0.029493895605791874 -0.3540659520592312 0.3572612796602317 -0.6015870585919915 2.91434977900182 -0.6658063670865314
-1.273926149464173 -1.1553301370466569 -2.3663519682947927 -0.7262726269651631 1.627019061045042 -0.11271790546272875 -0.026649214329701583 -0.3494346507233905 0.3615850757913137 -0.6223570427447802 2.89937614455168 -0.6906192607955617
-1.2619564113493071 -1.1343861860227253 -2.3723355568770197 -0.7232789502972201 1.6281882574203177 -0.11571123533315841 -0.023934520471617097 -0.3447394071133454 0.3657851580374981 -0.6428912539344527 2.883923525767472 -0.7152272936249597
-1.2499866732344413 -1.113442234998793 -2.3783191454592463 -0.7202852736292771 1.6293574537955935 -0.11870456520358807 -0.021350600818762416 -0.33998553842257606 0.36986113155077527 -0.6631818063506467 2.8679995004026986 -0.7396251532276139
-1.2380169351195764 -1.0924982839748614 -2.3843027340414733 -0.7172915969613349 1.6305266501708693 -0.12169789507401774 -0.018898067851320116 -0.3351783541500624 0.37381266406590496 -0.6832209975507344 2.851611830370616 -0.7638076826934925
-1.2260471970047107 -1.071554332950929 -2.3902863226237003 -0.7142979202933919 1.6316958465461453 -0.1246912249444474 -0.01657736089807886 -0.33032315026022463 0.37763948569397077 -0.7030013118886904 2.8347684533398296 -0.787769882196629
-1.2140774588898449 -1.0506103819269974 -2.3962699112059274 -0.7113042436254489 1.632865042921421 -0.12768455481487706 -0.0143887474835179 -0.3254252034059952 0.3813413886867206 -0.722515423664943 2.8174774742828252 -0.8115069104222402
-1.202107720774979 -1.029666430903065 -2.402253499788154 -0.7083105669575067 1.6340342392966969 -0.13067788468530672 -0.01233232486354481 -0.3204897652212794 0.3849182271719056 -0.7417561999984099 2.7997471569930648 -0.8350140857765218
-1.1901379826601133 -1.0087224798791334 -2.408237088370381 -0.7053168902895637 1.6352034356719727 -0.13367121455573638 -0.01040802174690722 -0.31552205668895905 0.38836991685980504 -0.7607167034224362 2.781585915586067 -0.858286887382054
-1.1781682445452475 -0.987778528855201 -2.414220676952608 -0.7023232136216206 1.6363726320472485 -0.13666454442616605 -0.008615600199096882 -0.3105272625904684 0.3916964347211671 -0.7793901942069882 2.7630023059993194 -0.8813209558623034
-1.1661985064303826 -0.9668345778312695 -2.420204265534835 -0.6993295369536785 1.6375418284225245 -0.1396578742965957 -0.006954657725367592 -0.3055105260428522 0.3948978186367849 -0.7977701324099923 2.744005017505658 -0.9041120939189388
-1.1542287683155168 -0.945890626807337 -2.426187854117062 -0.6963358602857355 1.6387110247978003 -0.14265120416702537 -0.005424629529299202 -0.30047694312908185 0.3979741670189618 -0.8158501796613049 2.7246028642541096 -0.9266562667062822
-1.142259030200652 -0.9249466757834055 -2.4321714426992886 -0.6933421836177924 1.639880221173076 -0.14564453403745503 -0.004024790943156317 -0.29543155762727186 0.4009256384051117 -0.8336242006832945 2.7048047768518404 -0.9489496020072917
-1.130289292085786 -0.9040027247594731 -2.4381550312815157 -0.6903485069498503 1.6410494175483519 -0.1486378639078847 -0.0027542600261034264 -0.29037935584429286 0.40375245102377 -0.8510862645524451 2.684619794000295 -0.970988390216102
-1.11840237676879 -0.8832036922463411 -2.4440972173248623 -0.6873755445761702 1.642210523845622 -0.15161048188366433 -0.001619465939611063 -0.28536022797923954 0.4064366098748777 -0.8681131219379488 2.6642006118299775 -0.9926192704687888
-1.1068221762792758 -0.8629413314852066 -2.4498860787656076 -0.6844792927381693 1.6433416704344093 -0.15450639821016932 -0.0006344931007122301 -0.2804733476043285 0.40893386427136863 -0.884394204468961 2.6439586652423257 -1.0134440844540518
-1.0955611688061566 -0.8432374760847097 -2.4555153778441596 -0.6816628722779816 1.6444416384531895 -0.15732249240679685 0.0002103943964664734 -0.275727916779054 0.41125127395319266 -0.8999318606169853 2.6239518145530285 -1.0334574199508557
-1.0846193543494351 -0.8240921260448513 -2.460985114560519 -0.6789262831956053 1.645510427901962 -0.16005876447354517 0.0009258383639305298 -0.2711271292409597 0.4133985036731656 -0.9147467104901774 2.6042146134722546 -1.0526767343798105
-1.0739967329091096 -0.8055052813656314 -2.466295288914685 -0.6762695254910405 1.6465480387807272 -0.16271521441041603 0.0015221092721412754 -0.26667350047515725 0.4153849324245941 -0.9288595091019652 2.5847796220224173 -1.0711194464680365
-1.0636933044851808 -0.7874769420470491 -2.4714459009066596 -0.673692599164287 1.6475544710894852 -0.16529184221740856 0.0020090909262899664 -0.2623689270073113 0.4172196463351688 -0.9422910560108686 2.5656774803849838 -1.0888028745188763
-1.053709069077648 -0.7700071080891053 -2.4764369505364408 -0.6711955042153459 1.6485297248282358 -0.16778864789452275 0.0023962691470644365 -0.2582147434148641 0.4189114330274248 -0.9550621116521276 2.546936983765612 -1.1057441798312377
-1.044044026686512 -0.7530957794918001 -2.481268437804029 -0.6687782406442171 1.6494737999969789 -0.1702056314417586 0.00269272406822052 -0.25421177694236974 0.4204687773221989 -0.9671933200485203 2.5285851577357286 -1.1219603149771504
-1.034698177311772 -0.7367429562551324 -2.485940362709425 -0.6664408084508997 1.650386696595715 -0.172542792859117 0.0029071256795492814 -0.2503603996389797 0.4218998581659703 -0.9787051375805179 2.5106473335668413 -1.1374679766468845
-1.0256715209534288 -0.7209486383791033 -2.490452725252628 -0.6641832076353937 1.6512684146244434 -0.17480013214659706 0.0030477322611676266 -0.24666057796497542 0.42321254666758157 -0.9896177674922026 2.493147223128204 -1.1522835627742078
-1.0169640576114816 -0.7057128258637126 -2.4948055254336388 -0.6620054381977001 1.6521189540831644 -0.1769776493041988 0.003122391373180773 -0.2431119198398915 0.42441440513456885 -0.9999510998093808 2.4761069929686035 -1.1664231336597637
-1.0085757872859311 -0.6910355187089596 -2.498998763252456 -0.6599075001378178 1.6529383149718782 -0.17907534433192307 0.0031385430833643993 -0.23971371912742942 0.4255126870041554 -1.0097246563486433 2.459547337249432 -1.1799023768175423
-1.0005067099767766 -0.6769167169148451 -2.5030324387090817 -0.6578893934557479 1.6537264972905847 -0.18109321722976812 0.003103225134367636 -0.23646499757213607 0.42651433756880286 -1.0189575405013094 2.4434875492386157 -1.1927365752778214
-0.9927568256840189 -0.6633564204813691 -2.506906551803514 -0.6559511181514894 1.6544835010392838 -0.18303126799773572 0.0030230797708091783 -0.23336454421993025 0.42742599540111326 -1.0276683914829778 2.4279455911136494 -1.2049405790896188
-0.9853261344076572 -0.6503546294085307 -2.510621102535753 -0.6540926742250424 1.6552093262179757 -0.184889496635825 0.002904361965368113 -0.23041095236915665 0.4282539943877019 -1.0358753427481107 2.412938161857188 -1.2165287797758217
-0.9782146361476922 -0.6379113436963308 -2.5141760909057997 -0.6523140616764076 1.65590397282666 -0.1866679031440368 0.0027529488013696354 -0.22760265411112568 0.4290043662864977 -1.043595984278789 2.39848076306034 -1.2275150875053702
-0.9714223309041241 -0.6260265633447686 -2.517571516913654 -0.6506152805055851 1.6565674408653368 -0.1883664875223694 0.002574349787327901 -0.22493795252920296 0.4296828437266732 -1.0508473284679203 2.384587762477263 -1.2379129107580664
-0.9649492186769519 -0.6147002883538448 -2.520807380559315 -0.6489963307125732 1.6571997303340065 -0.18998524977082454 0.0023737178963049235 -0.22241505163365877 0.43029486357507374 -1.0576457793286447 2.3712724552002244 -1.247735138269345
-0.9587952994661757 -0.6039325187235587 -2.5238836818427837 -0.6474572122973745 1.657800841232669 -0.19152418988940134 0.002155861139691913 -0.22003208411580133 0.43084557059760026 -1.0640071047741715 2.3585471223468653 -1.2569941230540331
-0.9529605732717972 -0.5937232544539119 -2.5268004207640593 -0.6459979252599863 1.6583707735613238 -0.1929833078781007 0.001925254501053901 -0.21778713700958072 0.4313398213484617 -1.0699464117249202 2.346423087171366 -1.2657016683199152
-0.9474450400938137 -0.5840724955449028 -2.5295575973231426 -0.6446184696004105 1.6589095273199714 -0.19436260373692082 0.0016860520709373744 -0.21567827535200884 0.43178218822456027 -1.075478123812735 2.334910768528844 -1.2738690150936
-0.942248699932227 -0.5749802419965322 -2.532155211520033 -0.6433188453186469 1.6594171025086117 -0.1956620774658635 0.0014420992379905462 -0.21370356393554935 0.4321769636264984 -1.080615961465155 2.3240197316375286 -1.2815068313926523
-0.9373715527870372 -0.5664464938087992 -2.534593263354731 -0.6420990524146948 1.6598934991272445 -0.19688172906492785 0.001196944805379331 -0.21186108724619906 0.4325281641717778 -1.085372924165721 2.313758736096491 -1.2886252027892513
-0.9328135986582442 -0.5584712509817047 -2.536871752827236 -0.6409590908885541 1.6603387171758701 -0.19802155853411385 0.0009538529142570987 -0.21014896768048352 0.43283953490971877 -1.0897612746993945 2.3041357811280383 -1.2952336242216325
-0.9285748375458471 -0.5510545135152487 -2.5389906799375486 -0.6398989607402257 1.6607527566544884 -0.1990815658734224 0.0007158146680020794 -0.20856538213309136 0.433114553491436 -1.0937925252050957 2.2951581480234386 -1.3013409929202309
-0.924655269449846 -0.5441962814094303 -2.540950044685668 -0.6389186619697087 1.6611356175630991 -0.20006175108285262 0.00048555936205540995 -0.20710857704453373 0.43335643425188913 -1.0974774248700365 2.2868324397786557 -1.306955602325864
-0.9210548943702417 -0.5378965546642505 -2.5427498470715952 -0.638018194577004 1.6614872999017025 -0.2009621141624045 0.00026556523451307795 -0.20577688199509678 0.4335681321645581 -1.1008259491130932 2.279164617913377 -1.312085136887205
-0.9177737123070333 -0.5321553332797082 -2.544390087095329 -0.6371975585621108 1.6618078036702988 -0.20178265511207805 5.806966216156256e-05 -0.20456872192758085 0.4337523466327076 -1.1038472901166763 2.2721600364718793 -1.3167366676345982
-0.9148117232602218 -0.5269726172558045 -2.545870764756871 -0.6364567539250299 1.6620971288688875 -0.20252337393187325 -0.00013492126455700443 -0.20348262807696416 0.43391152508446906 -1.1065498485785574 2.2658234732084948 -1.3209166484364594
-0.912168927229807 -0.5223484065925401 -2.5471918800562197 -0.6357957806657595 1.6623552754974686 -0.203184270621791 -0.0003116238460701484 -0.2025172476802545 0.4340478663421413 -1.1089412265667886 2.260159157963488 -1.3246309128536087
-0.9098453242157882 -0.5182827012899125 -2.548353432993375 -0.6352146387843023 1.6625822435560427 -0.20376534518183043 -0.0004704686086843962 -0.20167135253449775 0.43416332373912164 -1.1110282213723581 2.2551707982374176 -1.327884671515447
-0.9078409142181663 -0.5147755013479234 -2.549355423568339 -0.6347133282806565 1.6627780330446096 -0.2042665976119915 -0.0006100929142473996 -0.20094384646523927 0.43425960796082674 -1.112816820265271 2.2508616019734666 -1.3306825099503208
-0.9061556972369402 -0.5118268067665719 -2.5501978517811095 -0.6342918491548222 1.6629426439631687 -0.20468802791227514 -0.0007293343823769408 -0.2003337717617311 0.43433818958878206 -1.114312196070755 2.2472342975578767 -1.3330283868104678
-0.9047896732721101 -0.5094366175458598 -2.5508807176316872 -0.6339502014068001 1.663076076311721 -0.20502963608267954 -0.0008272251574109254 -0.19984031462893323 0.4344003013297765 -1.115518703492882 2.2442911510487837 -1.3349256324397343
-0.9037428423236769 -0.5076049336857853 -2.5514040211200717 -0.6336883850365895 1.6631783300902654 -0.2052914221232065 -0.0009029870469343601 -0.19946280969986585 0.4344469399146575 -1.116439876123368 2.2420339806432463 -1.3363769477398775
-0.9030152043916413 -0.5063317551863484 -2.5517677622462642 -0.6335064000441903 1.6632494052988027 -0.205473386033856 -0.0009560275538141802 -0.1992007436452116 0.43447886765388927 -1.1170784240835325 2.24046416839147 -1.3373844032985938
-0.9026067594760008 -0.505617082047551 -2.5519719410102644 -0.6334042464296035 1.6632893019373325 -0.2055755278146263 -0.0009859368191003637 -0.19905375791025115 0.434496613639542 -1.117436232257515 2.2395826691658747 -1.3379494387496753
-0.9025175075767562 -0.5054609142693902 -2.5520165574120717 -0.6333819241928289 1.663298020005855 -0.20559784746551912 -0.0009924854888274243 -0.1990216506022954 0.4345004745858231 -1.117514359084727 2.2393900168912606 -1.338072862342726
-0.9027474486939093 -0.5058632518518689 -2.551901611451686 -0.6334394333338649 1.6632755595043702 -0.20554034498653362 -0.0009756235136405972 -0.19910437754477014 0.4344905153027006 -1.1173130358893826 2.2398863280404697 -1.3377548507068027
-0.9032965828274593 -0.5068240947949851 -2.5516271031291082 -0.6335767738527132 1.663221920432878 -0.20540302037767155 -0.0009354798862147504 -0.19930205250703203 0.4344665687995722 -1.1168316667347085 2.241071302398097 -1.3369949487992598
-0.9041649099774052 -0.5083434430987399 -2.551193032444338 -0.633793945749372 1.6631371027913784 -0.20518587363893115 -0.0008723633175428194 -0.19961494661190965 0.43442823601831027 -1.1160688287990754 2.2429442210928197 -1.3357920700378971
-0.9053524301437479 -0.5104212967631323 -2.550599399397375 -0.6340909490238413 1.6630211065798715 -0.20488890477031418 -0.0007867638493115059 -0.20004348691584825 0.434374885197399 -1.1150222732810984 2.2455039418968865 -1.3341444966213156
-0.9068591433264883 -0.5130576557881632 -2.5498462039882197 -0.634467783676123 1.6628739317983572 -0.20451211377181888 -0.0006793553956620374 -0.20058825414945208 0.4343056508712707 -1.113688926850349 2.2487488917894023 -1.3320498800492282
-0.9086850495256247 -0.5162525201738326 -2.5489334462168722 -0.6349244497062161 1.6626955784468354 -0.20405550064344613 -0.0005509992036233785 -0.20124997959917423 0.434219432511361 -1.1120648936702375 2.2526770567781367 -1.3295052418614277
-0.9108301487411579 -0.5200058899201405 -2.5478611260833324 -0.6354609471141197 1.6624860465253064 -0.20351906538519682 -0.0004027482173087002 -0.20202954110392823 0.43411489281784016 -1.1101454580293497 2.257285968972998 -1.3265069746210467
-0.9132944409730879 -0.5243177650270852 -2.5466292435875997 -0.6360772758998348 1.66224533603377 -0.20290280799706917 -0.00023585232653536292 -0.2029279581335161 0.4339904556734704 -1.10792508762764 2.2625726909028607 -1.3230508431748795
-0.9160779262214138 -0.5291881454946692 -2.545237798729675 -0.6367734360633612 1.661973446972226 -0.20220672847906496 -5.176447581083793e-05 -0.2039463859090218 0.4338443037735789 -1.10539743757398 2.2685337970663544 -1.3191319862308561
-0.9191806044861375 -0.5346170313228917 -2.543686791509558 -0.6375494276046991 1.6616703793406749 -0.2014308268311824 0.0001478523954493577 -0.20508610851872325 0.4336743759487506 -1.1025553551618212 2.275165352706534 -1.3147449183001867
-0.922602475767258 -0.5406044225117519 -2.541976221927248 -0.6384052505238484 1.6613361331391163 -0.2005751030534224 0.00036111761611526405 -0.2063485309766976 0.4334783641995167 -1.099390885500422 2.2824628897991466 -1.3098835320593543
-0.9263435400647744 -0.5471503190612497 -2.540106089982746 -0.6393409048208083 1.6609707083675505 -0.19963955714578585 0.0005859242905449993 -0.20773517016514123 0.4332537104651025 -1.095895278089691 2.29042138024456 -1.3045411011951284
-0.9304037973786876 -0.554254720971386 -2.5380763956760517 -0.6403563904955796 1.6605741050259772 -0.19862418910827095 0.0008199300969048071 -0.20924764459556688 0.43299760315115926 -1.0920589944377936 2.2990352062544064 -1.298710283803895
-0.9347832477089977 -0.5619176282421607 -2.5358871390071647 -0.6414517075481623 1.6601463231143965 -0.1975289989408786 0.0010605474307935625 -0.21088766291852543 0.43270697344437803 -1.0878717168319674 2.3082981279257315 -1.2923831264251566
-0.9394818910557046 -0.570139040873574 -2.5335383199760853 -0.6426268559785564 1.6596873626328084 -0.1963539866436097 0.0013049329560773301 -0.2126570111063838 0.4323784914449695 -1.0833223583844798 2.318203247998101 -1.2855510687978164
-0.9444997274188083 -0.5789189588656249 -2.531029938582814 -0.643881835786762 1.6591972235812131 -0.19509915221646246 0.0015499766332332035 -0.2145575382290339 0.43200856215120675 -1.0783990744875185 2.3287429737926075 -1.2782049494369867
-0.9498367567983088 -0.5882573822183144 -2.5283619948273497 -0.6452166469727789 1.6586759059596103 -0.19376449565943776 0.0017922903046245567 -0.21659114073829927 0.43159332133355266 -1.073089275822952 2.3399089763363907 -1.2703350121386143
-0.9554929791942062 -0.5981543109316414 -2.525534488709693 -0.6466312895366064 1.658123409768 -0.19235001697253562 0.002028195926003326 -0.21875974517330687 0.43112863133936136 -1.0673796430851883 2.3516921466821707 -1.2619309135289114
-0.9614683946065004 -0.6086097450056069 -2.522547420229844 -0.6481257634782454 1.6575397350063825 -0.19085571615575692 0.002253713544209883 -0.2210652891963127 0.4306100768727436 -1.0612561435880163 2.3640825494394164 -1.2529817317858734
-0.9677630030351905 -0.619623684440211 -2.5194007893878028 -0.6497000687976957 1.6569248816747577 -0.18928159320909987 0.0024645491325196583 -0.22350970086647678 0.43003296079792186 -1.054704049939128 2.3770693735425197 -1.2434759766706018
-0.9743768044802774 -0.6311961292354527 -2.516094596183569 -0.6513542054949575 1.6562788497731253 -0.18762764813256538 0.0026560824074078684 -0.2260948760580258 0.4293923000182717 -1.0477079609789728 2.390640880291646 -1.2334016010169757
-0.9813097989417621 -0.6433270793913328 -2.512628840617143 -0.6530881735700307 1.6556016393014856 -0.18589388092615344 0.0028233547636570405 -0.2288226539291818 0.42868282148726183 -1.0402518251937076 2.404784348714038 -1.2227460138393735
-0.9885619864196427 -0.6560165349078515 -2.5090035226885243 -0.6549019730229144 1.6548932502598386 -0.18408029158986405 0.0029610574787220026 -0.231694790349349 0.427898958411654 -1.0323189668251158 2.41948601830769 -1.2114960952294977
-0.9961333669139201 -0.6692644957850078 -2.505218642397713 -0.6567956038536105 1.6541536826481842 -0.1821868801236981 0.0030635203520819124 -0.23471292919442535 0.42703484671159475 -1.0238921149133633 2.4347310292455604 -1.1996382132249581
-1.0040239404245943 -0.6830709620228026 -2.5012741997447097 -0.658769066062117 1.6533829364665225 -0.18021364652765381 0.0031247009609152027 -0.23787857142391458 0.4260843218066395 -1.014953435521399 2.4505033601370716 -1.1871582428439535
-1.0122337069516654 -0.697435933621235 -2.497170194729514 -0.660822359648435 1.6525810117148534 -0.17816059080173208 0.003138174729786114 -0.24119304185888332 0.42504091580126413 -1.005484567402315 2.466785763464788 -1.174041587492234
-1.0207626664951324 -0.7123594105803059 -2.4929066273521254 -0.6629554846125636 1.6517479083931768 -0.1760277129459329 0.0030971260290775446 -0.2446574535869136 0.4238978551480329 -0.9954666613830199 2.4835596988380315 -1.1602732029601537
-1.029610819054997 -0.7278413929000154 -2.488483497612545 -0.6651684409545044 1.6508836265014928 -0.17381501296025625 0.0029943405345605537 -0.24827266992917932 0.4226480588713116 -0.9848804237490214 2.500805264231974 -1.145837624239267
-1.0387781646312577 -0.7438818805803633 -2.483900805510772 -0.6674612286742558 1.6499881660398017 -0.17152249084470217 0.0028221990986654136 -0.2520392639158341 0.42128413743919335 -0.9737061639255591 2.5185011254106136 -1.1307189953990862
-1.048264703223916 -0.7604808736213489 -2.4791585510468064 -0.6698338477718195 1.649061527008103 -0.16915014659927152 0.002572673402572327 -0.25595747522915946 0.4197983923761346 -0.9619238467597058 2.536624443765301 -1.1149011027753517
-1.0580704348329704 -0.777638372022972 -2.4742567342206483 -0.6722862982471938 1.648103709406397 -0.16669798022396254 0.0022373236770651048 -0.2600271645896164 0.41818281671367413 -0.9495131497159043 2.555150802837131 -1.098367411731201
-1.0681953594584215 -0.7953543757852346 -2.4691953550322983 -0.6748185801003794 1.6471147132346835 -0.1641659917187761 0.0018072987989650041 -0.2642477655781988 0.4164290963814752 -0.9364535253035896 2.574054133831867 -1.0811011072616614
-1.0786394771002694 -0.8136288849081348 -2.4639744134817554 -0.6774306933313756 1.6460945384929628 -0.16155418108371222 0.0012733390887445309 -0.2686182339095139 0.4145286126457705 -0.9227242690594313 2.5933066404802063 -1.0630851387198315
-1.0894027877585142 -0.8324618993916726 -2.45859390956902 -0.6801226379401841 1.6450431851812346 -0.1588625483187709 0.000625782153333157 -0.2731369941939707 0.412472445707077 -0.9083045934081789 2.612878723644222 -1.044302268949295
-1.1004852914331558 -0.8518534192358498 -2.4530538432940925 -0.6828944139268032 1.6439606532994993 -0.1560910934239521 -0.00014542786405835617 -0.27780188425449237 0.41025137957373703 -0.8931737077245134 2.6327389061228126 -1.0247351281119772
-1.1118869881241933 -0.8718034444406646 -2.447354214656973 -0.6857460212912336 1.6428469428477563 -0.15323981639925588 -0.001050727248359029 -0.2826100970934762 0.40785590833238594 -0.8773109049129667 2.6528537581650333 -1.0043662725027331
-1.1236078778316285 -0.8923119750061179 -2.4414950236576605 -0.6886774600334755 1.641702053826006 -0.1503087172446822 -0.0021009154968844104 -0.2875581206394055 0.40527624394080825 -0.8606956548139781 2.67318782426014 -0.9831782486414709
-1.135565137757589 -0.9132340924214093 -2.4355176728350356 -0.6916680158592659 1.6405340763122545 -0.1473185078548802 -0.003298392271103283 -0.2926067144494269 0.4025218372390647 -0.8434284109227872 2.6935637347980634 -0.9613060590521479
-1.1475348758724664 -0.9341780434453408 -2.42953408425282 -0.6946616925271885 1.639364879936978 -0.1443251779844763 -0.0046257988683040575 -0.29765652250247865 0.3996401100572761 -0.8258281293276359 2.7135793081095825 -0.93915462852542
-1.1595046139873437 -0.9551219944692733 -2.4235504956706047 -0.6976553691951111 1.6381956835617015 -0.1413318481140715 -0.006082921073574634 -0.3026973238927095 0.3966336205926742 -0.8079184794690573 2.73320398923655 -0.916750265939963
-1.171474352102221 -0.9760659454932048 -2.417566907088389 -0.7006490458630337 1.637026487186425 -0.13833851824366672 -0.007670571838024349 -0.30772410635208947 0.39350217687125777 -0.789705482481881 2.752428786094906 -0.8940967525606713
-1.1834440902170975 -0.9970098965171372 -2.4115833185061737 -0.7036427225309563 1.6358572908111486 -0.13534518837326193 -0.009389405674030012 -0.31273180240529774 0.390245646804817 -0.771195363330596 2.771244818373885 -0.8711980322948361
-1.1954138283319748 -1.0179538475410688 -2.405599729923958 -0.7066363991988789 1.6346880944358722 -0.13235185850285713 -0.011239916130511438 -0.31771529458278985 0.3868639586127967 -0.7523945494341449 2.789643325925328 -0.8480582116249592
-1.2073835664468522 -1.0388977985650012 -2.3996161413417427 -0.7096300758668015 1.6335188980605955 -0.12935852863245234 -0.013222433437817885 -0.3226694207358613 0.3833571012164453 -0.7333096690298233 2.807615677201502 -0.8246815593458822
-1.2193533045617286 -1.0598417495889327 -2.3936325527595272 -0.7126237525347232 1.632349701685319 -0.12636519876204755 -0.01533712232608771 -0.3275889794481373 0.3797251246049915 -0.7139475492718922 2.82515337772806 -0.8010725061014558
-1.231323042676606 -1.0807857006128643 -2.3876489641773118 -0.7156174292026458 1.6311805053100425 -0.12337186889164276 -0.017583980020749602 -0.3324687355377963 0.3759681401735941 -0.6943152140612504 2.8422480785983657 -0.7772356437163909
-1.2432927807914833 -1.1017296516367967 -2.3816653755950963 -0.7186111058705684 1.630011308934766 -0.12037853902123796 -0.019962834418649256 -0.33730342564468213 0.37208632103282996 -0.6744198816029242 2.8588915849748813 -0.7531757243192682
-1.2552625189063598 -1.1226736026607291 -2.375681787012881 -0.721604782538491 1.6288421125594896 -0.11738520915083317 -0.022473342448095533 -0.3420877638963484 0.3680799022894962 -0.6542689616886714 2.8750758645828975 -0.7288976592529988
-1.267232257021237 -1.1436175536846607 -2.3696981984306653 -0.7245984592064136 1.6276729161842132 -0.11439187928042838 -0.025114988615920337 -0.3468164476469465 0.3639491812985124 -0.6338700527026903 2.8907930561814856 -0.7044065177696108
-1.2792019951361144 -1.1645615047085922 -2.36371460984845 -0.7275921358743354 1.6265037198089365 -0.11139854941002358 -0.02788708374444159 -0.35148416328275806 0.3596945178857245 -0.6132309383488697 2.9060354779961837 -0.679707525506495
-1.2911717332509909 -1.1855054557325246 -2.3577310212662344 -0.730585812542258 1.62533452343366 -0.10840521953961879 -0.03078876390102173 -0.356085592088063 0.355316334541427 -0.5923595840988131 2.9207956360975627 -0.6548060627418059
-1.3031414713658682 -1.2064494067564562 -2.351747432684019 -0.7335794892101806 1.6241653270583836 -0.105411889669214 -0.0338189895226972 -0.36061541616493303 0.35081511658443265 -0.5712641333604198 2.935066232709583 -0.6297076624272249
-1.3151112094807456 -1.2273933577803886 -2.3457638441018034 -0.7365731658781032 1.622996130683107 -0.1024185597988101 -0.03697654473813998 -0.3650683244004488 0.3461914122965223 -0.5499529033674657 2.948840174431354 -0.6044180079966534
-1.327080947595622 -1.2483373088043201 -2.339780255519588 -0.7395668425460258 1.6218269343078306 -0.0994252299284053 -0.040260036889005105 -0.369439018474744 0.34144583302714343 -0.5284343807914745 2.9621105803557013 -0.5789429309501181
-1.3390506857104993 -1.2692812598282526 -2.3337966669373724 -0.7425605192139475 1.6206577379325542 -0.09643190005800051 -0.04366789625248828 -0.3737222189032101 0.33657905326821097 -0.5067172170775963 2.9748707900678935 -0.5532884082125215
-1.3510204238253767 -1.2902252108521841 -2.327813078355157 -0.7455541958818701 1.6194885415572777 -0.09343857018759572 -0.04719837596669632 -0.37791267110611215 0.33159181069890575 -0.48481022350731773 2.9871143715075754 -0.5274605592675774
-1.3629901619402531 -1.3111691618761165 -2.3218294897729415 -0.7485478725497927 1.618319345182001 -0.09044524031719092 -0.05084955216021446 -0.3820051514988102 0.32648490620035564 -0.4627223659910973 2.99883512867715 -0.5014656430677541
-1.3749599000551305 -1.332113112900048 -2.315845901190726 -0.7515415492177153 1.6171501488067246 -0.08745191044678613 -0.054619324287020224 -0.3859944735957128 0.3212592038401168 -0.4404627595952178 3.0100271091796227 -0.47531005472161936
-1.3868030042636725 -1.3528354872857289 -2.3099256160148833 -0.7545035542678358 1.6159933219505513 -0.08449024852523657 -0.05846370231042739 -0.389835019398183 0.31597277671320223 -0.41827869544363516 3.020574676935885 -0.44927944968164635
-1.3983288197950756 -1.3730026884127557 -2.304163941235324 -0.7573862042225787 1.614867487649743 -0.08160793250630594 -0.06231216354120719 -0.39346617773499715 0.3107180961231827 -0.39654488831880214 3.030332254263602 -0.4238074745032542
-1.409535442310081 -1.392611384179144 -2.2985618288179563 -0.7601890227995103 1.613772831918942 -0.07880543861725187 -0.06615308136816923 -0.39689173452089005 0.3055059074127441 -0.37528485162380876 3.0393352440191523 -0.3989154754216165
-1.4204228718086895 -1.411661574584894 -2.2931192787627817 -0.7629120099986313 1.6127093547581486 -0.07608276685807613 -0.06997592445078038 -0.4001166228226022 0.3003457632018127 -0.3545169561879174 3.0476205763328847 -0.37461943649606017
-1.4309911082909013 -1.4301532596300062 -2.2878362910697994 -0.76555516581994 1.6116770561673623 -0.07343991722877696 -0.07377065866462212 -0.40314623728608495 0.29524686139783635 -0.3342580495441084 3.055224865718182 -0.35093419288909267
-1.441240151756717 -1.4480864393144808 -2.2827128657390094 -0.7681184902634381 1.6106759361465834 -0.07087688972935524 -0.0775277539499515 -0.4059863762190817 0.2902180438341407 -0.3145235229376158 3.0621843133317816 -0.3278734728398557
-1.4511700022061351 -1.465461113638316 -2.2777490027704115 -0.7706019833291249 1.6097059946958123 -0.06839368435981186 -0.0812381873168735 -0.4086431853425189 0.28526779621235304 -0.2953273801398489 3.068534616076885 -0.30544994162949746
-1.4607806596391573 -1.4822772826015136 -2.272944702164007 -0.7730056450170011 1.608767231815048 -0.06599030112014503 -0.08489344233170378 -0.4111231033966513 0.2804042492371127 -0.276682307579038 3.074310882434454 -0.28367524716218895
-1.4700721240557826 -1.4985349462040727 -2.2682999639197945 -0.775329475327065 1.6078596475042912 -0.06366674001035655 -0.08848550540703527 -0.41343280975478186 0.27563518083341076 -0.2585997453272034 3.079547554868191 -0.2625600668021658
-1.479044395456011 -1.5142341044459942 -2.2638147880377737 -0.7775734742593183 1.6069832417635421 -0.061423001030444624 -0.09200685921365094 -0.4155791741664693 0.27096801933932363 -0.24108995851191015 3.0842783386135606 -0.2421141551247469
-1.4876974738398427 -1.5293747573272771 -2.2594891745179453 -0.7797376418137594 1.6061380145928001 -0.05925908418041104 -0.09545047352597967 -0.41756920872350056 0.26640984756969716 -0.22416210875097636 3.088536136630662 -0.22234639225853922
-1.4960313592072776 -1.5439569048479225 -2.255323123360311 -0.7818219779903899 1.6053239659920655 -0.05717498946025401 -0.09880979380464358 -0.41941002211555956 0.2619674076493418 -0.20782432523853267 3.092352990475161 -0.20326483251560365
-1.5040460515583156 -1.5579805470079284 -2.2513166345648674 -0.783826482789209 1.6045410959613384 -0.05517071686997532 -0.10207872781002555 -0.4211087762184879 0.25764710651756884 -0.19208377514078942 3.095760026820292 -0.1848767530266415
-1.5117415508929577 -1.5714456838072977 -2.247469708131616 -0.7857511562102175 1.6037894045006187 -0.053246266409573195 -0.10525163052997705 -0.4226726450362736 0.25345502200930026 -0.17694673298917457 3.0987874093456917 -0.16718870211856487
-1.519117857211203 -1.5843523152460275 -2.243782344060558 -0.7875959982534138 1.603068891609906 -0.051401638079049405 -0.10832328769301806 -0.424108775998416 0.2493969094216185 -0.16241864878806506 3.10146429569585 -0.15020654719221432
-1.5261749705130505 -1.5967004413241197 -2.2402545423516926 -0.7893610089187995 1.6023795572892012 -0.04963683187840218 -0.1112888981258872 -0.42542425359699443 0.24547820847827312 -0.14850421458144103 3.103818799201887 -0.1339355218778443
-1.5329128907985021 -1.6084900620415734 -2.2368863030050194 -0.7910461882063737 1.6017214015385033 -0.047951847807633285 -0.11414405520126386 -0.4266260653325955 0.24170405060849243 -0.1352074292505166 3.105877955054138 -0.11838027226570468
-1.539331618067557 -1.6197211773983895 -2.2336776260205387 -0.7926515361161357 1.601094424357813 -0.046346685866741844 -0.11688472760809179 -0.4277210699251328 0.2380792664602795 -0.12253166133917874 3.1076676906106355 -0.10354490202773045
-1.5454311523202149 -1.630393787394567 -2.2306285113982494 -0.794177052648088 1.60049862574713 -0.04482134605572696 -0.1195072396633689 -0.42871596773442155 0.23460839357227992 -0.11047970972862294 3.109212799526629 -0.08943301626457999
-1.551211493556476 -1.6405078920301062 -2.2277389591381533 -0.795622737802228 1.5999340057064546 -0.04337582837459042 -0.12200825137062236 -0.42961727332608546 0.23129568413220847 -0.09905386200495596 3.110536919393163 -0.07604776392941641
-1.5566726417763412 -1.6500634913050067 -2.2250089692402497 -0.7969885915785575 1.5994005642357862 -0.04201013282333044 -0.12438473841673942 -0.43043129011084813 0.22814511275374544 -0.08825595038430682 3.111662512577913 -0.06339187869605395
-1.5618145969798087 -1.6590605852192697 -2.2224385417045385 -0.7982746139770747 1.5988983013351254 -0.04072425940194879 -0.12663397228543882 -0.431164086979408 0.22516038420769788 -0.07808740507949115 3.112610849968431 -0.05146771815434898
-1.5666373591668794 -1.667499173772896 -2.2200276765310196 -0.7994808049977813 1.598427217004472 -0.0395182081104446 -0.12875350065256422 -0.43182147685080424 0.22234494104709546 -0.06854930500982083 3.1134019973273643 -0.040277301229759116
-1.5711409283375541 -1.6753792569658819 -2.217776373719693 -0.8006071646406765 1.5979873112438259 -0.03839197894881696 -0.13074112821559336 -0.43240899704935615 0.21970197106971462 -0.05964242577129817 3.1140548039795464 -0.02982234373716348
-1.575325304491832 -1.6827008347982302 -2.215684633270559 -0.8016536929057603 1.5975785840531873 -0.037345571917067666 -0.1325948980973958 -0.4329318914237786 0.2172344145652889 -0.0513672847992 3.1145868935627874 -0.020104291990831503
-1.5791904876297131 -1.689463907269941 -2.2137524551836165 -0.8026203897930335 1.5972010354325559 -0.03637898701519582 -0.13431307395233555 -0.4333950941218479 0.21494497129840748 -0.043724183667264035 3.1150146565875514 -0.01112435440344824
-1.5827364777511974 -1.6956684743810122 -2.211979839458868 -0.8035072553024953 1.5968546653819318 -0.03549222424320053 -0.1358941228913531 -0.433803214934926 0.2128361071817298 -0.03671324747928355 3.115353244564666 -0.002883531016765174
-1.5859632748562849 -1.701314536131446 -2.2103667860963103 -0.8043142894341448 1.5965394739013155 -0.03468528360108358 -0.13733669933170095 -0.4341605261286281 0.21091006059775597 -0.03033446131800645 3.115616565475053 0.004617359084687808
-1.5888708789449755 -1.706402092521241 -2.2089132950959467 -0.8050414921879838 1.596255460990706 -0.03395816508884408 -0.13863962986654055 -0.43447095067883407 0.20916884833090155 -0.024587703725335287 3.1158172803713713 0.011377652517705865
-1.5914592900172693 -1.7109311435504004 -2.2076193664577746 -0.8056888635640114 1.5960026266501042 -0.033310868706481145 -0.1398018992396435 -0.43473805183608255 0.2076142710750922 -0.019472777193772408 3.1159668009172763 0.0173968185362071
-1.5937285080731662 -1.7149016892189195 -2.206485000181795 -0.8062564035622284 1.5957809708795099 -0.032743394453996544 -0.14082263750096588 -0.43496502394591174 0.2062479184854643 -0.01498943565588441 3.1160752876868054 0.02267443818679888
-1.5956785331126673 -1.7183137295268 -2.2055101962680075 -0.8067441121826331 1.5955904936789227 -0.03225574233138939 -0.14170110840985722 -0.4351546844580246 0.20507117374608463 -0.011137408962168315 3.11615164906324 0.0272101857068875
-1.5973093651357706 -1.721167264474043 -2.2046949547164125 -0.8071519894252273 1.5954311950483429 -0.03184791233865969 -0.14243669914409995 -0.4353094670630015 0.2040852176288693 -0.007916424342120228 3.1162035405941078 0.031003812183722036
-1.598621004142478 -1.7234622940606474 -2.204039275527011 -0.80748003529001 1.5953030749877706 -0.03151990447580655 -0.14302891136483215 -0.43543141590171486 0.20329103202207174 -0.005326224845573672 3.1162373646761528 0.03405513148895228
-1.5996134501327877 -1.7251988182866143 -2.2035431586997998 -0.8077282497769813 1.5952061334972056 -0.031271718742831744 -0.14347735367960923 -0.4355221807994638 0.20268940290985576 -0.0033665847635235774 3.11625827046187 0.03636400850018542
-1.6002867031067023 -1.7263768371519426 -2.203206604234783 -0.8078966328861412 1.595140370576648 -0.03110335513973439 -0.14378173553843046 -0.43558301348410217 0.20228092278757992 -0.0020373220285012 3.116270153896742 0.03793034961826526
-1.6006407630642183 -1.7269963506566324 -2.2030296121319575 -0.8079851846174897 1.5951057862260978 -0.031014813666514485 -0.1439418625903584 -0.43561476475503574 0.20206599250048002 -0.0013383075959238606 3.116275657814079 0.038754095586759
-1.6006756300053393 -1.7270573588006854 -2.2030121823913245 -0.8079939049710276 1.5951023804455549 -0.03100609432317203 -0.14395763352145288 -0.4356178825777654 0.2020448224964499 -0.0012694718070798228 3.116276172031961 0.03883521661832407
-1.6003913039300626 -1.7265598615840991 -2.2031543150128847 -0.8079227939467541 1.5951301532350195 -0.031077197109707022 -0.14382903838793576 -0.4355924110867167 0.20221743348664767 -0.0018308077352857583 3.1162718334148773 0.03817370983085172
-1.599787784838389 -1.7255038590068743 -2.2034560099966374 -0.8077718515446692 1.5951891045944913 -0.031228122026118577 -0.14355615845190464 -0.43553799048722297 0.202583656510614 -0.0030223715152287614 3.1162615258801956 0.03676959899497274
-1.5988650727303195 -1.7238893510690119 -2.2039172673425806 -0.8075410777647729 1.5952792345239706 -0.03145886907240847 -0.14313916752029587 -0.43545385785576596 0.20314313240558615 -0.004844279656132877 3.1162428803475337 0.03462293659301585
-1.5976231676058532 -1.721716337770511 -2.204538087050718 -0.8072304726070652 1.5954005430234572 -0.03176943824857581 -0.14257833478124943 -0.4353388488458012 0.20389531068265299 -0.007296703337768589 3.1162122746468692 0.03173380818823752
-1.59606206946499 -1.7189848191113724 -2.205318469121048 -0.806840036071546 1.5955530300929512 -0.0321598295546206 -0.1418740291253968 -0.4351914003146802 0.20483944781538943 -0.010379859688752753 3.1161648334191465 0.028102339101671436
-1.5941817783077301 -1.7156947950915953 -2.206258413553569 -0.8063697681582163 1.5957366957324526 -0.03263004299054284 -0.1410267249328572 -0.4350095538952203 0.2059746049495943 -0.014094000045738941 3.116094428060916 0.0237287033923809
-1.5919822941340733 -1.7118462657111797 -2.207357920348283 -0.8058196688670751 1.5959515399419613 -0.03318007855634253 -0.1400370092998348 -0.43479096054338096 0.20729964504578857 -0.01843939519258949 3.115993676781995 0.01861313513502984
-1.5894636169440197 -1.7074392309701265 -2.20861698950519 -0.8051897381981226 1.5961975627214775 -0.03380993625201967 -0.13890559067159206 -0.4345328861011308 0.20881322946918096 -0.023416317578875877 3.1158539448634723 0.012755941986546355
-1.5866257467375693 -1.7024736908684348 -2.2100356210242893 -0.8044799761513586 1.5964747640710009 -0.03451961607757337 -0.13763330884118768 -0.43423221792092953 0.21051381404489822 -0.02902502051837781 3.115665345220484 0.00615752103107812
-1.583468683514722 -1.6969496454061046 -2.211613814905581 -0.8036903827267832 1.5967831439905318 -0.035309118033005404 -0.13622114626566362 -0.43388547260521504 0.21239964459941146 -0.03526571436989186 3.1154167393920567 -0.0011816231106254328
-1.579992427275478 -1.6908670945831368 -2.2133515711490643 -0.8028209579243972 1.59712270248007 -0.03617844211831489 -0.13467024064329705 -0.4334888049208008 0.2144687520122862 -0.0421385397051746 3.1150957390976006 -0.009260857924916868
-1.576196978019838 -1.6842260383995304 -2.21524888975474 -0.801871701744199 1.5974934395396156 -0.037127588333501826 -0.1329818986870634 -0.4330380179540894 0.21671894680562453 -0.04964353747216271 3.1146887085170545 -0.01807940042382455
-1.572082335747801 -1.6770264768552865 -2.217305770722609 -0.8008426141861902 1.5978953551691686 -0.03815655667856621 -0.1311576110205485 -0.4325285745784233 0.21914781330187158 -0.05778061616649542 3.1141807674683437 -0.027636292365269842
-1.5676485004593665 -1.6692684099504032 -2.2195222140526703 -0.7997336952503709 1.598328449368729 -0.039265347153508046 -0.1291990681131802 -0.43195561030961666 0.2217527033840412 -0.06654951602898806 3.113555795673033 -0.03793037330755977
-1.562895472154537 -1.660951837684883 -2.221898219744924 -0.7985449449367392 1.5987927221382967 -0.04045395975832733 -0.12710817716178957 -0.43131394762969455 0.22453072989583284 -0.0759497702943786 3.1127964383166176 -0.04896025153733834
-1.5578232508333087 -1.6520767600587236 -2.22443378779937 -0.7972763632452962 1.5992881734778719 -0.04172239449302406 -0.12488707981515276 -0.43059811186199815 0.22747875972265003 -0.08598066352389767 3.1118841131262216 -0.06072427291788125
-1.5524318364956855 -1.6426431770719265 -2.2271289182160077 -0.7959279501760426 1.5998148033874544 -0.043070651357598244 -0.12253817062732834 -0.42980234868300154 0.23059340659807054 -0.0966411870639055 3.110799019203375 -0.07322048771305391
-1.5467212291416645 -1.6326510887244918 -2.2299836109948385 -0.7944997057289775 1.6003726118670443 -0.044498730352049876 -0.1200641161142191 -0.4289206433573594 0.23387102368399276 -0.10792999168376126 3.109520147863581 -0.08644661545191103
-1.5406914287712468 -1.6221004950164177 -2.232997866135862 -0.7929916299041002 1.6009615989166415 -0.046006631476378956 -0.11746787427599684 -0.4279467417827326 0.23730769597636614 -0.11984533745788556 3.1080252957481798 -0.10040000790949284
-1.534342435384433 -1.610991395947706 -2.2361716836390766 -0.7914037227014123 1.601581764536246 -0.047594354730585486 -0.11475271443571138 -0.42687417342974576 0.24089923259218116 -0.13238504097187523 3.1062910804859643 -0.11507761029106257
-1.5276742489812225 -1.5993237915183558 -2.2395050635044846 -0.789735984120914 1.6022331087258581 -0.049261900114669466 -0.11192223723173791 -0.42569627625990725 0.24464115899722078 -0.1455464199469297 3.104292959192965 -0.13047592071992037
-1.5206868695616143 -1.587097681728368 -2.242998005732085 -0.7879884141626032 1.6029156314854773 -0.051009267628630894 -0.10898039458866504 -0.42440622370036385 0.24852870923792042 -0.1593262353950676 3.10200525010833 -0.1465909481427255
-1.51338029712561 -1.5743130665777416 -2.246650510321878 -0.786161012826482 1.6036293328151041 -0.05283645727246977 -0.105931509477897 -0.42299705374884566 0.2525568182445791 -0.17372063143589683 3.0994011576716693 -0.16341816878128476
-1.505754531673209 -1.5609699460664768 -2.250462577273863 -0.7842537801125493 1.6043742127147382 -0.05474346904618699 -0.1027802952657129 -0.42146170027502944 0.25672011427707253 -0.18872507292658974 3.096452801352975 -0.18095248127578525
-1.4978095732044112 -1.5470683201945743 -2.2544342065880407 -0.7822667160208052 1.6051502711843797 -0.056730302949780764 -0.09953187443291144 -0.4197930265756286 0.26101291158813633 -0.20433428107871132 3.093131248549541 -0.19918816068142822
-1.4895454217192166 -1.5326081889620333 -2.2585653982644107 -0.7801998205512497 1.6059575082240285 -0.05879695898325199 -0.09619179643655684 -0.4179838612297905 0.26542920338318254 -0.22054216725936482 3.0894065518650273 -0.2181188114983445
-1.480962077217626 -1.5175895523688547 -2.262856152302973 -0.7780530937038828 1.6067959238336846 -0.060943437146600665 -0.09276605447090605 -0.41602703628868354 0.2699626551594749 -0.23734176519939015 3.085247791083959 -0.23773731993337943
-1.4720595396996377 -1.5020124104150376 -2.267306468703728 -0.7758265354787053 1.6076655180133483 -0.06316973743982679 -0.0892611008714681 -0.41391542781843593 0.2746065985113061 -0.25472516185780597 3.08062312014954 -0.25803580561173617
-1.4628378091652525 -1.485876763100582 -2.271916347466675 -0.7735201458757164 1.6085662907630192 -0.06547585986293036 -0.08568386089352302 -0.41164199879875224 0.2793540254915337 -0.2726834272194381 3.0754998194444627 -0.2790055729763671
-1.4532968856144715 -1.4691826104254888 -2.2766857885918155 -0.7711339248949152 1.6094982420826975 -0.06786180441591139 -0.08204174458446935 -0.4091998443605174 0.2841975836234513 -0.29120654333162543 3.069844353661887 -0.3006370626332452
-1.4434367690472936 -1.4519299523897562 -2.2816147920791474 -0.7686678725363043 1.6104613719723833 -0.07032757109876986 -0.07834265645834453 -0.40658223932444165 0.28912957166044295 -0.31028333291490384 3.063622435537877 -0.32291980292108086
-1.4332574594637189 -1.4341187889933869 -2.2867033579286717 -0.7661219887998811 1.6114556804320763 -0.07287315991150667 -0.07459500267095882 -0.40378268797926 0.2941419361941511 -0.3299013879129777 3.0567990956960185 -0.34584236200422697
-1.4227589568637473 -1.415749120236379 -2.291951486140389 -0.7634962736856465 1.6124811674617767 -0.07549857085412004 -0.07080769538558006 -0.4007949760121633 0.2992262692149887 -0.3500469983772227 3.0493387588303906 -0.3693923008074529
-1.411941261247379 -1.3968209461187318 -2.297359176714298 -0.7607907271936014 1.6135378330614847 -0.07820380392661086 -0.06699015401228064 -0.3976132244760021 0.30437380673161984 -0.3707050821105102 3.0412053264236416 -0.39355612713038934
-1.4008043726146138 -1.3773342666404478 -2.3029264296504 -0.7580053493237449 1.6146256772311998 -0.08098885912897913 -0.06315230299919358 -0.39423194564737873 0.3095754285585834 -0.39185911552498653 3.032362266162743 -0.4183192512976147
-1.3893482909654526 -1.3572890818015253 -2.308653244948694 -0.7551401400760769 1.6157446999709224 -0.08385373646122574 -0.059304565851335464 -0.3906461005971111 0.3148216593834054 -0.41349106619598686 3.022772708176144 -0.44366594371715634
-1.3775730162998938 -1.3366853916019643 -2.3145396226091806 -0.7521950994505975 1.6168949012806524 -0.0867984359233489 -0.055457855052668426 -0.3868511582597665 0.3201026712263196 -0.43558132762130286 3.0123995481721897 -0.46957929473508286
-1.3656051825242734 -1.3157447726800164 -2.3205222592254864 -0.7492018990651088 1.6180639116412863 -0.0897912895664934 -0.05166308338721794 -0.38288568169087184 0.3253533611696172 -0.4578736682403656 3.001325576487626 -0.4957649416878588
-1.353635444409397 -1.294800821656084 -2.326505847807702 -0.7462082223971862 1.6192331080165627 -0.0927846194368982 -0.04798581217934583 -0.3788152968535703 0.3304862953124863 -0.47999983083673525 2.989719841230279 -0.5217955104292723
-1.3416657062945196 -1.2738568706321525 -2.3324894363899173 -0.7432145457292636 1.6204023043918392 -0.09577794930730299 -0.04442879361309574 -0.3746458037390883 0.3354997509052437 -0.5019471083108953 2.977589960232555 -0.5476603975462812
-1.3296959681796423 -1.252912919608221 -2.338473024972133 -0.740220869061341 1.6215715007671156 -0.09877127917770778 -0.040993990193595405 -0.3703824183485015 0.34039291326009224 -0.5237065016900196 2.964942076910079 -0.5733533140500079
-1.3177262300647659 -1.2319689685842885 -2.3444566135543483 -0.7372271923934193 1.622740697142392 -0.10176460904811258 -0.037683187472053625 -0.36603038901057294 0.3451650308903721 -0.5452691654571159 2.9517825724031357 -0.598868109715554
-1.3057564919498876 -1.211025017560356 -2.350440202136564 -0.7342335157254967 1.6239098935176688 -0.10475793891851737 -0.03449799387142029 -0.36159499028794584 0.3498154155024702 -0.5666264128167674 2.9381180579041555 -0.6241987762208244
-1.2937867538350112 -1.1900810665364245 -2.3564237907187797 -0.7312398390575741 1.6250790898929452 -0.10775126878892216 -0.03143984071651797 -0.3570815169024394 0.3543434419575943 -0.5877697206917821 2.923955366827839 -0.649339450061634
-1.2818170157201347 -1.169137115512493 -2.362407379300995 -0.7282461623896515 1.6262482862682217 -0.11074459865932695 -0.028509982467300715 -0.35249527768628 0.35874854820351687 -0.6086907344472038 2.9093015468409087 -0.6742844152421034
-1.2698472776052565 -1.1481931644885606 -2.3683909678832107 -0.7252524857217288 1.6274174826434982 -0.11373792852973175 -0.025709497153700078 -0.34784158956602 0.36303023517639665 -0.6293812723389649 2.8941638517682775 -0.6990281057399504
-1.25787753949038 -1.1272492134646281 -2.374374556465426 -0.7222588090538071 1.6285866790187746 -0.11673125840013654 -0.023039287010271386 -0.34312577158583657 0.36718806667281734 -0.6498333296850564 2.8785497333924113 -0.7235651077468352
-1.2459078013755036 -1.1063052624406966 -2.3803581450476416 -0.7192651323858845 1.629755875394051 -0.11972458827054133 -0.020500079308635632 -0.3383531389768196 0.37122166919217503 -0.6700390827579947 2.8624668331624963 -0.7478901616844755
-1.2339380632606254 -1.085361311416765 -2.386341733629857 -0.7162714557179619 1.6309250717693278 -0.12271791814094613 -0.01809242738551114 -0.3335289972787703 0.3751307317495777 -0.6899908923978516 2.8459229738298113 -0.7719981639977351
-1.221968325145749 -1.0644173603928326 -2.3923253222120726 -0.7132777790500393 1.6320942681446042 -0.12571124801135092 -0.01581671186389715 -0.32865863652094607 0.37891500565942304 -0.7096813073459394 2.8289261510255144 -0.7958841687264345
-1.2099985870308725 -1.043473409368901 -2.398308910794288 -0.7102841023821167 1.6332634645198807 -0.1287045778817557 -0.013673142064762337 -0.3237473254680803 0.38257430428983397 -0.7291030672998526 2.8114845247967115 -0.8195433888581063
-1.1980288489159951 -1.0225294583449687 -2.4042924993765036 -0.707290425714195 1.6344326608951572 -0.1316979077521605 -0.011661757606402104 -0.3188003059378994 0.38610850278815634 -0.7482491056911942 2.793606411116394 -0.8429711974643732
-1.1860591108011178 -1.0015855073210371 -2.410276087958719 -0.7042967490462724 1.6356018572704336 -0.1346912376225644 -0.009782430188404724 -0.31382278719625256 0.3895175377777169 -0.767112552187922 2.775300273382463 -0.8661631286240863
-1.1740893726862414 -0.9806415562971047 -2.4162596765409345 -0.7013030723783498 1.63677105364571 -0.1376845674929692 -0.008034865556979645 -0.30881994043584104 0.392801407026073 -0.7856867349238963 2.7565747139206165 -0.8891148781367771
-1.162119634571364 -0.9596976052731732 -2.42224326512315 -0.6983093957104272 1.6379402500209865 -0.140677897363374 -0.006418605648204442 -0.30379689334441395 0.3959601690849798 -0.8039651824587104 2.737438465505532 -0.9118223040303499
-1.1501498964564867 -0.9387536542492407 -2.4282268537053655 -0.6953157190425046 1.6391094463962632 -0.1436712272337788 -0.004933030905563535 -0.29875872476815807 0.3989939429023329 -0.821941625471405 2.717900382914217 -0.9342814268673735
-1.1381801583416102 -0.9178097032253092 -2.434210442287581 -0.6923220423745828 1.6402786427715397 -0.14666455710418358 -0.003577362767955748 -0.2937104594758811 0.4019029074063346 -0.8396099981923035 2.697969434524975 -0.9564884298545875
-1.1262110169706592 -0.8968667963491646 -2.4401937325616707 -0.6893285149545676 1.6414477808572505 -0.1496577377439703 -0.002350724283091181 -0.2886573150095717 0.4046871653482827 -0.8569635823023399 2.6776557161681662 -0.9784385708297634
-1.1144203933809838 -0.8762362494956077 -2.4460877830422487 -0.6863796355052507 1.6425994814400866 -0.15260627558522888 -0.001267410776297849 -0.28367928887450977 0.40730840011443925 -0.8737459263107974 2.65727868268576 -0.9998078763837683
-1.1029489628077052 -0.8561642080026894 -2.451822271160634 -0.6835105874337444 1.6437200034529151 -0.1554749912966109 -0.00033139178313344037 -0.27884020622629396 0.40974326668852473 -0.889771371125663 2.6371128406251167 -1.0203542060802364
-1.0917967252508234 -0.8366506718704088 -2.4573971969168267 -0.6807213707400503 1.6448093468957363 -0.1582638848781146 0.000468208809451455 -0.27414374139896913 0.41200161355197595 -0.9050603951238229 2.6171940976325883 -1.0400950064619046
-1.0809636807103375 -0.8176956410987657 -2.4628125603108275 -0.6780119854241669 1.6458675117685504 -0.16097295632974085 0.0011419082595712018 -0.2695928502092605 0.41409300897518675 -0.9196336749622214 2.5975563198315177 -1.0590477290295661
-1.0704498291862494 -0.799299115687762 -2.468068361342636 -0.6753824314860957 1.6468944980713567 -0.16360220565148964 0.0016998467874923748 -0.26518983067422486 0.41602673287494424 -0.933511990640836 2.5782314046713695 -1.0772297649585094
-1.0602551706785572 -0.781461095637396 -2.4731646000122516 -0.672832708925835 1.6478903058041559 -0.16615163284336187 0.0021517736610032062 -0.26093638154165016 0.4178117702222274 -0.946716137457318 2.5592493551861684 -1.0946583851557217
-1.0503797051872628 -0.7641815809476675 -2.4781012763196744 -0.6703628177433849 1.6488549349669477 -0.16862123790535577 0.002507037151414468 -0.2568336584959777 0.4194568058739705 -0.9592668445479733 2.5406383550798735 -1.1113506853674848
-1.0408234327123642 -0.7474605716185785 -2.4828783902649056 -0.6679727579387471 1.649788385559732 -0.17101102083747222 0.002774577977918316 -0.2528823279369609 0.42097022070672974 -0.9711846996995935 2.522424844117003 -1.1273235360459284
-1.0315863532538625 -0.7312980676501271 -2.4874959418479445 -0.6656625295119207 1.6506906575825089 -0.1733209816397121 0.0029629258746891804 -0.24908261825930192 0.4223600889346895 -0.9824900801105656 2.504633593353768 -1.1425935366847297
-1.0226684668117576 -0.7156940690423141 -2.4919539310687906 -0.6634321324629049 1.6515617510352787 -0.17555112031207365 0.003080198932767432 -0.24543436858925177 0.42363417649910295 -0.9932030887773592 2.487287779797904 -1.15717697433816
-1.0140697733860495 -0.7006485757951388 -2.496252357927444 -0.6612815667917005 1.6524016659180407 -0.17770143685455775 0.003134105387062526 -0.24193707495877068 0.42479994042103775 -1.0033434961833227 2.4704090601341995 -1.1710897860436322
-1.0057902729767383 -0.686161587908602 -2.5003912224239055 -0.6592108324983075 1.6532104022307956 -0.1797719312671644 0.0031319475375366154 -0.23858993391949576 0.4258645290141242 -1.0129306869700663 2.4540176431977585 -1.1843475248755195
-0.9978299655838239 -0.6722331053827029 -2.5043705245581744 -0.6572199295827259 1.6539879599735432 -0.1817626035498936 0.0030806275125040625 -0.23539188361761515 0.426834782858876 -1.0219836112774472 2.4381323609181607 -1.1969653293667537
-0.9901888512073054 -0.6588631282174422 -2.508190264330251 -0.6553088580449549 1.6547343391462832 -0.18367345370274624 0.002986654600830682 -0.23234164236697818 0.4277172364450118 -1.0305207404457348 2.42277073749518 -1.2089578960445944
-0.9828669298471846 -0.64605165641282 -2.5118504417401346 -0.6534776178849961 1.655449539749016 -0.18550448172572054 0.002856153898442501 -0.2294377447715571 0.428518120393065 -1.0385600267824913 2.4079490566006574 -1.2203394548375743
-0.9758642015034598 -0.6337986899688364 -2.5153510567878263 -0.651726209102848 1.6561335617817416 -0.1872556876188174 0.0026948760328262336 -0.22667857545989456 0.4292433641713562 -1.0461188671070643 2.3936824264317322 -1.2311237471216874
-0.9691806661761326 -0.6221042288854894 -2.518692109473326 -0.6500546316985112 1.6567864052444594 -0.1889270713820368 0.0025082077469740574 -0.22406240050359394 0.4298985992291312 -1.0532140697967467 2.379984842468098 -1.2413240061854443
-0.9628163238652014 -0.6109682731627819 -2.5218735997966326 -0.6484628856719858 1.65740807013717 -0.19051863301537875 0.0023011831414226427 -0.2215873965994083 0.4304891624713114 -1.0598618250705996 2.366869247810392 -1.2509529399050565
-0.9567711745706671 -0.6003908228007129 -2.5248955277577467 -0.646950971023271 1.6579985564598734 -0.19203037251884325 0.0020784953895310113 -0.2192516781002165 0.43102010000483937 -1.0660776782593804 2.3543475909986156 -1.2600227154328465
-0.9510452182925295 -0.5903718777992815 -2.527757893356669 -0.6455188877523685 1.6585578642125691 -0.1934622898924312 0.0018445087569359808 -0.217053321984317 0.43149617109103533 -1.0718765058228892 2.342430881228492 -1.268544945713667
-0.9456384550307879 -0.5809114381584886 -2.5304606965933987 -0.6441666358592766 1.6590859933952578 -0.1948143851361408 0.0016032707710942964 -0.21499039085514102 0.43192185224268054 -1.0772724938889384 2.3311292409005646 -1.2765306776557441
-0.940550884785444 -0.5720095038783333 -2.5330039374679356 -0.642894215343996 1.659582944007939 -0.19608665824997296 0.0013585244010035635 -0.21306095406486475 0.4323013414087208 -1.082279119101402 2.3204519554512997 -1.2839903817938314
-0.9358401422524603 -0.5637669207950369 -2.5353588047978306 -0.6417160408614606 1.6600430863303162 -0.19726469624883602 0.0011167672872239298 -0.21128477565167836 0.4326345925933378 -1.0868535309512894 2.310529137558137 -1.2908502957307075
-0.931899081029365 -0.5568710812665003 -2.5373289138102413 -0.6407303665787651 1.660428046673856 -0.19825025634772597 0.0009034668002819018 -0.2098065980810666 0.4329000545950712 -1.0906350843734183 2.3022011602833605 -1.29655441753461
-0.9287146734147402 -0.5512991901790869 -2.538920776962227 -0.6399339342186279 1.6607390975761136 -0.1990465964464745 0.0007238500038822884 -0.20861749002394595 0.43310570372338486 -1.093660301451449 2.295454752867228 -1.3011401007484102
-0.9261963982640928 -0.546892858903183 -2.54017964514244 -0.6393041041012477 1.6609850810846776 -0.19967635360222769 0.0005772482610001892 -0.2076805052051915 0.43326275128855557 -1.0960334744647322 2.2901087540844838 -1.3047517710234087
-0.9242686966055702 -0.5435198787479489 -2.541143289753805 -0.6388219786426586 1.6611733777516662 -0.2001584232097917 0.00046232648544551613 -0.2069652940374057 0.4333796447839489 -1.0978386229392678 2.286010062931033 -1.3075076394360474
-0.9228709716399681 -0.5410742209613248 -2.541842002713519 -0.6384724023547275 1.6613099066337296 -0.20050795900163543 0.00037754363141047353 -0.2064478263086056 0.43346260162349887 -1.0991412563529117 2.2830347608458883 -1.309501065334855
-0.9219575887407228 -0.5394760367300329 -2.5422985964530533 -0.638243961845161 1.6613991252920484 -0.20073637304789038 0.00032148131731671303 -0.20611018047643595 0.4335159959237497 -1.0999896670432086 2.2810889068454525 -1.3108015539388378
-0.9214978754539143 -0.5386716571795738 -2.5425284039181486 -0.6381289858174943 1.6614440297923345 -0.20085133575634906 0.0002930682938826826 -0.20594039295365352 0.4335426258664546 -1.1004158320712674 2.2801090777146134 -1.3114554511657948
-0.9214326509924069 -0.5385575312133852 -2.5425610091714477 -0.63811267293356 1.6614504008760826 -0.20086764675054436 0.00028902639586145945 -0.20591631165873833 0.4335463909211984 -1.1004762507175545 2.2799700336850894 -1.3115481913485583
-0.9214326509924069 -0.5385575312133852 -2.5425610091714477 -0.63811267293356 1.6614504008760826 -0.20086764675054436 0.00028902639586145945 -0.20591631165873833 0.4335463909211984 -1.1004762507175545 2.2799700336850894 -1.3115481913485583
-0.9214326509924069 -0.5385575312133852 -2.5425610091714477 -0.63811267293356 1.6614504008760826 -0.20086764675054436 0.00028902639586145945 -0.20591631165873833 0.4335463909211984 -1.1004762507175545 2.2799700336850894 -1.3115481913485583
-0.9214326509924069 -0.5385575312133852 -2.5425610091714477 -0.63811267293356 1.6614504008760826 -0.20086764675054436 0.00028902639586145945 -0.20591631165873833 0.4335463909211984 -1.1004762507175545 2.2799700336850894 -1.3115481913485583
-0.9214326509924069 -0.5385575312133852 -2.5425610091714477 -0.63811267293356 1.6614504008760826 -0.20086764675054436 0.00028902639586145945 -0.20591631165873833 0.4335463909211984 -1.1004762507175545 2.2799700336850894 -1.3115481913485583
-0.9214326509924069 -0.5385575312133852 -2.5425610091714477 -0.63811267293356 1.6614504008760826 -0.20086764675054436 0.00028902639586145945 -0.20591631165873833 0.4335463909211984 -1.1004762507175545 2.2799700336850894 -1.3115481913485583
-0.9214326509924069 -0.5385575312133852 -2.5425610091714477 -0.63811267293356 1.6614504008760826 -0.20086764675054436 0.00028902639586145945 -0.20591631165873833 0.4335463909211984 -1.1004762507175545 2.2799700336850894 -1.3115481913485583
-0.9214326509924069 -0.5385575312133852 -2.5425610091714477 -0.63811267293356 1.6614504008760826 -0.20086764675054436 0.00028902639586145945 -0.20591631165873833 0.4335463909211984 -1.1004762507175545 2.2799700336850894 -1.3115481913485583
-0.9214326509924069 -0.5385575312133852 -2.5425610091714477 -0.63811267293356 1.6614504008760826 -0.20086764675054436 0.00028902639586145945 -0.20591631165873833 0.4335463909211984 -1.1004762507175545 2.2799700336850894 -1.3115481913485583
-0.9214326509924069 -0.5385575312133852 -2.5425610091714477 -0.63811267293356 1.6614504008760826 -0.20086764675054436 0.00028902639586145945 -0.20591631165873833 0.4335463909211984 -1.1004762507175545 2.2799700336850894 -1.3115481913485583
-0.9214326509924069 -0.5385575312133852 -2.5425610091714477 -0.63811267293356 1.6614504008760826 -0.20086764675054436 0.00028902639586145945 -0.20591631165873833 0.4335463909211984 -1.1004762507175545 2.2799700336850894 -1.3115481913485583
-0.9214326509924069 -0.5385575312133852 -2.5425610091714477 -0.63811267293356 1.6614504008760826 -0.20086764675054436 0.00028902639586145945 -0.20591631165873833 0.4335463909211984 -1.1004762507175545 2.2799700336850894 -1.3115481913485583
-0.9214326509924069 -0.5385575312133852 -2.5425610091714477 -0.63811267293356 1.6614504008760826 -0.20086764675054436 0.00028902639586145945 -0.20591631165873833 0.4335463909211984 -1.1004762507175545 2.2799700336850894 -1.3115481913485583
-0.9214326509924069 -0.5385575312133852 -2.5425610091714477 -0.63811267293356 1.6614504008760826 -0.20086764675054436 0.00028902639586145945 -0.20591631165873833 0.4335463909211984 -1.1004762507175545 2.2799700336850894 -1.3115481913485583
-0.9214326509924069 -0.5385575312133852 -2.5425610091714477 -0.63811267293356 1.6614504008760826 -0.20086764675054436 0.00028902639586145945 -0.20591631165873833 0.4335463909211984 -1.1004762507175545 2.2799700336850894 -1.3115481913485583
-0.9214326509924069 -0.5385575312133852 -2.5425610091714477 -0.63811267293356 1.6614504008760826 -0.20086764675054436 0.00028902639586145945 -0.20591631165873833 0.4335463909211984 -1.1004762507175545 2.2799700336850894 -1.3115481913485583
-0.9214326509924069 -0.5385575312133852 -2.5425610091714477 -0.63811267293356 1.6614504008760826 -0.20086764675054436 0.00028902639586145945 -0.20591631165873833 0.4335463909211984 -1.1004762507175545 2.2799700336850894 -1.3115481913485583
-0.9214326509924069 -0.5385575312133852 -2.5425610091714477 -0.63811267293356 1.6614504008760826 -0.20086764675054436 0.00028902639586145945 -0.20591631165873833 0.4335463909211984 -1.1004762507175545 2.2799700336850894 -1.3115481913485583
-0.9214326509924069 -0.5385575312133852 -2.5425610091714477 -0.63811267293356 1.6614504008760826 -0.20086764675054436 0.00028902639586145945 -0.20591631165873833 0.4335463909211984 -1.1004762507175545 2.2799700336850894 -1.3115481913485583
-0.9214326509924069 -0.5385575312133852 -2.5425610091714477 -0.63811267293356 1.6614504008760826 -0.20086764675054436 0.00028902639586145945 -0.20591631165873833 0.4335463909211984 -1.1004762507175545 2.2799700336850894 -1.3115481913485583
-0.9214326509924069 -0.5385575312133852 -2.5425610091714477 -0.63811267293356 1.6614504008760826 -0.20086764675054436 0.00028902639586145945 -0.20591631165873833 0.4335463909211984 -1.1004762507175545 2.2799700336850894 -1.3115481913485583
-0.9214326509924069 -0.5385575312133852 -2.5425610091714477 -0.63811267293356 1.6614504008760826 -0.20086764675054436 0.00028902639586145945 -0.20591631165873833 0.4335463909211984 -1.1004762507175545 2.2799700336850894 -1.3115481913485583
-0.9214326509924069 -0.5385575312133852 -2.5425610091714477 -0.63811267293356 1.6614504008760826 -0.20086764675054436 0.00028902639586145945 -0.20591631165873833 0.4335463909211984 -1.1004762507175545 2.2799700336850894 -1.3115481913485583
-0.9214326509924069 -0.5385575312133852 -2.5425610091714477 -0.63811267293356 1.6614504008760826 -0.20086764675054436 0.00028902639586145945 -0.20591631165873833 0.4335463909211984 -1.1004762507175545 2.2799700336850894 -1.3115481913485583
-0.9214326509924069 -0.5385575312133852 -2.5425610091714477 -0.63811267293356 1.6614504008760826 -0.20086764675054436 0.00028902639586145945 -0.20591631165873833 0.4335463909211984 -1.1004762507175545 2.2799700336850894 -1.3115481913485583
-0.9214326509924069 -0.5385575312133852 -2.5425610091714477 -0.63811267293356 1.6614504008760826 -0.20086764675054436 0.00028902639586145945 -0.20591631165873833 0.4335463909211984 -1.1004762507175545 2.2799700336850894 -1.3115481913485583
-0.9214326509924069 -0.5385575312133852 -2.5425610091714477 -0.63811267293356 1.6614504008760826 -0.20086764675054436 0.00028902639586145945 -0.20591631165873833 0.4335463909211984 -1.1004762507175545 2.2799700336850894 -1.3115481913485583
-0.9214326509924069 -0.5385575312133852 -2.5425610091714477 -0.63811267293356 1.6614504008760826 -0.20086764675054436 0.00028902639586145945 -0.20591631165873833 0.4335463909211984 -1.1004762507175545 2.2799700336850894 -1.3115481913485583
-0.9214326509924069 -0.5385575312133852 -2.5425610091714477 -0.63811267293356 1.6614504008760826 -0.20086764675054436 0.00028902639586145945 -0.20591631165873833 0.4335463909211984 -1.1004762507175545 2.2799700336850894 -1.3115481913485583
-0.9214326509924069 -0.5385575312133852 -2.5425610091714477 -0.63811267293356 1.6614504008760826 -0.20086764675054436 0.00028902639586145945 -0.20591631165873833 0.4335463909211984 -1.1004762507175545 2.2799700336850894 -1.3115481913485583
-0.9214326509924069 -0.5385575312133852 -2.5425610091714477 -0.63811267293356 1.6614504008760826 -0.20086764675054436 0.00028902639586145945 -0.20591631165873833 0.4335463909211984 -1.1004762507175545 2.2799700336850894 -1.3115481913485583
-0.9214326509924069 -0.5385575312133852 -2.5425610091714477 -0.63811267293356 1.6614504008760826 -0.20086764675054436 0.00028902639586145945 -0.20591631165873833 0.4335463909211984 -1.1004762507175545 2.2799700336850894 -1.3115481913485583
-0.9214326509924069 -0.5385575312133852 -2.5425610091714477 -0.63811267293356 1.6614504008760826 -0.20086764675054436 0.00028902639586145945 -0.20591631165873833 0.4335463909211984 -1.1004762507175545 2.2799700336850894 -1.3115481913485583
-0.9214326509924069 -0.5385575312133852 -2.5425610091714477 -0.63811267293356 1.6614504008760826 -0.20086764675054436 0.00028902639586145945 -0.20591631165873833 0.4335463909211984 -1.1004762507175545 2.2799700336850894 -1.3115481913485583
-0.9214326509924069 -0.5385575312133852 -2.5425610091714477 -0.63811267293356 1.6614504008760826 -0.20086764675054436 0.00028902639586145945 -0.20591631165873833 0.4335463909211984 -1.1004762507175545 2.2799700336850894 -1.3115481913485583
