qblc7/bachelorproject/Testdaten/linear_l1/robot_l1.csv
actual_q_0 actual_q_1 actual_q_2 actual_q_3 actual_q_4 actual_q_5 actual_TCP_pose_0 actual_TCP_pose_1 actual_TCP_pose_2 actual_TCP_pose_3 actual_TCP_pose_4 actual_TCP_pose_5
4.39863920211792 -1.5823022327818812 1.7397993246661585 4.491030378932617 -1.4523842970477503 -5.594030682240621 -0.004698341281416118 0.5281156079500122 0.24377560051671007 -2.7162683339137677 1.4792509145658843 0.19389963763344725
4.398674964904785 -1.582278390923971 1.7397640387164515 4.49104277669873 -1.452371899281637 -5.593994919453756 -0.004717361605147559 0.5281265772998639 0.2437804517464692 -2.7162741720647197 1.479253627802501 0.19392100827348144
4.39866304397583 -1.582278390923971 1.7397640387164515 4.491030378932617 -1.4523480574237269 -5.594018999730245 -0.004716569411503196 0.5281320278323587 0.24378271330912687 -2.7162734710259655 1.4792291899559054 0.19395895745105687
4.39866304397583 -1.5823141537108363 1.7397993246661585 4.491054220790527 -1.4523962179767054 -5.5940545240985315 -0.004710009422658035 0.528107142688109 0.24377835448540794 -2.716312216881538 1.479192843385328 0.193878705811998
4.39866304397583 -1.5823265514769496 1.7397993246661585 4.491030378932617 -1.4523842970477503 -5.594030682240621 -0.004711545583074005 0.5281136188668161 0.2437877860432525 -2.7162669818372436 1.4792057102338119 0.19390598699134884
4.39868688583374 -1.582266469995016 1.7398117224322718 4.491030378932617 -1.4523604551898401 -5.594018999730245 -0.00473052094468176 0.5281161505378148 0.24375220181198531 -2.716340730810273 1.4792305341763343 0.19392746271820518
4.398651123046875 -1.582278390923971 1.7398117224322718 4.491006537074707 -1.4523842970477503 -5.594006840382711 -0.004703291884475188 0.5281197329498483 0.24376020370441429 -2.7162718021105543 1.479274918583361 0.19389817609967175
4.39866304397583 -1.582278390923971 1.7397754828082483 4.490982695216797 -1.4523604551898401 -5.594006840382711 -0.004710238410453928 0.5281400065324795 0.24378215568853978 -2.7162337624317416 1.4792256902213652 0.19394861503098026
4.39868688583374 -1.5823141537108363 1.7397869269000452 4.49104277669873 -1.4523842970477503 -5.5940545240985315 -0.004723577143810328 0.5281151937962641 0.24378637877989548 -2.7163125338495684 1.479147900340815 0.19390318881496907
4.398674964904785 -1.582278390923971 1.7397993246661585 4.491030378932617 -1.452371899281637 -5.594030682240621 -0.004720047518480222 0.5281183539570241 0.24376406660534333 -2.7163178392525085 1.4792166519540995 0.19391455592750775
4.398651123046875 -1.582278390923971 1.7397754828082483 4.491054220790527 -1.4523962179767054 -5.594066683446066 -0.004700271874214795 0.528117763531962 0.24377249732451403 -2.7163210262733077 1.4791984753687841 0.1938751325686958
4.39868688583374 -1.5823022327818812 1.7398117224322718 4.491006537074707 -1.452371899281637 -5.5940426031695765 -0.0047262000682590285 0.5281187991016648 0.24377256313298243 -2.7163061548891165 1.479164557021208 0.19392250994991145
4.398627281188965 -1.5822540722289027 1.7398346106158655 4.491030378932617 -1.4523604551898401 -5.594018999730245 -0.004701169645099397 0.5281098947151759 0.24373440986120423 -2.716322881826715 1.4793293460780272 0.19391733829333194
4.39866304397583 -1.582278390923971 1.7397869269000452 4.490982695216797 -1.4523361364947718 -5.5940426031695765 -0.004718166761568219 0.5281383679923285 0.24377717520390388 -2.7162704124270944 1.4791824863769234 0.1939819332495871
4.39866304397583 -1.582278390923971 1.7397754828082483 4.491018458003662 -1.4523842970477503 -5.5940426031695765 -0.004706758586388526 0.5281283404836582 0.24377712785998323 -2.716285501491842 1.4791960451894262 0.1939027582849289
4.398627281188965 -1.5823384724059046 1.7397640387164515 4.49104277669873 -1.4523842970477503 -5.594006840382711 -0.004690273340017974 0.5281210891652798 0.24381014498468134 -2.716193225251798 1.4792670638497227 0.19391336752373906
4.39866304397583 -1.5823022327818812 1.7397993246661585 4.491018458003662 -1.452371899281637 -5.593994919453756 -0.004713320252084841 0.5281197702439623 0.24377742452605394 -2.716254084602183 1.4792621835583264 0.19392348617390043
4.398651123046875 -1.582266469995016 1.7397869269000452 4.491030378932617 -1.452371899281637 -5.594066683446066 -0.004705834621793246 0.528123444819627 0.24376436579811034 -2.7163232526944183 1.4791981586701075 0.19391246062160777
4.398674964904785 -1.582266469995016 1.7397506872760218 4.491018458003662 -1.4523604551898401 -5.594090525303976 -0.004716689408660178 0.5281393876602785 0.24378449353292475 -2.7163196213006 1.4791066579426317 0.19394080253565457
4.39863920211792 -1.582278390923971 1.7397640387164515 4.491030378932617 -1.4523480574237269 -5.594006840382711 -0.004703977761338771 0.528132140134026 0.24378271330912687 -2.71624622384652 1.479277746772776 0.1939585277446385
4.39863920211792 -1.5822903118529261 1.7397754828082483 4.491030378932617 -1.452371899281637 -5.5940545240985315 -0.004698920404602002 0.5281254072807056 0.24378210273227868 -2.716276064623046 1.4792112771269867 0.19392040589060905
4.39868688583374 -1.582278390923971 1.7397640387164515 4.491054220790527 -1.4523480574237269 -5.5940426031695765 -0.004731225994672201 0.5281255153696613 0.24377989079341766 -2.7163283709115866 1.4791781003690019 0.19395359073395974
4.398674964904785 -1.5823022327818812 1.7397754828082483 4.491030378932617 -1.4523604551898401 -5.594030682240621 -0.004721265325350778 0.5281253106442167 0.2437884571639141 -2.7162793205773044 1.4791902102166432 0.19394279032057693
4.398698806762695 -1.582266469995016 1.7397869269000452 4.490982695216797 -1.4524081389056605 -5.594030682240621 -0.004716889964029226 0.5281328789994255 0.24376880453339841 -2.7162929222381713 1.4791579458938284 0.19387084347612954
4.39868688583374 -1.582278390923971 1.7397506872760218 4.491018458003662 -1.4524081389056605 -5.593994919453756 -0.0047101308662338 0.5281342787238642 0.24378887978024616 -2.7162484858650964 1.479216689164294 0.19387448731927007
4.39866304397583 -1.5823022327818812 1.739739243184225 4.491030378932617 -1.4523842970477503 -5.593994919453756 -0.004704530949776757 0.5281351630425017 0.24380599939844064 -2.7162126058970926 1.4792355116164424 0.19391533761292465
4.398674964904785 -1.5823141537108363 1.7397869269000452 4.491030378932617 -1.452371899281637 -5.594018999730245 -0.004719627992284448 0.5281196524761045 0.24378825928255526 -2.7162697062799026 1.4792061102871403 0.19392582088966925
4.398651123046875 -1.5822903118529261 1.7397754828082483 4.491018458003662 -1.4523604551898401 -5.594030682240621 -0.004707340722176023 0.5281295430276615 0.24378389507194437 -2.7162604506437167 1.4792218552427432 0.1939419183243775
4.398651123046875 -1.5822903118529261 1.7397506872760218 4.490994616145752 -1.4523604551898401 -5.5940426031695765 -0.004702633581085804 0.5281440592923421 0.2437992636020235 -2.716228173699421 1.4791782305132386 0.19395242770170837
4.39868688583374 -1.5823022327818812 1.7397506872760218 4.49104277669873 -1.4523962179767054 -5.594066683446066 -0.0047161268977732335 0.5281269436675737 0.24379834436815276 -2.7162993505770507 1.4791175386095898 0.1938899667378869
4.398651123046875 -1.582278390923971 1.7397869269000452 4.491030378932617 -1.4523480574237269 -5.5940426031695765 -0.004712712474944258 0.5281245914555911 0.24377113302171957 -2.716299302059183 1.4792249888140685 0.19395250621036011
4.39866304397583 -1.5822903118529261 1.7397993246661585 4.491054220790527 -1.4523604551898401 -5.594018999730245 -0.004719274584266917 0.5281120823093121 0.24376759859242117 -2.7163114435389573 1.47925544563814 0.19392936355275472
4.398674964904785 -1.5823022327818812 1.739739243184225 4.491018458003662 -1.4523604551898401 -5.594006840382711 -0.004716371789493388 0.5281403730803624 0.24380820462559705 -2.7162228513295887 1.479196513977237 0.19395450253600266
4.398651123046875 -1.5823022327818812 1.7397506872760218 4.491018458003662 -1.452371899281637 -5.594030682240621 -0.004701842130094712 0.5281357474965277 0.2438020332106801 -2.7162286549440484 1.4792014570040417 0.1939326650574596
4.398651123046875 -1.5822903118529261 1.7397869269000452 4.491006537074707 -1.4523842970477503 -5.594006840382711 -0.004700950177411831 0.5281269301559962 0.24377872243889373 -2.716241211038615 1.4792545458085327 0.19390643318620238
4.39866304397583 -1.5822903118529261 1.7397993246661585 4.491030378932617 -1.4523962179767054 -5.594078604375021 -0.004707343345241402 0.5281153825023266 0.2437692303883942 -2.7163288059048782 1.4791593496832744 0.19387783079607454
4.39868688583374 -1.582278390923971 1.7397754828082483 4.490994616145752 -1.452371899281637 -5.594066683446066 -0.004720705512173462 0.528135702398395 0.2437803632694205 -2.7163024388938486 1.4791176400736858 0.19392709313027004
4.398627281188965 -1.5823022327818812 1.7397640387164515 4.49104277669873 -1.4523842970477503 -5.594030682240621 -0.00468935946478753 0.5281238867730316 0.24379198586487416 -2.7162397715394517 1.4792541321509756 0.1939043356416392
4.39866304397583 -1.582266469995016 1.7397993246661585 4.491006537074707 -1.452371899281637 -5.5940545240985315 -0.004711386305717788 0.5281257299029318 0.24376091562788754 -2.7163148890704485 1.4791927113373942 0.19391593417470576
4.39863920211792 -1.5823022327818812 1.7397754828082483 4.491030378932617 -1.4523480574237269 -5.594006840382711 -0.004705798318001284 0.5281265537708958 0.24378886997750152 -2.716235908518278 1.4792708443042566 0.19396132006429986
4.398698806762695 -1.5822540722289027 1.7397993246661585 4.490982695216797 -1.4523480574237269 -5.5940426031695765 -0.0047344737520626234 0.5281349838014744 0.2437583195328494 -2.716328087360051 1.479155308971445 0.19395675104924226
4.39866304397583 -1.5823141537108363 1.7397506872760218 4.491030378932617 -1.452371899281637 -5.594006840382711 -0.004709471114760343 0.5281315712621573 0.24380659526941934 -2.7162217067789074 1.479218726694878 0.1939339766791453
4.39866304397583 -1.5822903118529261 1.7397640387164515 4.49104277669873 -1.4523842970477503 -5.594006840382711 -0.004707946104187351 0.528124638870437 0.24378601244688994 -2.71626167604093 1.4792462873081007 0.19390384594014579
4.398674964904785 -1.582266469995016 1.7397754828082483 4.49104277669873 -1.452371899281637 -5.594006840382711 -0.004718280492897523 0.5281237509419787 0.24376868822579797 -2.7163018208213394 1.4792500627057872 0.19391531403572024
4.398674964904785 -1.582266469995016 1.7397506872760218 4.49104277669873 -1.452371899281637 -5.594006840382711 -0.0047156385420091766 0.5281318679980562 0.24378123345613428 -2.716281156209889 1.47923631382057 0.1939208887737227
4.398627281188965 -1.582278390923971 1.7397869269000452 4.491054220790527 -1.4523480574237269 -5.5940426031695765 -0.004702186339271339 0.5281183038661506 0.2437683106599281 -2.7163001998154575 1.4792700225509428 0.1939462551186532
4.398674964904785 -1.5823265514769496 1.7397993246661585 4.491030378932617 -1.4523480574237269 -5.594030682240621 -0.004727838902838477 0.5281167035103052 0.24378899260444245 -2.7162802451427748 1.4791899452887711 0.19396187144676125
4.39863920211792 -1.5822903118529261 1.7397869269000452 4.49104277669873 -1.452371899281637 -5.594018999730245 -0.004701213815789361 0.5281183331448065 0.24377484487280254 -2.7162715059028923 1.479273833274291 0.19391634500641886
4.39866304397583 -1.5823265514769496 1.7397640387164515 4.49104277669873 -1.452371899281637 -5.5940426031695765 -0.004712280077435517 0.5281229159722657 0.2438045843292732 -2.7162573578920886 1.4791765753812285 0.19392965328580353
4.39866304397583 -1.5822540722289027 1.7397993246661585 4.491018458003662 -1.4523480574237269 -5.594030682240621 -0.004718683824631115 0.5281255529918727 0.24375408593966 -2.716321250814622 1.479239394388889 0.1939478112943754
4.398674964904785 -1.582266469995016 1.7397869269000452 4.49104277669873 -1.452371899281637 -5.594030682240621 -0.004719499887161067 0.5281200045086015 0.24376289819087787 -2.716327727760545 1.479223338697409 0.1939118649162212
4.39868688583374 -1.5822903118529261 1.7397640387164515 4.491006537074707 -1.452371899281637 -5.594018999730245 -0.004720819189582176 0.5281353286393625 0.24379071570393487 -2.7162601364651415 1.4791774798467667 0.1939314156287005
4.39863920211792 -1.582278390923971 1.7398117224322718 4.491030378932617 -1.4523604551898401 -5.594030682240621 -0.004705638835857999 0.528115455757081 0.2437581750982714 -2.716301028108893 1.4792710908683266 0.19392796409736607
4.39866304397583 -1.5822540722289027 1.7398117224322718 4.491018458003662 -1.4523842970477503 -5.594030682240621 -0.004710007289935977 0.5281183531459512 0.24374660690595668 -2.7163277696313615 1.479246186180617 0.19388957718856314
4.39868688583374 -1.5823022327818812 1.7397869269000452 4.491006537074707 -1.4523842970477503 -5.594018999730245 -0.004720137956019927 0.5281258416350142 0.24378469588479984 -2.7162679798910405 1.4791835194000489 0.1939099845418489
4.39863920211792 -1.582278390923971 1.7397869269000452 4.491054220790527 -1.4523604551898401 -5.594030682240621 -0.004705061778713274 0.528117173131898 0.24376789784437858 -2.7163001600839816 1.4792706831804174 0.19392816254551098
4.398651123046875 -1.5822903118529261 1.739739243184225 4.491054220790527 -1.452371899281637 -5.594030682240621 -0.004703419876561704 0.5281308142522044 0.24379761580036474 -2.716258738964087 1.4792217469939664 0.1939244924011325
4.39863920211792 -1.582266469995016 1.7397869269000452 4.490994616145752 -1.4523962179767054 -5.594018999730245 -0.004689732097285095 0.5281309926375148 0.2437677899820143 -2.716248810314646 1.479260076842891 0.19388463106407244
4.398674964904785 -1.582278390923971 1.7397869269000452 4.490994616145752 -1.452371899281637 -5.594018999730245 -0.004715628996555209 0.5281320123304301 0.24377457303207764 -2.7162697909314173 1.4792059700507032 0.19392583652580733
4.39866304397583 -1.582278390923971 1.7397640387164515 4.491006537074707 -1.4523842970477503 -5.594030682240621 -0.004704506662450213 0.5281352866268766 0.24378432942504005 -2.716257880908921 1.4791995638578561 0.1939084572454277
4.398674964904785 -1.582266469995016 1.7397640387164515 4.491030378932617 -1.452371899281637 -5.5940426031695765 -0.00471598730688675 0.5281308252454476 0.24377594599307623 -2.716306542690801 1.4791871755879924 0.19391936748349364
4.39866304397583 -1.5823022327818812 1.7397506872760218 4.491018458003662 -1.4523480574237269 -5.5940426031695765 -0.0047147154230263045 0.5281377578023022 0.24380282704123074 -2.7162487975933747 1.479169129433451 0.19396914222185946
4.39863920211792 -1.5822903118529261 1.7397869269000452 4.491006537074707 -1.4524081389056605 -5.594018999730245 -0.0046880770244068 0.5281249195566787 0.24377792885529764 -2.7162376006496767 1.479253473051004 0.19386906967856538
4.39868688583374 -1.5822903118529261 1.739739243184225 4.491018458003662 -1.4523480574237269 -5.594006840382711 -0.0047257874201493445 0.5281423115914544 0.24380264383722752 -2.716243532014845 1.479187319674249 0.19397122684035517
4.398674964904785 -1.5822903118529261 1.7398117224322718 4.491030378932617 -1.4523480574237269 -5.594018999730245 -0.0047282464003583526 0.528115441820266 0.24376456118823595 -2.716312733276303 1.479233160783538 0.1939513589616432
4.39866304397583 -1.582266469995016 1.7397754828082483 4.49104277669873 -1.4523962179767054 -5.594006840382711 -0.004705275799735892 0.5281216993470569 0.24376787868207725 -2.716289811792639 1.4792658533099146 0.19387766831042022
4.39863920211792 -1.582266469995016 1.7397993246661585 4.491030378932617 -1.4523604551898401 -5.594018999730245 -0.004704017203239624 0.5281204342184341 0.24375847428898326 -2.7162926011093305 1.4792870443126023 0.19392849784718644
4.398651123046875 -1.582278390923971 1.7397506872760218 4.490994616145752 -1.4523962179767054 -5.594018999730245 -0.0046924668864227 0.5281418797852875 0.24379209940012528 -2.7162181304915407 1.4792175132393535 0.19389589904491564
4.39863920211792 -1.582278390923971 1.7398231665240687 4.490982695216797 -1.452371899281637 -5.594030682240621 -0.004699570739012469 0.5281235169557472 0.24375764881810968 -2.716269768331966 1.479250727853503 0.19391863245729313
4.398651123046875 -1.582278390923971 1.7397993246661585 4.491030378932617 -1.4523361364947718 -5.5940545240985315 -0.00471732225758926 0.5281215661395829 0.24376525742085628 -2.716319072987819 1.4792153553915137 0.19396752048152544
4.39863920211792 -1.582266469995016 1.7397869269000452 4.490982695216797 -1.4523842970477503 -5.594006840382711 -0.004691988172292948 0.5281352258108112 0.24376959811702978 -2.7162318181889713 1.47927029805703 0.1939060049836199
4.39866304397583 -1.5822903118529261 1.7397506872760218 4.491030378932617 -1.452371899281637 -5.594018999730245 -0.004708869950096731 0.5281334118050854 0.2437946482528359 -2.7162499080728817 1.4792151093833443 0.19392816383328282
4.39863920211792 -1.5822903118529261 1.7397754828082483 4.491054220790527 -1.4523842970477503 -5.5940426031695765 -0.004697565419393581 0.5281179328598126 0.2437788674824012 -2.716286372056906 1.4792411249406052 0.19389650096282332
4.39866304397583 -1.5822903118529261 1.7397640387164515 4.490994616145752 -1.4523604551898401 -5.594030682240621 -0.0047103521029159285 0.528139632756721 0.24379250816116646 -2.7162405655406103 1.4791863224773145 0.19395030464139357
4.398627281188965 -1.5822903118529261 1.7397869269000452 4.49104277669873 -1.4523361364947718 -5.594018999730245 -0.004704784147927197 0.5281214891702035 0.2437760356871228 -2.7162658194594695 1.4792897597019872 0.19397062377893187
4.398674964904785 -1.582278390923971 1.7397754828082483 4.491018458003662 -1.452371899281637 -5.594006840382711 -0.004716474639794622 0.5281293588464013 0.24377754058867973 -2.7162717017884552 1.4792298308190117 0.1939234806779695
4.39866304397583 -1.582278390923971 1.7398346106158655 4.491018458003662 -1.452371899281637 -5.594030682240621 -0.004716479338917192 0.5281100583589923 0.24374762524535137 -2.7163278992702016 1.4792453931762106 0.19390887312660107
4.39866304397583 -1.582266469995016 1.7398231665240687 4.491006537074707 -1.452371899281637 -5.594066683446066 -0.004713926883788362 0.5281179246162946 0.24374885305801317 -2.7163431073245046 1.4791890654719628 0.19391012802474095
4.398674964904785 -1.582278390923971 1.7397869269000452 4.491054220790527 -1.4523962179767054 -5.594018999730245 -0.0047140825622202474 0.5281139049273907 0.2437667072788078 -2.7163167229939953 1.47923926713949 0.19387518884011337
4.39866304397583 -1.5822903118529261 1.7397869269000452 4.491018458003662 -1.4523842970477503 -5.594018999730245 -0.004708278480835484 0.5281236741840911 0.24377731111657203 -2.7162689069889603 1.479228505385605 0.19390373650141277
4.398651123046875 -1.5822903118529261 1.7397754828082483 4.491018458003662 -1.4523604551898401 -5.5940426031695765 -0.004707340722176023 0.5281295430276615 0.24378389507194437 -2.7162686351268137 1.4792053206995317 0.19394147971079065
4.398651123046875 -1.582278390923971 1.7397993246661585 4.490994616145752 -1.4523480574237269 -5.594006840382711 -0.004710935820470101 0.5281301325804072 0.24376909415959125 -2.716255385817896 1.479261454939201 0.19395909729210836
4.398651123046875 -1.5822903118529261 1.739739243184225 4.491018458003662 -1.4524081389056605 -5.594006840382711 -0.00469032450032056 0.5281372727201183 0.24380064369834842 -2.7162088595003855 1.4792347232564478 0.19387798793132846
4.39863920211792 -1.5822540722289027 1.7397993246661585 4.4910546976276855 -1.452371899281637 -5.593971077595846 -0.004702654223818579 0.52811387083365 0.24374900242746833 -2.716289007627924 1.4793739852886076 0.19390447504940986
4.398651123046875 -1.5822426281371058 1.739739243184225 4.491030378932617 -1.4523842970477503 -5.594018999730245 -0.0046967322969644065 0.5281398198847495 0.24377613147592744 -2.7162693225807275 1.479251077131585 0.19390059915730695
4.398651123046875 -1.582266469995016 1.7397506872760218 4.491054220790527 -1.4523962179767054 -5.594018999730245 -0.004697329234583195 0.5281268004911139 0.2437790691204609 -2.7162775489420223 1.479257489179383 0.19387977709900373
4.39866304397583 -1.5822540722289027 1.7397754828082483 4.491090460414551 -1.4523962179767054 -5.5940545240985315 -0.0047090936380018295 0.5281098559863957 0.24375602211019745 -2.7163724687634496 1.479233284056877 0.19386237432592698
4.39863920211792 -1.5822903118529261 1.7398231665240687 4.491090460414551 -1.4523604551898401 -5.5940426031695765 -0.004712363397551385 0.5280946616351236 0.24375124671280302 -2.716358711133304 1.4792878984212714 0.19391409082611286
4.39863920211792 -1.5823022327818812 1.7397506872760218 4.491018458003662 -1.4523842970477503 -5.594018999730245 -0.00469212602005142 0.5281347288968431 0.24380162048362042 -2.716209879962526 1.4792334787701429 0.19391368818252522
4.398651123046875 -1.5822540722289027 1.7397869269000452 4.491054220790527 -1.452371899281637 -5.594006840382711 -0.004707587367240277 0.5281180015018349 0.24375533126217208 -2.716312285312226 1.4793013934537527 0.19390649437122282
4.39863920211792 -1.582278390923971 1.739739243184225 4.491066618556641 -1.4523962179767054 -5.593982998524801 -0.004691188487111059 0.5281263546579209 0.24378936503361406 -2.7162342107404673 1.4793172369218057 0.19388312274331554
4.39866304397583 -1.582266469995016 1.7398117224322718 4.491078539485596 -1.452371899281637 -5.594018999730245 -0.004718944137260506 0.5281023432158733 0.24374612028052348 -2.71636061695357 1.4792891499024339 0.19389821757135592
4.398627281188965 -1.582278390923971 1.7397869269000452 4.491090460414551 -1.4523962179767054 -5.5940426031695765 -0.004692039495001842 0.5281044012381086 0.24376241759136177 -2.7163252235375532 1.4792901916166592 0.19386439863443605
4.39863920211792 -1.5822903118529261 1.7397869269000452 4.491066618556641 -1.452371899281637 -5.594042364750997 -0.004703279083245382 0.528111933301284 0.24377202251272148 -2.7163073447897235 1.4792547667182765 0.19391011092233554
4.398627281188965 -1.5822540722289027 1.7397869269000452 4.491066618556641 -1.4523842970477503 -5.594006721173422 -0.004692649838258955 0.528113710919122 0.24375345105020021 -2.7163022936917596 1.4793401601498897 0.19388385881229156
4.39866304397583 -1.582278390923971 1.7397993246661585 4.491078539485596 -1.4523842970477503 -5.594042543564932 -0.004714503181522851 0.528104407689329 0.2437579530336277 -2.7163552187241224 1.4792429663638509 0.193883854269411
4.398674964904785 -1.5822903118529261 1.739739243184225 4.491054220790527 -1.452371899281637 -5.594042543564932 -0.004716011495033472 0.5281307019637892 0.24379761580036474 -2.716285780420661 1.4791736032447307 0.19392493321718662
4.39863920211792 -1.582278390923971 1.7397640387164515 4.49104277669873 -1.4523962179767054 -5.594030622635977 -0.004691765401325626 0.5281246377224965 0.24377964220428952 -2.7162677782471274 1.4792515897697143 0.1938811727747666
4.398674964904785 -1.582266469995016 1.7397754828082483 4.491078539485596 -1.4524081389056605 -5.594018940125601 -0.004711380369356097 0.5281110100222789 0.24376324855090734 -2.7163360090322684 1.4792532079984173 0.19385135790316685
4.398651123046875 -1.582278390923971 1.7397869269000452 4.491114302272461 -1.4523480574237269 -5.594054464493887 -0.004719982018718006 0.5281020637060009 0.2437611990193203 -2.7163771296144157 1.4792554986060207 0.19393315063692693
4.398651123046875 -1.5822540722289027 1.7397754828082483 4.491078539485596 -1.452371899281637 -5.593994859849111 -0.004708474384447882 0.5281152200238817 0.24375824265423832 -2.7163147140807102 1.479325273515033 0.19390402359017833
4.398651123046875 -1.582278390923971 1.7397869269000452 4.491090460414551 -1.4523842970477503 -5.593982998524801 -0.00470791917672376 0.5281053225177108 0.24376281440667916 -2.716304450647323 1.4793412004458963 0.19388570235652824
4.39868688583374 -1.582278390923971 1.7398231665240687 4.491078539485596 -1.4523842970477503 -5.594018999730245 -0.004729634583528899 0.5280964897235727 0.24374589084930462 -2.7163778219807937 1.4792571497102727 0.19388023357431852
4.398615837097168 -1.5822903118529261 1.7397993246661585 4.491054220790527 -1.4523842970477503 -5.5940426031695765 -0.004687766745062084 0.528110237717348 0.2437668048409899 -2.7162877213886834 1.4792854032534177 0.19389028302934297
4.398651123046875 -1.582278390923971 1.7397869269000452 4.491102381343506 -1.4523361364947718 -5.593971077595846 -0.004722238073528846 0.5281062970039703 0.2437630069595224 -2.7163112314387634 1.479364517824803 0.19395713866557832
4.39866304397583 -1.5822426281371058 1.7398231665240687 4.491066618556641 -1.4523480574237269 -5.5940545240985315 -0.004725107757292402 0.528105702205124 0.2437305889935858 -2.7164070083855867 1.4792528532191718 0.19392814300973826
4.39866304397583 -1.582266469995016 1.7397640387164515 4.491066618556641 -1.4523604551898401 -5.594006840382711 -0.004715987618070749 0.5281221455179521 0.2437720369733024 -2.7163038349376705 1.4792729305677532 0.19392958219301323
4.39868688583374 -1.5822540722289027 1.7397993246661585 4.491102381343506 -1.452371899281637 -5.594018999730245 -0.0047319667019440625 0.528100845720482 0.24374335868213956 -2.7163993035982923 1.479270812264699 0.19389371309667533
4.398651123046875 -1.582278390923971 1.7397754828082483 4.491114302272461 -1.4523480574237269 -5.594006840382711 -0.004718762529406844 0.528105810128258 0.2437669888695814 -2.7163348935227143 1.4793152104491498 0.19393747130751446
4.398651123046875 -1.5822540722289027 1.7397754828082483 4.491090460414551 -1.4523962179767054 -5.594018999730245 -0.004702798077646316 0.5281099120856467 0.24375602211019745 -2.716338628197934 1.4792984047645763 0.1938632409090788
4.398651123046875 -1.582278390923971 1.7397640387164515 4.491102381343506 -1.4523842970477503 -5.594030682240621 -0.004706512840953629 0.5281096152838687 0.24377298323146016 -2.7163280147206574 1.4792690406207067 0.1938864088877071
4.398651123046875 -1.5822426281371058 1.7397993246661585 4.491114302272461 -1.4523604551898401 -5.5940426031695765 -0.00471698175914286 0.5280996893106665 0.243736594714957 -2.7164077932788597 1.4792986689352012 0.19390378230897148
4.39863920211792 -1.5822903118529261 1.7397993246661585 4.491102381343506 -1.452371899281637 -5.594030682240621 -0.00470769818366399 0.5280982748152533 0.24376151689294628 -2.7163393506512197 1.4792978574035265 0.1938996902834418
4.39868688583374 -1.5822903118529261 1.7397640387164515 4.491078539485596 -1.4523480574237269 -5.594030682240621 -0.004733632735522426 0.5281180674010807 0.24378298530067727 -2.7163304526929846 1.4792016194945907 0.19395122837315448
4.398674964904785 -1.5822903118529261 1.7397754828082483 4.491114302272461 -1.4523480574237269 -5.594030682240621 -0.004731654010311871 0.5281047775464771 0.24377296201047613 -2.7163602358911536 1.4792438235771437 0.1939401540056457
4.39868688583374 -1.5822903118529261 1.7397754828082483 4.491078539485596 -1.4523242155658167 -5.5940426031695765 -0.004741429469075456 0.5281163874053498 0.24377798924366084 -2.716350683172905 1.4791914841775193 0.19398469589240191
4.39868688583374 -1.5822903118529261 1.7397993246661585 4.491066618556641 -1.4523480574237269 -5.594030682240621 -0.004736359813873981 0.5281097161367607 0.24376654384489133 -2.7163499617887625 1.4792145146850235 0.1939459835910853
4.398723125457764 -1.5823141537108363 1.7398117224322718 4.491078539485596 -1.4523604551898401 -5.5940426031695765 -0.0047550319940427 0.5280993712349156 0.2437703937317205 -2.716385943756955 1.4791500752079416 0.19392779854529413
4.39868688583374 -1.582278390923971 1.7397640387164515 4.491066618556641 -1.4523480574237269 -5.594030682240621 -0.004732299769678509 0.5281221874168127 0.24377842314861128 -2.7163304809104165 1.479201572747935 0.19395123358291552
4.39866304397583 -1.5822903118529261 1.739739243184225 4.491090460414551 -1.4523242155658167 -5.594018999730245 -0.004726009419528977 0.5281251633155873 0.24379491334019252 -2.7162952759119765 1.4792424911413415 0.19399014575391654
4.39868688583374 -1.5823022327818812 1.7397869269000452 4.49104277669873 -1.4523122946368616 -5.594030682240621 -0.0047431405508199555 0.5281223540305678 0.2437828030901224 -2.7163136695422163 1.4791877552153527 0.19401154605965773
4.398746967315674 -1.5823141537108363 1.7397506872760218 4.49104277669873 -1.4523361364947718 -5.593982998524801 -0.004764733594978365 0.52813094501389 0.24380631817719972 -2.7162859186965598 1.4791472585758296 0.19398986352953843
4.398723125457764 -1.5823141537108363 1.7397993246661585 4.491054220790527 -1.4523361364947718 -5.594030682240621 -0.004758314261281808 0.5281120652164321 0.24378035484263225 -2.7163497938359105 1.4791461837702822 0.1939737156506359
4.398711204528809 -1.5823141537108363 1.7396915594684046 4.491054220790527 -1.4523361364947718 -5.5940426031695765 -0.004740538721912085 0.5281473969225106 0.24383488040877846 -2.7162587160992597 1.4790857409464733 0.19399706500165645
4.398735046386719 -1.5823742351927699 1.7398117224322718 4.491078539485596 -1.4523480574237269 -5.5940426031695765 -0.004766262077543012 0.5280957513991219 0.2438009107423963 -2.7163466665413654 1.4791008740961293 0.19396072753683974
4.398735046386719 -1.5823265514769496 1.739727799092428 4.491078539485596 -1.4523242155658167 -5.594066683446066 -0.004762698014913193 0.5281289697265871 0.24382027401420028 -2.716335470143172 1.479047487887242 0.1940044551865629
4.398746967315674 -1.5823022327818812 1.7397640387164515 4.491066618556641 -1.4523003737079065 -5.594030682240621 -0.004777786136227662 0.5281241936453267 0.2437919579944539 -2.7163632684977164 1.4791085671841613 0.19403176373564912
4.398758888244629 -1.5823384724059046 1.7397869269000452 4.491066618556641 -1.4523242155658167 -5.5940426031695765 -0.004780855677624471 0.5281117809308218 0.24379774217682065 -2.7163672896625615 1.4790686869464102 0.1939982961700745
4.398758888244629 -1.5823384724059046 1.7397640387164515 4.491054220790527 -1.4523361364947718 -5.594006840382711 -0.00477405548170156 0.5281215682329399 0.24381039353811174 -2.716312114379416 1.4790986373066042 0.19398931554352813
4.398782730102539 -1.5823623142638148 1.7397993246661585 4.491066618556641 -1.4523003737079065 -5.594006840382711 -0.004801945857509551 0.5281078334219351 0.24380420990589144 -2.716354625416283 1.4790802801653116 0.19403954466272616
4.398795127868652 -1.5823265514769496 1.7397640387164515 4.491066618556641 -1.4523242155658167 -5.594006840382711 -0.0047972561461300245 0.5281200200343301 0.24380334940137185 -2.7163623141041855 1.4790640523792333 0.19400340778098482
4.398770809173584 -1.58239807705068 1.7397754828082483 4.491054220790527 -1.4523361364947718 -5.5940426031695765 -0.004783072830941697 0.5281131625999047 0.2438344695189295 -2.7163060167364272 1.4790064141535788 0.1939992803113471
4.398758888244629 -1.5823742351927699 1.7397506872760218 4.49104277669873 -1.4523242155658167 -5.5940426031695765 -0.0047758330887814684 0.5281272815309003 0.2438368212545759 -2.7162875094531125 1.4790153815160942 0.1940198688857575
4.398795127868652 -1.5823623142638148 1.739727799092428 4.491054220790527 -1.4523242155658167 -5.594066683446066 -0.0047932250384873695 0.528132448520209 0.24384107383140022 -2.7163331143501916 1.4789341453932328 0.1940201993612343
4.398795127868652 -1.5823623142638148 1.7397506872760218 4.491066618556641 -1.4523122946368616 -5.594030682240621 -0.004800024637269969 0.5281226617042772 0.24382842182686107 -2.7163390279218764 1.4790037348329217 0.19403182169142544
4.398782730102539 -1.58239807705068 1.739739243184225 4.491054220790527 -1.4523480574237269 -5.5940426031695765 -0.004782220332210445 0.5281239341896247 0.24385240947374065 -2.7162840060789004 1.4789704492049525 0.19398962964824337
4.398782730102539 -1.5823742351927699 1.739727799092428 4.49104277669873 -1.4523480574237269 -5.5940545240985315 -0.004779409514051144 0.5281325934241522 0.24384760851112358 -2.7162930020920917 1.4789544127463046 0.193988977854374
4.398782730102539 -1.5824228725829066 1.739739243184225 4.491054220790527 -1.4523242155658167 -5.594006840382711 -0.004789423438363796 0.5281240841005619 0.24386562807061088 -2.716241320466218 1.4790063277284173 0.19403300546223853
4.398807048797607 -1.5824829540648402 1.7396915594684046 4.491054220790527 -1.4523361364947718 -5.594066683446066 -0.004795416956661674 0.5281338961945921 0.24391946624905247 -2.7162106407976743 1.478831155231764 0.19403769951234318
4.398807048797607 -1.582470556298727 1.739739243184225 4.491030378932617 -1.4523242155658167 -5.594078604375021 -0.004801405684957561 0.5281266822300462 0.24389234537820562 -2.716250346848344 1.478834630998391 0.19404736233463124
4.3988423347473145 -1.582470556298727 1.7397506872760218 4.491066618556641 -1.4523003737079065 -5.594030682240621 -0.0048309741720006846 0.5281151048566174 0.24388305625003145 -2.71628756102301 1.4788808691464324 0.1940761643613917
4.3988542556762695 -1.5825067959227503 1.7397640387164515 4.49104277669873 -1.4523122946368616 -5.594066683446066 -0.004834252768504363 0.5281132439743711 0.24389688549724708 -2.7162816135131567 1.478788991069058 0.19406756960708113
4.3988542556762695 -1.5824948749937953 1.7397506872760218 4.491054220790527 -1.4523242155658167 -5.594018999730245 -0.004830232351441113 0.5281144305165492 0.24389591589549808 -2.7162559326802245 1.478860728434301 0.19404883099346681
4.398902893066406 -1.582494398156637 1.7396915594684046 4.491030378932617 -1.4523003737079065 -5.5940426031695765 -0.004854127948458142 0.5281420457348581 0.24392921640645826 -2.716244507375584 1.4787175328856967 0.1941047981333975
4.399026393890381 -1.5825182400145472 1.7396677176104944 4.490982695216797 -1.4523242155658167 -5.594066683446066 -0.0049067159748351335 0.5281581355577055 0.2439580849493107 -2.7162770536343803 1.4784667838615058 0.19409349264397557
4.39927864074707 -1.5825182400145472 1.7396915594684046 4.491006537074707 -1.4522879759417933 -5.594066683446066 -0.005054536863441652 0.5281458129842064 0.24394440129900116 -2.7165203917539236 1.4781580963592187 0.19414752525769488
4.3996992111206055 -1.582494398156637 1.739727799092428 4.491006537074707 -1.4522879759417933 -5.594030682240621 -0.00527990611714196 0.5281336225920819 0.24391411482994896 -2.7168788867847393 1.4776822302095902 0.19415086281187713
4.400116920471191 -1.5825306377806605 1.7396915594684046 4.490933580989502 -1.452252213154928 -5.594090525303976 -0.005501161835046285 0.5281631049454478 0.24396045054850707 -2.717133432160567 1.476962906393501 0.19425167345714972
4.400547027587891 -1.5825425587096156 1.7396553198443812 4.490885420436523 -1.4522879759417933 -5.5940426031695765 -0.005710772397999884 0.5281814831404358 0.24398928210591864 -2.7173570703248857 1.4764037884923098 0.1942364774052499
4.4008307456970215 -1.5825544796385707 1.739654843007223 4.490849657649658 -1.4522879759417933 -5.5940426031695765 -0.00585779960693225 0.528188678725775 0.24399973700826863 -2.7175415188098393 1.4759996258130086 0.1942579216408957
4.400985240936279 -1.5825306377806605 1.7396915594684046 4.4907542902180175 -1.4522879759417933 -5.594018999730245 -0.005934487061639579 0.5282032045055423 0.24398051065025353 -2.7176188240392456 1.4758071871013114 0.19427246908096765
4.400994777679443 -1.5825063190855921 1.7396076361285608 4.490729971522949 -1.4522879759417933 -5.594006840382711 -0.005927951072323875 0.5282390380111355 0.24401368418807565 -2.717548110923811 1.4757648289062122 0.1942922876451201
4.400994300842285 -1.5825182400145472 1.7396672407733362 4.490706606502197 -1.4522879759417933 -5.594030682240621 -0.005932291193247636 0.5282248784146208 0.24399225971183391 -2.7175844196154126 1.475745706875262 0.19428589579428254
4.401018142700195 -1.5825063190855921 1.7395837942706507 4.490670843715332 -1.4522765318499964 -5.5940545240985315 -0.005935850330991983 0.5282635671504675 0.2440331459583201 -2.717531445647668 1.4756213878383075 0.19432770939484142
4.400959014892578 -1.582470556298727 1.7395599524127405 4.490622206325195 -1.4522283712970179 -5.5940426031695765 -0.0059103115425366195 0.528291695804539 0.2440346624842808 -2.71745114022188 1.4756961313057082 0.1944079429807777
4.400959014892578 -1.582482477227682 1.739596192036764 4.490609808559082 -1.4522765318499964 -5.5940545240985315 -0.0059000802212273926 0.528278095755998 0.24402215891087098 -2.717464167331022 1.4756860136704635 0.19433115408023288
4.400946617126465 -1.5824700794615687 1.739596192036764 4.490550203914307 -1.452264134083883 -5.594066683446066 -0.005891517956262299 0.5282962012187394 0.2440234276896409 -2.7174248094923423 1.475659235268505 0.1943599201217773
4.40093469619751 -1.582409997979635 1.7395713965045374 4.490550680751465 -1.4522164503680628 -5.594006840382711 -0.005894295483557957 0.5283130161078583 0.24400739464220428 -2.717409258897699 1.4757780902345443 0.19442652748085507
4.40093469619751 -1.5824343166747035 1.7396076361285608 4.490514441127441 -1.452264134083883 -5.594030682240621 -0.005882457746002233 0.5283048982771157 0.24400394993765784 -2.717400359114782 1.475731237069795 0.1943582441059098
4.400922775268555 -1.58239807705068 1.7395713965045374 4.490526838893555 -1.452264134083883 -5.5940426031695765 -0.005872483997122794 0.5283163100534164 0.2440026576723864 -2.717409367023944 1.4757375162935058 0.1943545325856404
4.4008989334106445 -1.5823737583556117 1.739535156880514 4.4905029970356445 -1.4522765318499964 -5.594030682240621 -0.005849972346598998 0.5283355328862984 0.2440112266382167 -2.71735125744278 1.4757658484964724 0.19434323006575058
4.400875091552734 -1.5823141537108363 1.7395599524127405 4.490526838893555 -1.452264134083883 -5.594018999730245 -0.005843975025805713 0.5283268342598424 0.24396638020410932 -2.717415868162563 1.4758738979654122 0.19433721391543002
4.4008989334106445 -1.5823141537108363 1.739596192036764 4.490549727077148 -1.4522765318499964 -5.5940545240985315 -0.005858949631102131 0.5283076161867382 0.24394490943385924 -2.7175069755336345 1.4758257190429915 0.1943044213085596
4.400875091552734 -1.5823503933348597 1.7395713965045374 4.490306540126465 -1.4523003737079065 -5.594030682240621 -0.005817146920730798 0.5283763178559656 0.2440036821774912 -2.717216318305825 1.4757207816159221 0.19433696867802244
4.4009108543396 -1.5823265514769496 1.7395833174334925 4.489844961757324 -1.452264134083883 -5.594018999730245 -0.005807029628302695 0.52850109680241 0.24404170079857643 -2.7168867506347625 1.4754514809676122 0.19449080657340898
4.400850772857666 -1.5823503933348597 1.739450756703512 4.489183111781738 -1.4523003737079065 -5.594018999730245 -0.005694962447751098 0.5287175062682807 0.2441982883306752 -2.7161550061914324 1.475074998557899 0.19461858088543676
4.400838375091553 -1.5823141537108363 1.7394278685199183 4.488438768977783 -1.4523003737079065 -5.593982998524801 -0.005621110927865781 0.5289276009512085 0.24428036657346242 -2.71551317322151 1.4747330644911678 0.19478516684935
4.400826930999756 -1.5823265514769496 1.7394030729876917 4.487499399776123 -1.4523122946368616 -5.594006840382711 -0.005528761696935799 0.5291857449436094 0.24441088833750632 -2.714707549808979 1.4741699358911267 0.19498672164673392
4.400803089141846 -1.5823384724059046 1.7393549124347132 4.4863197046467285 -1.4522879759417933 -5.593994919453756 -0.005416772249859833 0.529519050141755 0.24458329493953604 -2.713652716039675 1.4735259794483624 0.19530387887305037
4.400838375091553 -1.5823260746397914 1.7393181959735315 4.484598322505615 -1.4523122946368616 -5.594006840382711 -0.0052768487974269185 0.5299909390896596 0.24480161826601132 -2.712235193060162 1.4724879324247304 0.19566223662251353
4.400815010070801 -1.5822655163206996 1.7392714659320276 4.482404871577881 -1.4523122946368616 -5.5940426031695765 -0.005069937180591915 0.5305982512635431 0.24505951412787905 -2.710429487393651 1.4712524474275654 0.19615154385523545
4.400791168212891 -1.582205434838766 1.7392833868609827 4.479649706477783 -1.4522879759417933 -5.594018999730245 -0.004827744961841605 0.5313380741766776 0.24535824998228287 -2.7081669532860313 1.469818420952188 0.1967928812100544
4.400791168212891 -1.582132955590719 1.7392242590533655 4.476411505336426 -1.4523122946368616 -5.593994919453756 -0.004535955758905114 0.5322258317362214 0.24574655308257365 -2.705466732894537 1.4680519699800596 0.19748151865964161
4.400803089141846 -1.5821095905699671 1.7392237822162073 4.472539587611816 -1.4523242155658167 -5.593994919453756 -0.004207696642451011 0.5332592803024421 0.24621139853672902 -2.702274167456982 1.4658885247375244 0.19832646946468002
4.400803089141846 -1.582073827783102 1.7392471472369593 4.468056841487549 -1.4522879759417933 -5.594018999730245 -0.003837133513661148 0.5344508556936524 0.24673973643796882 -2.698615452127362 1.463387048523998 0.19936828383425742
4.400779724121094 -1.58201326946401 1.7392471472369593 4.462869806880615 -1.4523242155658167 -5.594006840382711 -0.0033718556797451248 0.5358304602354788 0.247359431548337 -2.694320002346555 1.4605763280851565 0.20045329885603091
4.400779724121094 -1.5819407902159632 1.7392471472369593 4.457246943111084 -1.4523242155658167 -5.593971077595846 -0.0028928714117980106 0.5373262288067534 0.24803727887332494 -2.6896772285203383 1.457531452067531 0.2016853230067083
4.40074348449707 -1.5818444691100062 1.7392357031451624 4.451037569636963 -1.4523122946368616 -5.593994919453756 -0.0023474976835984596 0.5389797918304672 0.24879374399704787 -2.684568509652905 1.4541333335479114 0.20305027226054287
4.40074348449707 -1.5817352734007777 1.739199463521139 4.444697542781494 -1.4522765318499964 -5.593982998524801 -0.0018157812823072945 0.5406740710974203 0.24958479011051654 -2.679346636375784 1.450658050354955 0.204480375426689
4.40074348449707 -1.581517835656637 1.7392471472369593 4.438397093410156 -1.4523003737079065 -5.593994919453756 -0.001278310265998995 0.5423300894311445 0.25027989603536277 -2.674325573627176 1.4472816013583951 0.20576177853673103
4.400755405426025 -1.5812403164305628 1.7392242590533655 4.432089491481445 -1.4522879759417933 -5.593982998524801 -0.0007493212171056762 0.5440140899799417 0.25099292855866895 -2.669285917616319 1.4439127964389193 0.20709804792246708
4.400731563568115 -1.5808788738646449 1.7392471472369593 4.426190538997314 -1.4523242155658167 -5.594006840382711 -0.00022550437375144956 0.5455751786518653 0.2515911367051479 -2.6646838462268434 1.440844111474809 0.2082331617700842
4.40074348449707 -1.5804325542845667 1.7392242590533655 4.42080466329541 -1.4523003737079065 -5.594006840382711 0.00022522335141053618 0.5470256812750554 0.25210882942377605 -2.660560264643221 1.4380669553302057 0.20933935321834266
4.400707721710205 -1.5798174343504847 1.7392833868609827 4.4165965753742675 -1.4523480574237269 -5.594006840382711 0.00061910239310645 0.5481493002132714 0.252336152042299 -2.657581682478454 1.436148892125659 0.21002413933963524
4.400695323944092 -1.5789233646788539 1.7392471472369593 4.413764639491699 -1.4523480574237269 -5.593994919453756 0.0008897434292739499 0.5489724301399295 0.25228099326791703 -2.6559199447988235 1.4350809638116975 0.2104476031203215
4.400683879852295 -1.5778137646117152 1.7392719427691858 4.412594481105469 -1.4523604551898401 -5.593971077595846 0.0010247226789610615 0.5493615496507989 0.25184969598740303 -2.6558665426926256 1.4351045749009823 0.21043857915379605
4.400659561157227 -1.576271196404928 1.7392719427691858 4.412799997920654 -1.4523480574237269 -5.594018999730245 0.00105984839248802 0.549439570331871 0.2510141415894987 -2.657342317349579 1.4360359488001442 0.21007694216804143
4.400683403015137 -1.574400087396139 1.739272419606344 4.412989779109619 -1.4523847738849085 -5.593994919453756 0.0010918259568605797 0.5495435358946563 0.25000684618350105 -2.6590633108528428 1.43717789741164 0.20958522089359813
4.400622844696045 -1.5720187626280726 1.739331070576803 4.413121386165283 -1.4524567762957972 -5.593994919453756 0.001191717841224623 0.5496808295137039 0.24870856235834882 -2.6611570585723157 1.438679852676789 0.20892085393051088
4.400538444519043 -1.569407401523069 1.7393682638751429 4.413440867061279 -1.452517334614889 -5.594006840382711 0.0012931623208419212 0.549792501758302 0.24727550890184358 -2.663572380695758 1.4404158883924985 0.20818413603651165
4.400418281555176 -1.5665605736761172 1.7393439451800745 4.414267225856445 -1.452590290700094 -5.593982998524801 0.0013866342958022693 0.5498056218524939 0.24568205101147023 -2.6665020267637187 1.4426260668127402 0.20728046573375716
4.400274276733398 -1.563459269968309 1.7394164244281214 4.415561838740967 -1.4527352491961878 -5.594030682240621 0.0014684814966471876 0.5496734083482112 0.24384033067782956 -2.6701351488043468 1.4452274522135884 0.2060815510369432
4.400155544281006 -1.5602514392561098 1.73940354982485 4.41755644857373 -1.4530137220965784 -5.593994919453756 0.0015240991192954356 0.5493761011553494 0.24189178242173254 -2.6743160937759067 1.4483158488638184 0.2045301295635984
4.400059700012207 -1.5568144789761682 1.739404026662008 4.420602484340332 -1.453362766896383 -5.593982998524801 0.0014995044125518994 0.5488012816610359 0.23967996207796313 -2.679599990502141 1.4520623699813007 0.2025836098381127
4.399977684020996 -1.5531865072301407 1.7394397894488733 4.424738569850586 -1.4537580649005335 -5.594030682240621 0.001385035295855758 0.5479266818530072 0.2372154858977337 -2.6860252492642487 1.4564406838130062 0.20026542924872287
4.399941921234131 -1.549330649232008 1.7394512335406702 4.429616613979004 -1.4540799299823206 -5.593958918248312 0.0011652829295221243 0.5468727805169167 0.2345654818692241 -2.693201011649753 1.4614448592968285 0.19784622218155296
4.399930477142334 -1.5451717723957081 1.7394397894488733 4.435089750880859 -1.4542701880084437 -5.593982998524801 0.0008490774024411014 0.5456844035251619 0.23171630063143628 -2.701202631655343 1.466769383749432 0.19541084344766643
4.399930000305176 -1.5407208681902667 1.73940354982485 4.441146059627197 -1.4544389883624476 -5.593982998524801 0.00047389234409055125 0.5443512003778499 0.22867828360169878 -2.7099039228765895 1.4725863643464017 0.19280015891262106
4.399893760681152 -1.5361624968102952 1.7394159475909632 4.447822733516357 -1.4547284285174769 -5.594018999730245 8.799428349569663e-05 0.5428103672440175 0.22550721134860813 -2.7192310036752216 1.4788344146461925 0.18980413634212884
4.399833679199219 -1.5313713376275082 1.7393673102008265 4.455235643977783 -1.455015007649557 -5.593958918248312 -0.00034587444281904134 0.5410830236382933 0.22219112503444136 -2.729224286802176 1.4857543557111674 0.18658074882242445
4.399774074554443 -1.526470286106207 1.739392105733053 4.462310953731201 -1.4551432768451136 -5.593946997319357 -0.0008089224170174415 0.5394164930655179 0.2188589260094544 -2.739134452311524 1.4925251567153475 0.18360670647942823
4.3997392654418945 -1.521319330935814 1.7393553892718714 4.4684387880512695 -1.455118481312887 -5.593971077595846 -0.0012414488643527795 0.5380316061308088 0.2155687786150794 -2.748469126394049 1.498796450904946 0.18102094292071913
4.399799346923828 -1.5161076498082657 1.7394159475909632 4.473191900844238 -1.455118481312887 -5.593958858643667 -0.0016149711697042123 0.5369659540679155 0.21237032535790357 2.7497476819259523 -1.500445393960138 -0.17820317148374415
4.39977502822876 -1.5107540351203461 1.7393553892718714 4.475911303157471 -1.4551428000079554 -5.593946878110067 -0.0017474587386914313 0.5364858504049476 0.2093848655108447 2.742608940744946 -1.497436159835159 -0.1753932143645712
4.3997626304626465 -1.5055454683354874 1.7393673102008265 4.47645823537793 -1.4551547209369105 -5.593934897576467 -0.0017136373959575346 0.5365551580739659 0.20666585669978546 2.7374725685051366 -1.4952577445688842 -0.17338708861017676
4.399726867675781 -1.500530557041504 1.7392810026751917 4.475729151363037 -1.4551666418658655 -5.593923036252157 -0.0015495984237900925 0.5369904169430787 0.2042202192277502 2.7337141512858034 -1.493707285063122 -0.17192631883408968
4.39971399307251 -1.4956357416561623 1.739150349293844 4.474581404323242 -1.4551666418658655 -5.593898896371023 -0.0013638033937609477 0.5375427276058722 0.2018955105936684 2.7304775180153937 -1.4923613112819116 -0.17068623118455564
4.399629592895508 -1.4909224596670647 1.7390425840960901 4.472867174739502 -1.4551432768451136 -5.593934837971823 -0.001103757868795522 0.5382285939673974 0.19970459818836236 2.7278776980729975 -1.4913073869146722 -0.16973558927047291
4.399472713470459 -1.486338810329773 1.7389586607562464 4.470247908229492 -1.4551785627948206 -5.593886975442068 -0.000715178254285187 0.5391370012229966 0.19764969605727617 2.726074143293823 -1.4908584220908618 -0.16904363614179385
4.399343013763428 -1.4819023472121735 1.7388609091388147 4.46638457357373 -1.4551547209369105 -5.593887035046713 -0.0002491684372748805 0.5403864454832014 0.195793472468592 2.725563116948899 -1.49083642213623 -0.16892340562675504
4.399247646331787 -1.4775746774724503 1.7386558691607874 4.46079079687085 -1.4551666418658655 -5.593935016785757 0.0003717983331946416 0.5421397887079725 0.19420495431712206 2.726854099840708 -1.4914502271709007 -0.1694154205234811
4.399212837219238 -1.4735070329955597 1.7384780089007776 4.453303022975586 -1.4551904837237757 -5.5938990155803126 0.0011236449640088589 0.544389870294723 0.19291812047911616 2.7300155367348196 -1.4929052343056302 -0.17061492354786875
4.399224758148193 -1.4697537657669564 1.7382963339435022 4.444059534663818 -1.4551785627948206 -5.5938870946513575 0.001991086119991683 0.5471119826735134 0.19197158415835677 2.7350644587707804 -1.4950486461183086 -0.1725835312109626
4.399189472198486 -1.466263936167099 1.7381303946124476 4.432918234462402 -1.4551666418658655 -5.593958858643667 0.0030451966950072254 0.5503338260445536 0.19135395987392886 2.7420550246918634 -1.49795978120001 -0.1753004908813179
4.399201393127441 -1.4630554628423234 1.737988297139303 4.41949908315625 -1.4551904837237757 -5.593899075184957 0.004274991951532553 0.5541489119091307 0.19112504338492217 2.751236601755924 -1.501945607429762 -0.1788511959059583
4.399236679077148 -1.460070588891842 1.7379162947284144 4.4048401552387695 -1.4551428000079554 -5.593935076390402 0.005565218094500432 0.5582612372157714 0.19114549832543112 -2.7450373490221733 1.4971734612424983 0.18191189242312245
4.399236679077148 -1.457277850513794 1.7378442923175257 4.388316317195557 -1.4551428000079554 -5.593887154256002 0.007043076735888772 0.5628515886205532 0.19151379075723896 -2.7335516006285485 1.4895232635771825 0.18512421042617286
4.399249076843262 -1.4547905039838334 1.737830940877096 4.371071024531982 -1.455130402241842 -5.593899075184957 0.00855522649343797 0.5675835597371611 0.19215518580009003 -2.7213050215879977 1.4812421246982912 0.1885420040686107
4.399249076843262 -1.4525650230101128 1.7377851645099085 4.352648897761963 -1.4550707975970667 -5.593935076390402 0.010155086768370541 0.5726121364123198 0.19316011198122554 -2.7078363863148462 1.4721350509931186 0.1923230914654426
4.399260997772217 -1.4507631447962304 1.7377484480487269 4.3342858987995605 -1.455106560383932 -5.593946997319357 0.011753281514299005 0.5775684680348768 0.19445685561598958 -2.6940418290166988 1.462860700361156 0.19599215857732932
4.399249076843262 -1.4492440831712265 1.7376883665667933 4.315249605769775 -1.455118481312887 -5.593946997319357 0.01340414858886664 0.5826693585159224 0.1960880310586365 -2.6793945126956387 1.4531027633663758 0.1998640029510621
4.399236679077148 -1.4480412316373368 1.737687889729635 4.2964417177387695 -1.4550583998309534 -5.593910996113912 0.01499270115170531 0.5876448734275621 0.19792305005890642 -2.6646949864305824 1.4433893025189055 0.20379943522851376
4.399260997772217 -1.4471706983498116 1.7375319639789026 4.277639551753662 -1.455106560383932 -5.593946997319357 0.01659026550038291 0.5926148821342482 0.20010771788924392 -2.6496423477912376 1.4332814370468567 0.20761951976179457
4.399260997772217 -1.4466369685581704 1.7375934759723108 4.259160681361816 -1.4550827185260218 -5.593971077595846 0.018111191595822473 0.5973719986061922 0.20241628885504975 -2.6347291102382755 1.4233441948924084 0.21144764519064915
4.399236679077148 -1.4464268770864983 1.7376044432269495 4.2421533304401855 -1.4550583998309534 -5.593935076390402 0.019513709018222823 0.6017160899366308 0.20480379354619502 -2.620662330152527 1.4141385830961726 0.21499836462237135
4.39923620223999 -1.4464398187449952 1.7375572363482874 4.2256805139729 -1.4550827185260218 -5.593923155461447 0.020862743443107547 0.6058933893943617 0.2073432054825314 -2.6068234613400674 1.4050250583950419 0.21837921394316193
4.3992133140563965 -1.4464282032898446 1.737532917653219 4.210949106807373 -1.4550707975970667 -5.593899075184957 0.02206062115202663 0.609592095041504 0.20965324761281084 -2.594452654792988 1.3969495662995073 0.22140528165523668
4.399224758148193 -1.446427197461464 1.7375572363482874 4.197160883540771 -1.4550827185260218 -5.593971077595846 0.023152895349198968 0.6130060514786048 0.21184674595073308 -2.5829797753072503 1.3892541005875791 0.22415563751250878
4.3992133140563965 -1.4464275774410744 1.7375457922564905 4.185851736659668 -1.4550707975970667 -5.593946997319357 0.02405196471910908 0.6157967783550723 0.21370096451112902 -2.5734715400965413 1.383063859921697 0.22643611268135772
4.399189472198486 -1.446403646176197 1.7375457922564905 4.1765476900288085 -1.4550827185260218 -5.593946997319357 0.024801011038194903 0.6180734508003218 0.2152309700058187 -2.565672470009308 1.3779873266432214 0.2282535726788378
4.399189472198486 -1.4463797074607392 1.7375572363482874 4.169477148646973 -1.4550707975970667 -5.593923155461447 0.02534904621395116 0.619792869411088 0.21639943953711313 -2.5597598742824537 1.3741469814017557 0.22965961754257216
4.399153709411621 -1.4463917550495644 1.737520996724264 4.165627642268799 -1.4550707975970667 -5.593935076390402 0.025674728134459125 0.6207377706261168 0.21707890613628222 -2.5564712892683326 1.372032748287448 0.23041517616973162
4.399177074432373 -1.4463678014329453 1.7375686804400843 4.165275736446045 -1.4550707975970667 -5.593910996113912 0.025682558666748033 0.6208081779856842 0.21709837326158712 -2.5562386252541716 1.3718807303139025 0.23047839918938967
4.399189472198486 -1.446403668527939 1.7376177946673792 4.166845007533691 -1.4551308790790003 -5.593946997319357 0.025563371863764783 0.6204043393844088 0.2168245819333885 -2.5575883989440493 1.3726956605443081 0.23007823922768825
4.399165630340576 -1.446355478172638 1.7375572363482874 4.169659777278564 -1.455118481312887 -5.593923155461447 0.025363248917464967 0.6197453005436945 0.21635259942312157 -2.559908091407112 1.374296291343221 0.22954639667157187
4.399153709411621 -1.4463557761958619 1.7376411596881312 4.173733397121094 -1.455106560383932 -5.593923155461447 0.025039801599435165 0.6187256314701293 0.21562139172052452 -2.5633876764457453 1.3765960661406278 0.22874414365093637
4.399177551269531 -1.4463678163341065 1.7376301924334925 4.178825064296387 -1.4550827185260218 -5.593946997319357 0.024620870995472412 0.617489144178707 0.21478373498042852 -2.567674061868183 1.3793210770065827 0.2277781129306272
4.399201393127441 -1.4463799831322213 1.7376411596881312 4.184925242061279 -1.4551308790790003 -5.593923155461447 0.024138777341703135 0.615987648079332 0.21377204809909223 -2.572781862934114 1.3826850364435597 0.2265071894548359
4.399236679077148 -1.4464160066894074 1.737617317830221 4.192378683681152 -1.455106560383932 -5.593958918248312 0.023524304346868433 0.6141641782908778 0.2125841566592325 -2.5790306674870935 1.3866622761736 0.22506838286349382
4.399201393127441 -1.4464278903654595 1.737617317830221 4.201821489925049 -1.455106560383932 -5.593946997319357 0.0227965345981868 0.6118283019461782 0.21106247073484577 -2.5868970294238522 1.391918611483017 0.22317243878983514
4.399189472198486 -1.4465000119856377 1.7376535574542444 4.213383837337158 -1.4551428000079554 -5.593946997319357 0.021885069788085045 0.6089319383723838 0.20924404755119858 -2.59653410084169 1.3982924784394413 0.22078587442941572
4.399201393127441 -1.4464758199504395 1.737652603779928 4.2266222673603515 -1.4551428000079554 -5.593935076390402 0.02081279437327981 0.6056150192836257 0.2071664120951923 -2.607633870283128 1.4056110191153324 0.21807954708466115
4.3992133140563965 -1.4464998629740258 1.7377012411700647 4.24222104131665 -1.455118481312887 -5.593946997319357 0.019526573307838715 0.6016555564362991 0.2047830435069849 -2.6207205111775806 1.4142074553897808 0.2148866127510214
4.399224758148193 -1.446523831491806 1.737748924885885 4.258889361018799 -1.455118481312887 -5.593946997319357 0.01814811819645786 0.597385624447063 0.20230863013418215 -2.634679097173789 1.4234229400423657 0.2113943067703872
4.3992133140563965 -1.446560726766922 1.7377260367022913 4.277150793666504 -1.4551428000079554 -5.593899075184957 0.016653225274144416 0.5926880816597321 0.19972789598750348 -2.649834230355309 1.43358150036719 0.207499190277641
4.399189472198486 -1.4465235632709046 1.737725083027975 4.296253367061279 -1.4551547209369105 -5.593935076390402 0.01507503160042204 0.5877218248847874 0.19707060383582184 -2.665805523970592 1.4441741022984445 0.20335459777213655
4.399224758148193 -1.4465603244355698 1.7377494017230433 4.316088362331055 -1.4551428000079554 -5.593923155461447 0.01337411616197658 0.5825066115463919 0.19444786748570195 -2.6823486350854115 1.455148116501462 0.19904178658465385
4.399236679077148 -1.4465957444957276 1.7377608458148401 4.336602373714111 -1.4551308790790003 -5.593923155461447 0.011614490174699581 0.5770666664416357 0.19185526647121098 -2.6994208365294314 1.4665235285843146 0.1945087174205409
4.399224758148193 -1.4465954911759873 1.7377360502826136 4.356494589442871 -1.4551547209369105 -5.593946997319357 0.009920535102959194 0.5717553662537507 0.18945101708495893 -2.7159515611785476 1.4775678228964362 0.18998709111434087
4.3992133140563965 -1.4466568690589447 1.7377622763263147 4.376377268428467 -1.4551547209369105 -5.593935076390402 0.008198939564588375 0.566383555131051 0.18716838063774524 -2.732427090261973 1.488665728864232 0.1854381066579849
4.399236679077148 -1.4466677543571969 1.7377484480487269 4.395559473628662 -1.4551666418658655 -5.593923155461447 0.006513721905666094 0.5611760482939682 0.18506492560605406 -2.748339282450537 1.4993474417238817 0.18096170169983253
4.399201393127441 -1.4466920283487816 1.7377474943744105 4.413296385402344 -1.4551428000079554 -5.593923155461447 0.004965074437736066 0.5563254468169204 0.1832165067682711 2.7424505121099845 -1.4980732063511832 -0.17550181724109867
4.399224758148193 -1.4467047166875382 1.7377613226519983 4.430323286647461 -1.4551428000079554 -5.593910996113912 0.003441489621692932 0.551633137176953 0.18151384951898394 2.7273077793108262 -1.4915760139190706 -0.16964310922183531
4.399249076843262 -1.4467392426780243 1.7377131620990198 4.445604487056396 -1.4551547209369105 -5.593923155461447 0.002075551248257562 0.5474208420820456 0.18009743027741734 2.713813635087216 -1.485726551175624 -0.1644389801384984
4.399249076843262 -1.4467881184867402 1.7377613226519983 4.4596311289021 -1.455118481312887 -5.593899075184957 0.0008034059064155885 0.543504604418454 0.17882404284575248 2.7013043476136223 -1.4803872029319098 -0.15974257599359598
4.399249076843262 -1.4468234863928338 1.737713638936178 4.471500559444092 -1.4551428000079554 -5.593910996113912 -0.000251178694615075 0.5402070462908515 0.17782740237521674 2.690830001364274 -1.4758535119751146 -0.15574122959710737
4.399249076843262 -1.4468114537051697 1.7377365271197718 4.4814650255390625 -1.455118481312887 -5.593923155461447 -0.001159465147733664 0.5374101984316783 0.17697350507669493 2.681933589588282 -1.4719927233105703 -0.15243296121095062
4.399272918701172 -1.4468354073217888 1.7377012411700647 4.490221663112305 -1.4551428000079554 -5.593935076390402 -0.0019531912191021947 0.534962791211359 0.17628875372824818 2.674223818438083 -1.4685994345018705 -0.14949985954024017
4.399249076843262 -1.446811356847622 1.7377365271197718 4.496668978328369 -1.4551308790790003 -5.593923155461447 -0.002532443626106471 0.5331366102125017 0.17575089896291649 2.6684032845057146 -1.4661387863469544 -0.14736036352886595
4.399272918701172 -1.4468353328159829 1.737725083027975 4.500983400935791 -1.4551308790790003 -5.593935076390402 -0.002935417602237464 0.5319251458810571 0.17543383017828681 2.664619865417077 -1.4644405062749495 -0.14594404438305336
4.399249076843262 -1.4468353253654023 1.7376773993121546 4.502967043513916 -1.4550946394549769 -5.593946997319357 -0.003106870342636424 0.5313877609545705 0.17530466288374721 2.6628797536384723 -1.4637078003954702 -0.14536121028201232
4.399272918701172 -1.4467874032310029 1.7377012411700647 4.502929850215576 -1.455118481312887 -5.593935076390402 -0.00311243487298651 0.5313872950009135 0.17527175437766315 2.6628625584087504 -1.4636791319202356 -0.1453116743469546
4.399260997772217 -1.4468114090016861 1.737725083027975 4.50251214086499 -1.4550707975970667 -5.593935076390402 -0.0030843482069891417 0.5314999063269963 0.17530653604995375 2.663214125810717 -1.4638532471315815 -0.14552136006262292
4.399249076843262 -1.446811394100525 1.737713638936178 4.502434416408203 -1.4550707975970667 -5.593923155461447 -0.0030695025688077943 0.5315263190947359 0.17531764445328715 2.6632760126830104 -1.4639194613479947 -0.14555078643011765
4.399260997772217 -1.446811394100525 1.7377727667437952 4.50242201864209 -1.4550827185260218 -5.593923155461447 -0.003078917243684219 0.5315056639905567 0.1752914618965639 2.663245865144732 -1.463885805901359 -0.14551678960871547
4.399272918701172 -1.4467634719661255 1.7377851645099085 4.502446337337158 -1.4550707975970667 -5.593899075184957 -0.003092108869461218 0.5314956020765069 0.17526018892426007 2.663157302882218 -1.4638674916308643 -0.14550379413849507
4.399236679077148 -1.4467873510769387 1.7377851645099085 4.502482100124023 -1.4550707975970667 -5.593935076390402 -0.00307619430636568 0.5314853414903895 0.175269513030618 2.663149300156085 -1.4638648564179912 -0.14550545952399824
4.399249076843262 -1.446751245563366 1.7378090063678187 4.502482100124023 -1.4550707975970667 -5.593923155461447 -0.003085652734103602 0.5314764497377952 0.17524050234767397 2.6630954686767847 -1.4638402972980975 -0.14548382734768014
4.399224758148193 -1.4467633080533524 1.7377851645099085 4.502542181605957 -1.4550827185260218 -5.593887154256002 -0.0030719480971834884 0.5314676368028938 0.17525239709754273 2.6630323069289727 -1.4639120249201554 -0.14545720722740613
4.399224758148193 -1.4467394214919587 1.7377975622760218 4.502530260677002 -1.4550583998309534 -5.593935076390402 -0.0030790125124389826 0.5314686716222291 0.17523643330848357 2.6630414139755567 -1.4638380071725325 -0.1454890201150051
4.399260997772217 -1.446702854042389 1.7378328482257288 4.502602739925049 -1.4550583998309534 -5.593946997319357 -0.0031091741559811682 0.5314348102656604 0.17519648393104306 2.6629473889632944 -1.4637173292920804 -0.14543954026351227
4.399249076843262 -1.4467273142984887 1.7377975622760218 4.502614660854004 -1.4550707975970667 -5.593923155461447 -0.0030961539288809035 0.5314438091313498 0.17522347350717532 2.662966362895905 -1.4637842812157524 -0.1454359447461
4.3992133140563965 -1.4467034202865143 1.737856690083639 4.502626104945801 -1.4550469557391565 -5.593935076390402 -0.003092117230744349 0.5314201162281774 0.1751845795377067 2.6628607629495678 -1.4637785464668955 -0.14544393889998203
4.399260997772217 -1.446703427737095 1.737833325062887 4.502638502711914 -1.4550583998309534 -5.593946997319357 -0.00311248650686332 0.5314245313422489 0.17519382869786976 2.662915638442155 -1.4637035648847174 -0.1454277661637716
4.399236679077148 -1.4466552671841164 1.7379778067218226 4.502638979549072 -1.455010716115133 -5.593923155461447 -0.0031307828524236615 0.5313730985701433 0.1751057148341267 2.662696754323129 -1.4636889631524566 -0.14543501523937233
4.399236679077148 -1.4466067117503663 1.7379668394671839 4.5026866632648925 -1.4550345579730433 -5.593982998524801 -0.0031269889317513157 0.5313623256296001 0.1750817520605336 2.662673106920222 -1.4635791392270214 -0.1453761633766489
4.399260997772217 -1.446559139793255 1.7380378882037562 4.502698584193848 -1.4550226370440882 -5.593958918248312 -0.0031530673712400273 0.531332847160213 0.17502510664671825 2.6625524152887636 -1.4635260391204972 -0.1453470978142975
4.399260997772217 -1.44655945271764 1.7381089369403284 4.502698584193848 -1.4550226370440882 -5.593982998524801 -0.0031620599476857164 0.5313051527365439 0.1749931535514725 2.6625081673374096 -1.4634668237931256 -0.14532570189946567
4.399272918701172 -1.4465835255435486 1.7380731741534632 4.502722426051758 -1.4550345579730433 -5.593958918248312 -0.003162857689491382 0.5313109590221382 0.17501926171478696 2.6625328350174673 -1.4634972315698127 -0.14531702171719815
4.399260997772217 -1.4465955954841156 1.73806077638735 4.502698584193848 -1.4550469557391565 -5.593946997319357 -0.0031494329131085894 0.5313212814843259 0.17503236961247964 2.66256150975472 -1.4635485718710173 -0.145314542763386
4.399296760559082 -1.4466315296343346 1.7380245367633265 4.502722426051758 -1.4550226370440882 -5.593923155461447 -0.0031728352849636765 0.531330358120604 0.17506586099664892 2.6626045859602803 -1.46354877045286 -0.14536188396132765
4.399284839630127 -1.4466196161559601 1.7380731741534632 4.502722426051758 -1.4550345579730433 -5.593982998524801 -0.003169335227261344 0.5313104959758397 0.1750374765110336 2.6625917093317755 -1.4634636360550288 -0.14532985915996727
4.399272918701172 -1.446607568567135 1.7381332556353968 4.502722426051758 -1.455010716115133 -5.593935076390402 -0.0031771017350442077 0.5312894321816433 0.17500501819327643 2.6624763933130047 -1.4635127196554676 -0.14533869719887912
4.399249076843262 -1.4465956476381798 1.7381208578692835 4.502698584193848 -1.455010716115133 -5.593971077595846 -0.0031606515259679294 0.5313012049728166 0.17500642120589122 2.662509245458118 -1.4635072055796037 -0.1453513961810428
4.399272918701172 -1.4465596240809937 1.7381208578692835 4.502758188838623 -1.455010716115133 -5.593958918248312 -0.003178592245173438 0.5312847400969497 0.1749837014512007 2.6624313389886103 -1.463453838801755 -0.1453170445122464
4.399284839630127 -1.446595625286438 1.7381208578692835 4.5027100282856445 -1.455010716115133 -5.593946997319357 -0.0031806922028141914 0.5312978638386059 0.17500553818791106 2.662505273491377 -1.46348595682953 -0.1453429354569495
4.399406909942627 -1.4466682535460968 1.7380731741534632 4.502626104945801 -1.4550707975970667 -5.593946997319357 -0.003215687848887965 0.5313333996601523 0.17506818520905557 2.662786794189871 -1.463404290011117 -0.14531154621047687
4.399612903594971 -1.4467039045742531 1.7381208578692835 4.502674265498779 -1.455010716115133 -5.593958918248312 -0.0033521764748908507 0.5313056034995489 0.17506291001548782 2.662869829786403 -1.463082616678783 -0.14536573602266445
4.399900436401367 -1.4466556546143075 1.7380970160113733 4.502698584193848 -1.4550226370440882 -5.593958918248312 -0.003500673120454288 0.5313065359807895 0.17504709363471635 2.663028730019302 -1.4626756175939004 -0.14530950075035154
4.400187015533447 -1.446655624811985 1.7381084601031702 4.502686186427734 -1.455010716115133 -5.593958918248312 -0.0036565284346917262 0.5313056312158659 0.1750432389357121 2.663225013684662 -1.4622874220591473 -0.14530513011271445
4.400485992431641 -1.4467155647328873 1.7380970160113733 4.502674265498779 -1.4550226370440882 -5.593958918248312 -0.0038098191829814276 0.5313105487609887 0.1750791834292759 2.6635091050838606 -1.461916153879453 -0.14529160157258283
4.400761127471924 -1.4467276123217125 1.73806077638735 4.502650423640869 -1.455010716115133 -5.593923155461447 -0.003952602780431618 0.5313312752952205 0.17510385128494568 2.66373309786895 -1.4616179728203107 -0.1453088715849227
4.401144981384277 -1.4467280519059678 1.7380731741534632 4.502686186427734 -1.4550226370440882 -5.593946997319357 -0.0041580735993208065 0.531313706728139 0.1750953541350101 2.6639776673459052 -1.461049692886243 -0.14524728543317278
4.401577949523926 -1.4467758697322388 1.7380731741534632 4.502686186427734 -1.4550345579730433 -5.593899075184957 -0.0043850303728041745 0.5313102104777351 0.1751190998630976 2.664285865969902 -1.4605460085904678 -0.14520788533051185
4.40215539932251 -1.4467756685665627 1.7380970160113733 4.502638502711914 -1.455010716115133 -5.593935076390402 -0.004697080723411316 0.5313139084438937 0.1751126328346891 2.6647277962396503 -1.459724608514759 -0.14520888489996098
4.403032302856445 -1.4467156168869515 1.7381084601031702 4.502626104945801 -1.454998795186178 -5.593958918248312 -0.0051663464642040385 0.5313104076804658 0.17507848451835084 2.6652964259600442 -1.4584824880322913 -0.1451403705296763
4.404163360595703 -1.4467755568078537 1.7380731741534632 4.502638502711914 -1.455010716115133 -5.593935076390402 -0.005760956917355418 0.5313127117796312 0.17512335436575982 2.666135471327336 -1.4570153574169482 -0.1450600048562698
4.405786037445068 -1.4467755940607567 1.73806077638735 4.502589865321777 -1.454998795186178 -5.593935076390402 -0.006620510444544838 0.5313223156523291 0.17513307568877806 2.66730534607504 -1.4548401688220338 -0.1449713604451457
4.407778739929199 -1.4467998531511803 1.7381208578692835 4.50255457937207 -1.455010716115133 -5.593958918248312 -0.007680357267703879 0.5312932256925578 0.17512046157266595 2.668697542500012 -1.4521090878531784 -0.14479970309038548
4.4102630615234375 -1.4468115654638787 1.7380855719195765 4.502542181605957 -1.454986874257223 -5.593935076390402 -0.009001448939615454 0.5312917720177979 0.1751440479793205 2.670431797098602 -1.4487935164894195 -0.14465892475036277
4.41321325302124 -1.4467875149897118 1.7380731741534632 4.502589865321777 -1.455010716115133 -5.593935076390402 -0.01056479634808868 0.5312524546699795 0.17513309952212602 2.6724055442659624 -1.4447704109476533 -0.1443725334568778
4.416701316833496 -1.44678749263797 1.738049332295553 4.502530260677002 -1.454986874257223 -5.593958918248312 -0.012416376723373639 0.5312406736849502 0.17514919093201575 2.6748729641673896 -1.4400336372962748 -0.14416480351444844
4.420607089996338 -1.4468114388040085 1.7380731741534632 4.502589865321777 -1.454998795186178 -5.593958918248312 -0.014495850969012979 0.5311605491984415 0.17514556292230002 2.6774797763016704 -1.434705065856493 -0.1438201338010789
4.424954891204834 -1.4467995029738923 1.7380369345294397 4.502566023463867 -1.455010716115133 -5.593971077595846 -0.016795529821350783 0.5311126560507708 0.17515735308868652 2.6804804048667608 -1.428794883007772 -0.14347827503296884
4.429719924926758 -1.446835384970047 1.73806077638735 4.502542181605957 -1.4550226370440882 -5.593982998524801 -0.01932369766956421 0.5310225884631334 0.17516611638934665 2.683738097576573 -1.4223059734809689 -0.14309894170431012
4.43484354019165 -1.4467995029738923 1.7380731741534632 4.502518339748047 -1.455010716115133 -5.593935076390402 -0.022046837406613826 0.53091992663414 0.17514460712971258 2.6871157989810843 -1.4153759876799956 -0.1426999449306642
4.440242767333984 -1.4468234565905114 1.7380369345294397 4.502530260677002 -1.455010716115133 -5.593935076390402 -0.02491008630358362 0.5308037555731708 0.17517217293116208 2.6907632736669123 -1.40802642533009 -0.14229028352330872
4.445809841156006 -1.446823464041092 1.738049332295553 4.50257842122998 -1.4550226370440882 -5.593971077595846 -0.02786647054377133 0.5306372520364687 0.1751625081170978 2.6944351218798497 -1.4003516036136199 -0.14181254326953188
4.451565742492676 -1.4468114239028473 1.73806077638735 4.50255457937207 -1.4550469557391565 -5.593971077595846 -0.030912864605172664 0.5304686482391756 0.17515228418405754 2.6982416708557877 -1.3924798339914326 -0.14131957715437737
4.457432270050049 -1.4468353551677247 1.7380245367633265 4.50255457937207 -1.4550583998309534 -5.593946997319357 -0.03401745036004508 0.5302913831330839 0.17518037575482573 2.7021305951740686 -1.3844994356129217 -0.14085599186504905
4.463339328765869 -1.4468473953059693 1.7380369345294397 4.50255457937207 -1.4550226370440882 -5.593946997319357 -0.0371606026110686 0.5300787452835893 0.17518201211168 2.7059731258654858 -1.3763956868370666 -0.14043734419112805
4.469216346740723 -1.4468234342387696 1.73806077638735 4.50255457937207 -1.4550469557391565 -5.594006840382711 -0.040270693609628996 0.5298402698467521 0.1751583463810373 2.709790524420554 -1.3682305294515018 -0.13991831858291245
4.47497034072876 -1.446811394100525 1.738049332295553 4.502530260677002 -1.4550583998309534 -5.593935076390402 -0.043312667640178666 0.5296106890605914 0.17515892624756418 2.713470976849896 -1.3604247745313394 -0.1394435373657872
4.480771541595459 -1.4467994731715699 1.73806077638735 4.502566023463867 -1.4550707975970667 -5.594006840382711 -0.04638427675864694 0.5293349304316718 0.17514460280281044 2.717188456047591 -1.352323603875896 -0.13894213956972545
4.486538887023926 -1.446787455385067 1.7380369345294397 4.502530260677002 -1.4550226370440882 -5.593982998524801 -0.04944531060219458 0.5290818279140592 0.1751536125434369 2.7208711208560206 -1.3444199157361638 -0.1385649535896244
4.492293357849121 -1.4468234565905114 1.738049332295553 4.50255457937207 -1.455010716115133 -5.593946997319357 -0.052495200970963024 0.5287768854946922 0.17516471178417412 2.724481973034476 -1.336526910365891 -0.13811477720128837
4.497969150543213 -1.4468353551677247 1.738049332295553 4.502506418819092 -1.4550226370440882 -5.593923155461447 -0.05548922084893963 0.5284834619086135 0.17517400488829354 2.728091458864092 -1.3287391548774021 -0.13766025815909128
4.503654479980469 -1.4468353551677247 1.738049332295553 4.502566023463867 -1.454986874257223 -5.593982998524801 -0.05850664947461257 0.5281443822650805 0.17517062090800978 2.731622129406928 -1.3207725476440546 -0.13723272678499263
4.509342670440674 -1.4468353551677247 1.7380731741534632 4.502530260677002 -1.4550345579730433 -5.593946997319357 -0.061496239402534444 0.5278009810905077 0.17516101755911231 2.735154934465188 -1.312952089627492 -0.13670276101699771
4.5150017738342285 -1.4468353551677247 1.7380731741534632 4.50255457937207 -1.4550345579730433 -5.593946997319357 -0.06448352203131413 0.5274374498295101 0.17515916188063882 2.7386261299059127 -1.3050990226655341 -0.13623204422955223
4.520608425140381 -1.446859323685505 1.7380731741534632 4.502530260677002 -1.4550827185260218 -5.593946997319357 -0.06742469328007238 0.5270716507680506 0.1751715478400106 2.7421234085447623 -1.2973373274527662 -0.13572428123245928
4.526242733001709 -1.4468593311360856 1.7380369345294397 4.502542181605957 -1.4550469557391565 -5.593923155461447 -0.07040133217714808 0.5266964973251473 0.17518819120025783 2.7455525652891026 -1.2895465835967082 -0.13532422223337834
4.531802177429199 -1.4468113791993638 1.7380245367633265 4.502530260677002 -1.4550469557391565 -5.593958918248312 -0.07332670728461677 0.526306030904119 0.17517050199971865 2.748923574769232 -1.281757458350148 -0.13486190283803862
4.537379264831543 -1.4468473878553887 1.7380970160113733 4.502542181605957 -1.4550583998309534 -5.593946997319357 -0.07626343966075402 0.5258551421144804 0.17515462579694308 2.752233101144833 -1.2739930728754012 -0.1343658732487956
4.542885780334473 -1.4468593087843438 1.7380731741534632 4.50255457937207 -1.455010716115133 -5.593958918248312 -0.07917046210882786 0.525435507893889 0.17517202869863147 2.7555409770389847 -1.2663049468845944 -0.13399326749482646
4.548320293426514 -1.4468473953059693 1.73806077638735 4.50255457937207 -1.4550469557391565 -5.593982998524801 -0.08201357610627782 0.5250008675108383 0.17517044068423424 2.7587995984524194 -1.2586915849488962 -0.13349478063518916
4.553742408752441 -1.4468234342387696 1.7380731741534632 4.502530260677002 -1.4550469557391565 -5.593935076390402 -0.0848585987825075 0.524550865122928 0.17515459680324424 2.7619602050127328 -1.2511790078322012 -0.13303776616022686
4.559088230133057 -1.4468593162349244 1.7380731741534632 4.50255457937207 -1.455010716115133 -5.593946997319357 -0.08767304041907689 0.5240838414945856 0.1751720324592583 2.7651051716273716 -1.2436885810506002 -0.13265405141056016
4.564358234405518 -1.446811394100525 1.738049332295553 4.50257842122998 -1.4550345579730433 -5.593946997319357 -0.09042640775936028 0.523616726094179 0.17515602768456462 2.7681446839940875 -1.236299397897109 -0.13216111640584274
4.569489479064941 -1.4468234342387696 1.7380731741534632 4.502530260677002 -1.454998795186178 -5.593946997319357 -0.09312164958051695 0.5231516955019295 0.1751561651271115 2.7711411975689395 -1.229118364517344 -0.1318029191095507
4.574496269226074 -1.446811394100525 1.7380369345294397 4.502530260677002 -1.4550469557391565 -5.593946997319357 -0.09572392255625072 0.5226917362065844 0.17516490413947386 2.774064753750058 -1.2221079587674009 -0.13132739550863623
4.579482555389404 -1.446811394100525 1.738049332295553 4.502542181605957 -1.455010716115133 -5.593971077595846 -0.09834053219646506 0.5222008634173486 0.17515956921555045 2.776903503453943 -1.215065705811359 -0.13095512449767746
4.584311485290527 -1.4468353551677247 1.7380245367633265 4.50257842122998 -1.4550583998309534 -5.594006840382711 -0.10084747345507555 0.5217171576062866 0.1751785562900184 2.779704089858563 -1.208239738779341 -0.13049157496251373
4.589081287384033 -1.4468234342387696 1.73806077638735 4.502542181605957 -1.454986874257223 -5.593958918248312 -0.10335582969759717 0.5212289734451159 0.1751612490186682 2.782339956496645 -1.2015892219176303 -0.1301864536648336
4.593792915344238 -1.4468473953059693 1.73806077638735 4.502518339748047 -1.4550583998309534 -5.593971077595846 -0.1057891987837755 0.5207403349948444 0.17517283376053724 2.78506767548813 -1.1949607935928181 -0.129711654311994
4.598445415496826 -1.4468234342387696 1.7380245367633265 4.502542181605957 -1.4550345579730433 -5.593958918248312 -0.10821669019410929 0.5202513768759064 0.1751760808928912 2.787646133576613 -1.1884191006902214 -0.12934925711809406
4.603059768676758 -1.4468353551677247 1.73806077638735 4.502542181605957 -1.455010716115133 -5.593971077595846 -0.11062465306157843 0.519732388909417 0.17516648956712713 2.7901923730134235 -1.1818884614667418 -0.12898536106549519
4.607663631439209 -1.4468234342387696 1.73806077638735 4.50257842122998 -1.455010716115133 -5.593971077595846 -0.11301733838675351 0.5192070498235052 0.1751577073153828 2.7926971807148413 -1.1753794497917958 -0.12857479293950827
4.612170219421387 -1.4468234342387696 1.7380731741534632 4.50255457937207 -1.4550226370440882 -5.593910996113912 -0.11535242244622942 0.5186940640377091 0.17515353305234732 2.795154430174295 -1.1691033371029271 -0.1281778753728771
4.616643905639648 -1.4468353551677247 1.73806077638735 4.50255457937207 -1.4550226370440882 -5.593935076390402 -0.11767126136775748 0.5181777306438259 0.1751651552904205 2.797639428891472 -1.1627551799452378 -0.12781367459938603
4.621112823486328 -1.446811394100525 1.7380245367633265 4.502566023463867 -1.4550469557391565 -5.593935076390402 -0.11997767962634337 0.5176577068677652 0.17516778038261083 2.8000805415892556 -1.1564374793445586 -0.12740107696702846
4.625500679016113 -1.4468234342387696 1.7380855719195765 4.50255457937207 -1.4550226370440882 -5.593982998524801 -0.12225684391190461 0.5171052640173311 0.17514792794502054 2.8024419640360603 -1.150148715105888 -0.1270500400888426
4.6298651695251465 -1.4467874330333252 1.73806077638735 4.50255457937207 -1.454986874257223 -5.593923155461447 -0.12452198733916928 0.5165782520984473 0.1751421314470305 2.804731210971931 -1.1440444840823099 -0.126720336581229
4.634158134460449 -1.4468593162349244 1.7380731741534632 4.502530260677002 -1.4550469557391565 -5.593958918248312 -0.12672110062397277 0.5160386624856872 0.17517270824635264 2.8071465650078835 -1.1379373873857472 -0.12631371195090704
4.638378620147705 -1.446811394100525 1.7380731741534632 4.50255457937207 -1.4550469557391565 -5.593958918248312 -0.12889836956450923 0.5154926567156044 0.17514666403285598 2.809327685413479 -1.1319316977993077 -0.12591882109501104
4.642622947692871 -1.4468234342387696 1.7381084601031702 4.502566023463867 -1.455010716115133 -5.593910996113912 -0.131096836758906 0.5149237826892661 0.17513709539838507 2.8115010438401185 -1.1259620628817357 -0.125587534852934
4.646831512451172 -1.4468353551677247 1.738049332295553 4.50257842122998 -1.4550345579730433 -5.593958918248312 -0.13325452150681055 0.5143873451582919 0.1751681219350672 2.8138057530544045 -1.1199351329628833 -0.1252276485767816
4.651144504547119 -1.446811394100525 1.7380855719195765 4.502530260677002 -1.4550345579730433 -5.593958918248312 -0.13547186958326277 0.5138075657184071 0.17514331806547404 2.81605217994566 -1.1138012643546473 -0.12485304113194427
4.655457019805908 -1.4467874330333252 1.7380731741534632 4.502530260677002 -1.4550345579730433 -5.593971077595846 -0.13768609173401095 0.5132239355515422 0.17513682883505283 2.818292971754987 -1.1076472041445584 -0.12447912284879507
4.659872055053711 -1.446811394100525 1.7380245367633265 4.50257842122998 -1.455010716115133 -5.593923155461447 -0.1399572139700012 0.5126168021344524 0.17516801443093125 2.8205618984819107 -1.1014344976470107 -0.12414306246761415
4.6644062995910645 -1.4467874330333252 1.7380245367633265 4.50255457937207 -1.454986874257223 -5.593971077595846 -0.14228663602599942 0.5119846734014417 0.175158515620175 2.8229125514791145 -1.0949068186866828 -0.1237919555116063
4.668962001800537 -1.446811394100525 1.7380970160113733 4.50257842122998 -1.455010716115133 -5.593946997319357 -0.14461234096189512 0.5112937764762489 0.1751352464267906 2.825170744724885 -1.08842989926113 -0.12332686920568223
4.673605442047119 -1.4467994731715699 1.7380731741534632 4.502566023463867 -1.454998795186178 -5.594006840382711 -0.14698784825263417 0.5106305067550736 0.1751413422623029 2.8275807433298827 -1.0817274084596686 -0.12296171772856286
4.678269863128662 -1.4467755121043702 1.7380855719195765 4.50257842122998 -1.4550707975970667 -5.593946997319357 -0.149347510569016 0.5099300310948307 0.17512035320706912 2.8298834523950664 -1.0751458212019138 -0.1224263507656401
4.682931900024414 -1.4467755121043702 1.738049332295553 4.502542181605957 -1.454998795186178 -5.593958918248312 -0.1517432540362957 0.5092545676198127 0.17514184578468037 2.832265533890601 -1.0684812747724652 -0.12216514596588324
4.687602996826172 -1.4467994731715699 1.7380855719195765 4.502566023463867 -1.455010716115133 -5.593910996113912 -0.1541174775203325 0.5085178921405683 0.1751353490587412 2.8345373864884245 -1.0618626171541679 -0.12172094088540372
4.692214012145996 -1.4467874330333252 1.7380245367633265 4.50257842122998 -1.454986874257223 -5.593971077595846 -0.15646704685841903 0.5078235158837173 0.17515669649001495 2.8368768753384797 -1.055188523513476 -0.12137998663017253
4.696848392486572 -1.4467874330333252 1.738049332295553 4.502566023463867 -1.4550345579730433 -5.593923155461447 -0.1588051309338665 0.5070861393845755 0.17514487926106573 2.8391358399859867 -1.0486213397741018 -0.12089964620283289
4.701423645019531 -1.4467994731715699 1.738049332295553 4.502566023463867 -1.454998795186178 -5.593971077595846 -0.161133854274003 0.5063542988427595 0.17515212117811704 2.8413944093558707 -1.041999056370979 -0.12056352203677445
4.705915451049805 -1.4467755121043702 1.7380369345294397 4.50257842122998 -1.4550226370440882 -5.593958918248312 -0.16339974622246636 0.5056270218591512 0.17514390951829906 2.843555294547428 -1.0355724818590453 -0.12012501508355151
4.710425853729248 -1.446811394100525 1.738049332295553 4.50257842122998 -1.454986874257223 -5.593982998524801 -0.16568902287245288 0.5048794491497116 0.17515758064347006 2.8457503025674935 -1.0290703928439888 -0.11979754439934415
4.714837074279785 -1.4467754897526284 1.7380731741534632 4.502566023463867 -1.4550345579730433 -5.593971077595846 -0.1679007394995482 0.5041379388636115 0.17512807220907423 2.8478332078916924 -1.0227468694067101 -0.11931843538559463
4.719269752502441 -1.4467754897526284 1.738049332295553 4.502589865321777 -1.454998795186178 -5.593946997319357 -0.17014410872537636 0.5033914454551105 0.1751381967558154 2.8499157965013526 -1.0164106312256171 -0.11897949286994461
4.7236647605896 -1.4467634719661255 1.7380369345294397 4.50255457937207 -1.454998795186178 -5.593971077595846 -0.1723550535336277 0.5026544856699745 0.17514042758853132 2.8520389257296976 -1.0100667621109114 -0.1186168656621532
4.728024482727051 -1.4467994731715699 1.738049332295553 4.502566023463867 -1.455010716115133 -5.593958918248312 -0.1745412601281845 0.501889398770125 0.1751517329178689 2.8540961410307903 -1.0038164822510436 -0.11822394374779376
4.732324123382568 -1.4467755121043702 1.7380731741534632 4.502589865321777 -1.454986874257223 -5.594006840382711 -0.17670414460113382 0.5011176826345569 0.17512781782373152 2.856055118053394 -0.9975425510639552 -0.11784450299289662
4.7366743087768555 -1.4467994731715699 1.7380731741534632 4.502589865321777 -1.455010716115133 -5.593958918248312 -0.17887552177997956 0.5003440640895843 0.17513913521317487 2.8580778906972157 -0.9913523337471792 -0.11743808601760117
4.741000175476074 -1.4467755121043702 1.738049332295553 4.502566023463867 -1.455010716115133 -5.593971077595846 -0.18103875132783928 0.4995827187901039 0.17513963856733136 2.8600984229751822 -0.9851062019282223 -0.11707214319124455
4.745356559753418 -1.4467634719661255 1.73806077638735 4.502566023463867 -1.455010716115133 -5.593946997319357 -0.18321325329353977 0.4987847716092072 0.1751283875642986 2.862058615846533 -0.9788534908126376 -0.11667309519873209
4.74968957901001 -1.4467755121043702 1.7380245367633265 4.502589865321777 -1.454998795186178 -5.593971077595846 -0.1853764811518825 0.4979937472077685 0.17514941793861113 2.864057932662964 -0.9725718636714695 -0.11632382012808754
4.754035472869873 -1.4467755121043702 1.7380731741534632 4.502626104945801 -1.455010716115133 -5.593946997319357 -0.18753423017168186 0.49715290220288794 0.17512427728585764 2.865937137817092 -0.9663148875624644 -0.11587255079740483
4.758335590362549 -1.4467874330333252 1.73806077638735 4.50255457937207 -1.455010716115133 -5.593994919453756 -0.18967153364443645 0.4963679838916098 0.17514135488610666 2.8679760013061313 -0.9600545550454487 -0.11555190454045039
4.7626423835754395 -1.446751431827881 1.7380369345294397 4.50255457937207 -1.4550345579730433 -5.593946997319357 -0.19180113156804152 0.49555700946948544 0.1751331855649407 2.8698691855324747 -0.9538966711457763 -0.1151261653640802
4.766956806182861 -1.4467994731715699 1.7381208578692835 4.50257842122998 -1.454986874257223 -5.593946997319357 -0.19394889253641015 0.49468225061603416 0.17511922781169328 2.87170544738062 -0.9476412093420347 -0.1147756625127739
4.771243095397949 -1.4467634719661255 1.7380731741534632 4.50255457937207 -1.4549625555621546 -5.594006840382711 -0.19607605965923827 0.49387303012381345 0.17512522451519108 2.873640771756527 -0.9413585438235735 -0.11445527722799999
4.775597095489502 -1.4467874330333252 1.73806077638735 4.502566023463867 -1.4549625555621546 -5.593958918248312 -0.19822459992054053 0.4930160212093021 0.17514205062674573 2.8755389103935842 -0.9351274602292549 -0.11407880600571195
4.779934406280518 -1.4468113717487832 1.7381084601031702 4.50257842122998 -1.4549625555621546 -5.593958918248312 -0.20035952064982007 0.4921281693630499 0.1751316302637022 2.87738635151171 -0.9288363720442862 -0.11367159084188945
4.784424781799316 -1.4467634496143837 1.7380970160113733 4.50255457937207 -1.454986874257223 -5.593935076390402 -0.2025612016537018 0.4912362980634661 0.17511364256163858 2.8793055899216733 -0.9223601375047198 -0.11322807248690385
4.788941860198975 -1.4467754823020478 1.7381084601031702 4.502530260677002 -1.4549744764911097 -5.593958918248312 -0.204781855168632 0.4903184154510112 0.17511680113007153 2.8812634426936072 -0.9157778945940986 -0.1128594095576289
4.793574333190918 -1.4467514094761391 1.738049332295553 4.502566023463867 -1.4549387137042444 -5.593971077595846 -0.20706244302071575 0.48937763289277825 0.17512981846471232 2.883216971263535 -0.9090347431851927 -0.11249599132777012
4.798173904418945 -1.4467994582704087 1.7380245367633265 4.50255457937207 -1.454986874257223 -5.593946997319357 -0.2092983975982277 0.4884340502424652 0.1751645855221594 2.8852351903547584 -0.9024086814926923 -0.11206660393378665
4.802831649780273 -1.4467394959977646 1.7380369345294397 4.50257842122998 -1.454998795186178 -5.593923155461447 -0.21156663990521388 0.48744284069374405 0.17512650679885655 2.8870874124227988 -0.8956576385758211 -0.11157272883567589
4.807448387145996 -1.446763464515545 1.73806077638735 4.50257842122998 -1.4549744764911097 -5.593958918248312 -0.21382083641273913 0.4864502620408927 0.1751286185323943 2.8890059010886158 -0.8888923184852336 -0.1111957754330796
4.8119916915893555 -1.4467514243773003 1.7381208578692835 4.50257842122998 -1.4549625555621546 -5.594006840382711 -0.2160297331149722 0.4854491298470849 0.175095769008575 2.890826074611064 -0.8822001822665778 -0.11076446720692847
4.816465854644775 -1.446763464515545 1.7380369345294397 4.502589865321777 -1.4549625555621546 -5.593935076390402 -0.2182027145005986 0.4845083978159499 0.1751389125150785 2.892690939653702 -0.8758061567128896 -0.11040768433473401
4.820916175842285 -1.4467395108989258 1.738049332295553 4.502589865321777 -1.4549387137042444 -5.593958918248312 -0.22036310841855594 0.48352708377282133 0.17512199411063042 2.8944596793886057 -0.8692825507468103 -0.1100197326599293
4.825316429138184 -1.4467634719661255 1.7380731741534632 4.50257842122998 -1.4549625555621546 -5.593946997319357 -0.2224810164045639 0.4825468433271303 0.175123405896587 2.8962409598402514 -0.8628913662075716 -0.10959638235098296
4.8296709060668945 -1.4467395108989258 1.7380369345294397 4.50257842122998 -1.4549744764911097 -5.593958918248312 -0.2245784684016736 0.48158890587198355 0.17512730649502603 2.8979968629363895 -0.8565286339270288 -0.10919581967056192
4.833940029144287 -1.4467035096934815 1.7381084601031702 4.502589865321777 -1.4549744764911097 -5.593946997319357 -0.2266284820533201 0.48059375931422277 0.17507592890587298 2.8995735754353835 -0.8502982459192107 -0.10873448094446306
4.8381476402282715 -1.4467634719661255 1.7380731741534632 4.50257842122998 -1.4549744764911097 -5.593958918248312 -0.22865076852316157 0.4796529054939148 0.17512301751362702 2.9013236659649384 -0.8441585273379171 -0.10842205345245194
4.842275142669678 -1.4467274707606812 1.7380855719195765 4.502602263087891 -1.4549625555621546 -5.593923155461447 -0.230630479915939 0.47869305108042365 0.17509781210446956 2.9028452182593005 -0.8381707772490221 -0.10801576530594198
4.846400260925293 -1.4467634719661255 1.7380855719195765 4.50257842122998 -1.4549506346331995 -5.593971077595846 -0.23260749757308047 0.47774371999000714 0.1751181896034883 2.9045080397905068 -0.8320846079048885 -0.10770047648611555
4.850513935089111 -1.4467274707606812 1.7380731741534632 4.50257842122998 -1.454986874257223 -5.593958918248312 -0.23456116445160924 0.47678965479841995 0.1751044424906498 2.9060753993392714 -0.8260883801020535 -0.10726132284136618
4.8546271324157715 -1.4467395108989258 1.7380731741534632 4.502566023463867 -1.454986874257223 -5.593958918248312 -0.23652081123223861 0.47582431429741334 0.17511146517023282 2.9076621740380144 -0.8200778737917928 -0.10690333732612073
4.858598232269287 -1.4467395108989258 1.7380731741534632 4.502614184016846 -1.4549506346331995 -5.593946997319357 -0.23841676925606511 0.47486575038539053 0.17510897291901872 2.909097838745523 -0.8142762142424922 -0.10655972374796113
4.862565994262695 -1.4467274707606812 1.7380731741534632 4.502614184016846 -1.4549387137042444 -5.593946997319357 -0.2403024755373965 0.4739156923645322 0.17510328440104456 2.9105691528997317 -0.8084667228894669 -0.1062069165482606
4.866487503051758 -1.4467155274799843 1.7381084601031702 4.502626104945801 -1.4549387137042444 -5.593946997319357 -0.24215635443254926 0.47295207334053535 0.1750803968228071 2.9119761140359883 -0.8027159366387839 -0.10581100630170015
4.870284080505371 -1.4467514094761391 1.7380855719195765 4.502566023463867 -1.454986874257223 -5.593935076390402 -0.24394065770603496 0.47205778686826455 0.17511186616828098 2.9134997715820377 -0.7971928360887259 -0.10547504755807781
4.874008655548096 -1.4467155274799843 1.7380855719195765 4.502589865321777 -1.455010716115133 -5.593994919453756 -0.24568928147712954 0.4711404720956435 0.17509116057025892 2.914849404893645 -0.791640600504574 -0.10506890829372743
4.877770900726318 -1.4467395108989258 1.7381084601031702 4.502626104945801 -1.4549267927752894 -5.593946997319357 -0.2474806922617946 0.4701888392764273 0.17509288997220918 2.916128915767436 -0.7861845690319575 -0.10481184096746304
4.881388187408447 -1.4467395108989258 1.73806077638735 4.502626104945801 -1.4549744764911097 -5.593971077595846 -0.24916953415578513 0.4693120364987473 0.17511289156296986 2.917510125941603 -0.7808545072446321 -0.10444939561565075
4.884836673736572 -1.4467395108989258 1.7380731741534632 4.502638502711914 -1.4549625555621546 -5.593958918248312 -0.25078836382338054 0.46844080027306045 0.1751067301096002 2.918715243381393 -0.775808471231875 -0.10413227276040583
4.888322830200195 -1.4467514020255585 1.7380855719195765 4.502614184016846 -1.4549387137042444 -5.593958918248312 -0.25242705553497186 0.4675644555284642 0.17510975862702352 2.9199675063642765 -0.7706938286669353 -0.10386084762721548
4.8916754722595215 -1.4467155200294037 1.738049332295553 4.502638502711914 -1.4549506346331995 -5.593946997319357 -0.253991227387359 0.4667240870314207 0.17510578745262279 2.9211337932674963 -0.7657861987796845 -0.10351997934593773
4.894861698150635 -1.446691558962204 1.7381084601031702 4.502602263087891 -1.454986874257223 -5.593971077595846 -0.25546434038053206 0.46590129882623715 0.17506854808261246 2.9222400543403513 -0.7610668511132386 -0.10314916943086565
4.89805793762207 -1.4466915440610428 1.7380731741534632 4.502626104945801 -1.4549625555621546 -5.593971077595846 -0.2569604305258087 0.465088416808272 0.17508346547067394 2.9233553213089243 -0.7563713513116229 -0.10289591589987125
4.901173114776611 -1.4467034724405785 1.7381208578692835 4.502638502711914 -1.4549148718463343 -5.593935076390402 -0.25841720940011453 0.4642602484574398 0.17506854047460538 2.9243574636155527 -0.7518362006991254 -0.10263822939937052
4.904177665710449 -1.446703479891159 1.7380855719195765 4.502589865321777 -1.4549387137042444 -5.593935076390402 -0.2598096665841695 0.4635113298094212 0.17508742549259904 2.925478622759265 -0.7474317342165201 -0.10238571455043308
4.907139301300049 -1.4467155200294037 1.7380970160113733 4.502614184016846 -1.4549506346331995 -5.593935076390402 -0.2611755535648397 0.4627286622273315 0.17508608655631913 2.9264788540911786 -0.7430739865517436 -0.1020807044673307
4.909999370574951 -1.4467155200294037 1.73806077638735 4.502602263087891 -1.4549625555621546 -5.593971077595846 -0.2624981348789898 0.46199846612128453 0.17510298910070976 2.9275156013840578 -0.7388213972979004 -0.10183680641143907
4.912815570831299 -1.4467155274799843 1.7380970160113733 4.502614184016846 -1.4549506346331995 -5.593958918248312 -0.26379790451789903 0.46123871271285627 0.17508609031675618 2.9284169385093635 -0.7346882461098179 -0.10155933139130008
4.915555477142334 -1.4467034947923203 1.7380855719195765 4.502650423640869 -1.4549744764911097 -5.593971077595846 -0.26505268782695773 0.46050976858402576 0.17508165072004933 2.929323588902634 -0.7306345141419477 -0.10125020008008838
4.918153285980225 -1.4467034947923203 1.7381084601031702 4.502662344569824 -1.4549506346331995 -5.593935076390402 -0.2662522344397775 0.4598056614581766 0.17507117291005012 2.93013756237634 -0.7268567363119937 -0.10101520446608207
4.920559883117676 -1.4467034947923203 1.7381208578692835 4.502626104945801 -1.4549506346331995 -5.593935076390402 -0.26735921821770753 0.45916910169600567 0.1750683312956963 2.9309600244300547 -0.7233157449678118 -0.10080893048156
4.922796249389648 -1.4466915664127846 1.7380731741534632 4.502674265498779 -1.4549387137042444 -5.593935076390402 -0.26838988924291207 0.4585746484536237 0.1750805822429205 2.9316846669020316 -0.7200198765995091 -0.10060950571131828
4.924829483032227 -1.4466555726579209 1.7380970160113733 4.502686186427734 -1.454986874257223 -5.593958918248312 -0.2693053721472844 0.4580182760308794 0.1750491617618774 2.932325283656556 -0.7169833116884178 -0.10030933945213868
4.92659854888916 -1.446703479891159 1.7381332556353968 4.502674265498779 -1.4549625555621546 -5.593935076390402 -0.27011959132682767 0.4575280495987818 0.1750586606587423 2.932906208930049 -0.7144130313197573 -0.10019216228912141
4.928163528442383 -1.4466675904444237 1.7380970160113733 4.5027100282856445 -1.4549506346331995 -5.593935076390402 -0.2708396290417643 0.45710864082630187 0.17505459091735642 2.93338193404941 -0.7121019482809181 -0.10003870763809891
4.929368495941162 -1.4467274409583588 1.7380731741534632 4.5027100282856445 -1.4549506346331995 -5.593923155461447 -0.27139217686164463 0.45679076537058116 0.17509557378516674 2.933843564620064 -0.710353693787278 -0.09998354508405208
4.930177688598633 -1.4466675978950043 1.7381332556353968 4.5027100282856445 -1.4549148718463343 -5.593899075184957 -0.27176668902130263 0.45654553793949054 0.17503938052145274 2.933976145458022 -0.7091794505834925 -0.09987161014194579
4.930603504180908 -1.446667568092682 1.7381332556353968 4.502734346980713 -1.4549267927752894 -5.593958918248312 -0.27195612662603225 0.4564234626581889 0.1750371241946837 2.9341221248788556 -0.7084621445901083 -0.09980479227937332
4.930670261383057 -1.4466312539628525 1.7380731741534632 4.502734346980713 -1.4549506346331995 -5.593935076390402 -0.27198525528865347 0.45643123161890464 0.17504517537632727 2.9341668902593407 -0.7084027602915991 -0.09978072696476532
4.930610656738281 -1.4466189605048676 1.7381332556353968 4.502746267909668 -1.4549387137042444 -5.593958918248312 -0.27195537286017935 0.45641938313142766 0.17501129704080448 2.9340774767782523 -0.7084448737324455 -0.09974631280989228
4.9306464195251465 -1.4465588939240952 1.7381084601031702 4.5027100282856445 -1.4549506346331995 -5.593946997319357 -0.27197300800926266 0.456431511668485 0.1749945607817825 2.934091152766681 -0.7084101676124225 -0.09972654236373919
4.930622577667236 -1.4465353798917313 1.7381446997271937 4.502758188838623 -1.4549267927752894 -5.593982998524801 -0.27196261539259586 0.45640840677452005 0.17496342605682869 2.9339916664993955 -0.7083785019230422 -0.09968963810010506
4.9306464195251465 -1.4465355587056656 1.7381446997271937 4.502734346980713 -1.4549625555621546 -5.593923155461447 -0.27196492100722847 0.45641098144500275 0.17496416617224958 2.934014686292707 -0.708435400005763 -0.09965038470494696
4.930622577667236 -1.4465595719269295 1.738180939351217 4.502770109767578 -1.4549387137042444 -5.593946997319357 -0.2719552094341154 0.4563908852697635 0.17495796191496912 2.93396274335 -0.7084287528802171 -0.09965372569090157
4.930634498596191 -1.4465716195157547 1.7381208578692835 4.502746267909668 -1.4549625555621546 -5.593971077595846 -0.2719607267273495 0.45641987871316125 0.17499223172476863 2.9340709624575125 -0.7083889527684025 -0.09968905481403599
4.9306464195251465 -1.4465474647334595 1.738157097493307 4.502746267909668 -1.4549625555621546 -5.593946997319357 -0.27196302507507764 0.45640242808767817 0.17496366440032354 2.934013007584071 -0.7083991108557449 -0.09964402815801691
