qblc7/bachelorproject/Testdaten/kurve_c1/robot_c1.csv
actual_q_0 actual_q_1 actual_q_2 actual_q_3 actual_q_4 actual_q_5 actual_TCP_pose_0 actual_TCP_pose_1 actual_TCP_pose_2 actual_TCP_pose_3 actual_TCP_pose_4 actual_TCP_pose_5
5.444675445556641 -1.2990859311870118 1.9172027746783655 4.947968470841207 -1.4586203734027308 -5.591660801564352 -0.3112256824358539 0.0985321500809794 0.07888479147011415 2.361626027655918 -0.009993172267343479 0.6023314636592672
5.444711208343506 -1.299098090534546 1.9172266165362757 4.947968470841207 -1.458632771168844 -5.591684881840841 -0.31121915973033654 0.0985152005569714 0.0788839661859026 2.3616218788375325 -0.009916691554711154 0.6023575570338999
5.4446516036987305 -1.299098090534546 1.9172142187701624 4.947980391770162 -1.4586203734027308 -5.591672960911886 -0.3112181237455417 0.0985337696096988 0.07888811413097174 2.3616109204749325 -0.010007810625515859 0.6023219203936446
5.4446635246276855 -1.2991220516017457 1.917177979146139 4.947980391770162 -1.4586203734027308 -5.591672960911886 -0.3112325917115591 0.09854485719289406 0.07890092477000374 2.361667851640939 -0.00998931583831592 0.602285816800811
5.4446635246276855 -1.2990740102580567 1.917166535054342 4.947944628983297 -1.4585965315448206 -5.591672960911886 -0.3112455335249905 0.09854894418878138 0.07888436956076994 2.3616579569252254 -0.010002067730148856 0.6022626384936717
5.444639205932617 -1.299110011463501 1.9172027746783655 4.948028313904562 -1.4585965315448206 -5.591660801564352 -0.3112183441695997 0.09852891669408151 0.07890117726335491 2.361579112755609 -0.010051639332148051 0.6023151484515344
5.4446635246276855 -1.299110011463501 1.917177979146139 4.948004472046652 -1.4585846106158655 -5.591672960911886 -0.3112359049606128 0.09853306634201986 0.07890194717517718 2.3616210108104503 -0.010011308201318734 0.602275316478044
5.444675445556641 -1.2990859311870118 1.9171913305865687 4.947980391770162 -1.4586084524737757 -5.591684881840841 -0.311230094269004 0.09853190270014893 0.07888876992978844 2.361617973048602 -0.009971225512889 0.6023083313796722
5.444675445556641 -1.2991220516017457 1.9172504583941858 4.947968470841207 -1.4586203734027308 -5.591672960911886 -0.31121198075108353 0.09851688605286042 0.07888698162233632 2.3616138576220984 -0.009979610623533714 0.6023336469344349
5.444675445556641 -1.299110011463501 1.9172142187701624 4.947968470841207 -1.4586084524737757 -5.591696564351217 -0.3112260119783632 0.09852734949621447 0.07888990525010503 2.3616285253718132 -0.009956379034928827 0.6022935873706643
5.444675445556641 -1.299110011463501 1.917177979146139 4.947980391770162 -1.4586084524737757 -5.591660801564352 -0.31123584640826696 0.09853830280598626 0.0788977840260669 2.3616554177603906 -0.009996910905592876 0.6022939092762135
5.444687366485596 -1.2991460126689454 1.917177979146139 4.947980391770162 -1.4586685339557093 -5.591648880635397 -0.3112251556261494 0.09854739310598408 0.07890666457471329 2.3617146088091236 -0.009961963869633914 0.6023402009735898
5.444687366485596 -1.2990859311870118 1.9171913305865687 4.947980391770162 -1.458632771168844 -5.591696564351217 -0.31122564979035 0.0985324676228479 0.0788882615907408 2.36162741943633 -0.009930284214550004 0.6023326648439293
5.4446635246276855 -1.299110011463501 1.9172027746783655 4.9479925511176965 -1.4586203734027308 -5.591696564351217 -0.31122158119320203 0.09853260198396942 0.07889523587437594 2.361619850455499 -0.009965084724302556 0.6023085104274792
5.4446516036987305 -1.2991220516017457 1.9171913305865687 4.947980391770162 -1.4586084524737757 -5.591660801564352 -0.3112297685452107 0.09854156899711655 0.07889893952873389 2.3616509410767197 -0.01002513254342043 0.6022833402183875
5.444699287414551 -1.2990859311870118 1.9172027746783655 4.9479925511176965 -1.458632771168844 -5.591672960911886 -0.3112208910766331 0.09852215394713303 0.07888819724229074 2.3616103829885025 -0.009945883665604413 0.6023661828000402
5.4446635246276855 -1.299110011463501 1.917177979146139 4.947944628983297 -1.458632771168844 -5.591672960911886 -0.3112354028921609 0.09855335096646935 0.07889183336260491 2.3616943677660327 -0.009980756439045583 0.6022816609173284
5.4446516036987305 -1.2990859311870118 1.9172266165362757 4.9479925511176965 -1.4586203734027308 -5.591648880635397 -0.3112111950176599 0.0985260593954266 0.07888446713829347 2.3615802636675176 -0.010039014103102107 0.6023590414916801
5.4446516036987305 -1.299098090534546 1.9172027746783655 4.948004472046652 -1.458632771168844 -5.591648880635397 -0.31121475739298776 0.09853539586982972 0.07889343487563802 2.3616071267874514 -0.010030637476429474 0.6023546550860956
5.444675445556641 -1.2990740102580567 1.917177979146139 4.947980391770162 -1.4586084524737757 -5.591684881840841 -0.31123382945742795 0.09853606421500824 0.07888764778901655 2.3616192875657425 -0.009971134744260637 0.6023073366542194
5.444687366485596 -1.2991220516017457 1.917177979146139 4.947968470841207 -1.4586203734027308 -5.591696564351217 -0.3112370579402788 0.09853979107751584 0.07889911067301977 2.361679064303037 -0.009932360669174307 0.6022776410632693
5.444675445556641 -1.299110011463501 1.9172504583941858 4.947932469635763 -1.4586446920977991 -5.591660801564352 -0.3112120795942529 0.09852752213349694 0.0788776046165823 2.361646697447053 -0.009978990076165149 0.6023470526259009
5.4446516036987305 -1.299110011463501 1.917177979146139 4.9479925511176965 -1.4585965315448206 -5.591696564351217 -0.31123409247303185 0.0985412263209208 0.07889988371319323 2.3616318751208603 -0.009990156503146691 0.6022617909265628
5.444675445556641 -1.299098090534546 1.9172027746783655 4.947968470841207 -1.4586203734027308 -5.591672960911886 -0.31122636370813345 0.09853290621758516 0.07888821485364139 2.3616356488312635 -0.009977905257011267 0.6023171567242477
5.444723129272461 -1.2991220516017457 1.917239014302389 4.948004472046652 -1.4586566130267542 -5.591660801564352 -0.311205686371895 0.09850551018994523 0.07889361846407625 2.361613260514681 -0.009920191598741874 0.6024156375842945
5.444675445556641 -1.2990740102580567 1.9171550909625452 4.948004472046652 -1.4586203734027308 -5.591660801564352 -0.3112343472901231 0.09854180901300885 0.07889489349068451 2.36162582389336 -0.009993382261905003 0.6023316417975971
5.4446516036987305 -1.299110011463501 1.917239014302389 4.947968470841207 -1.4586446920977991 -5.591708485280172 -0.3112071121127955 0.09853203463460442 0.07888499865599685 2.3616148164295034 -0.009952769826634629 0.6023296908749397
5.444687366485596 -1.299110011463501 1.9172142187701624 4.947968470841207 -1.4586566130267542 -5.591660801564352 -0.3112160586538448 0.09853210583957568 0.07888889863322127 2.36165312455907 -0.009958674723459252 0.6023645121137242
5.444699287414551 -1.2991220516017457 1.9172027746783655 4.9479925511176965 -1.4585965315448206 -5.591660801564352 -0.3112312881740169 0.0985180291105805 0.0788991240762491 2.361631250893104 -0.009977044840374079 0.6023108418390202
5.444687366485596 -1.299098090534546 1.9172142187701624 4.947968470841207 -1.458632771168844 -5.591648880635397 -0.31122089953689636 0.0985271731811429 0.07888604070375552 2.3616345767380933 -0.009986456147571647 0.6023547947734736
5.444711208343506 -1.299098090534546 1.917177979146139 4.947968470841207 -1.4586203734027308 -5.591625038777487 -0.3112380648110014 0.09853088075848734 0.07889236426425925 2.3616694289451337 -0.009990498781659102 0.6023402190055636
5.444675445556641 -1.299110011463501 1.9172142187701624 4.947980391770162 -1.4585965315448206 -5.591684881840841 -0.31122664972899966 0.09852289970657588 0.07889196872374551 2.361614509241037 -0.009977517543236985 0.6022956317002858
5.444675445556641 -1.299098090534546 1.9172027746783655 4.947980391770162 -1.4586084524737757 -5.591660801564352 -0.31122700144003856 0.09852845640032512 0.07889027830506293 2.3616216931821774 -0.009999606923633865 0.6023194307531191
5.444675445556641 -1.299098090534546 1.9172027746783655 4.9479925511176965 -1.4586084524737757 -5.591625038777487 -0.31122484238493925 0.09852605509915167 0.07889212887680247 2.36161507895418 -0.010042804592743357 0.6023451091306813
5.444675445556641 -1.299098090534546 1.917239014302389 4.947980391770162 -1.458632771168844 -5.591684881840841 -0.31120943101384363 0.09851942369274723 0.07888370611356976 2.3615946392975267 -0.009960736431265509 0.6023572426005401
5.4446516036987305 -1.2990740102580567 1.9172142187701624 4.947944628983297 -1.4585965315448206 -5.591684881840841 -0.3112286335803697 0.09853514385290477 0.07887639016288206 2.361611005922237 -0.010005538127658125 0.6022843020961113
5.4446516036987305 -1.299098090534546 1.917239014302389 4.948004472046652 -1.4586203734027308 -5.591660801564352 -0.31120567116405773 0.0985199086084859 0.07888763037694488 2.361567582547896 -0.010025864539775138 0.6023617568145232
5.444687366485596 -1.299110011463501 1.9171913305865687 4.948004472046652 -1.4586084524737757 -5.591672960911886 -0.31122834207675953 0.09852493435631536 0.07889921439673994 2.3616211341801217 -0.009971330660820316 0.6023198220702098
5.444699287414551 -1.2990740102580567 1.9172027746783655 4.948004472046652 -1.4586203734027308 -5.591672960911886 -0.31122097099428725 0.09851687903861364 0.07888691460817551 2.361583748864731 -0.00995436200272989 0.6023704122802378
5.444699287414551 -1.299098090534546 1.9171550909625452 4.948004472046652 -1.458632771168844 -5.591672960911886 -0.31123518107996784 0.09853806528924292 0.07890141431088679 2.3616544055681787 -0.009942427776143271 0.6023328768121877
5.444675445556641 -1.299110011463501 1.917177979146139 4.947980391770162 -1.4586203734027308 -5.591625038777487 -0.3112330919450045 0.09854039839474589 0.07889753481562464 2.3616645253765007 -0.010032754096201392 0.6023230024729821
5.444687366485596 -1.2990859311870118 1.917177979146139 4.948004472046652 -1.458632771168844 -5.591684881840841 -0.3112257770761609 0.09853261488065122 0.07889416062941818 2.361619061088191 -0.009944989021769596 0.6023457566814302
5.444675445556641 -1.299098090534546 1.9172266165362757 4.947932469635763 -1.4585965315448206 -5.591672960911886 -0.3112304024804329 0.09852706977049355 0.0788792447254052 2.3616376872586944 -0.009989651658600612 0.6022849481390514
5.444687366485596 -1.299110011463501 1.9172027746783655 4.948004472046652 -1.4586084524737757 -5.591708485280172 -0.3112245680010575 0.09852073204904152 0.07889729936071216 2.361606102072729 -0.00993019969634798 0.6023106694561186
5.444687366485596 -1.299098090534546 1.9172142187701624 4.9479925511176965 -1.458632771168844 -5.591684881840841 -0.31121662370922637 0.09852241771971124 0.07888970561077233 2.3616078867914667 -0.009945804108636618 0.6023542045908329
5.444639205932617 -1.299110011463501 1.9171913305865687 4.9479925511176965 -1.458632771168844 -5.591684881840841 -0.31122009409916085 0.09854655229538238 0.07889689180078141 2.3616332517434806 -0.010000089268279666 0.6023068177439709
5.444687366485596 -1.2991220516017457 1.9172027746783655 4.948016392975607 -1.4586566130267542 -5.591696564351217 -0.3112119978965075 0.09852759289475087 0.07890149679240377 2.3616261448562867 -0.009918434589222945 0.6023642943402974
5.444675445556641 -1.299110011463501 1.917166535054342 4.947968470841207 -1.4585965315448206 -5.591660801564352 -0.31124449170057583 0.09854276388505981 0.07889813442404217 2.361672316157355 -0.010001551283378669 0.6022657916090791
5.444699287414551 -1.299098090534546 1.9172266165362757 4.947968470841207 -1.4586446920977991 -5.591684881840841 -0.3112152309294637 0.09852100627022418 0.07888371704422881 2.361624800846835 -0.009924354183396308 0.6023636882082644
5.444675445556641 -1.2991220516017457 1.9172142187701624 4.947956549912252 -1.4586566130267542 -5.591684881840841 -0.31121767537130524 0.09853891877923261 0.07889047421555984 2.361670428414821 -0.009942473354950696 0.6023305170363701
5.444675445556641 -1.299110011463501 1.9171913305865687 4.947968470841207 -1.4586084524737757 -5.591648880635397 -0.3112335601279763 0.09853575431039169 0.07889373547635625 2.3616556154950556 -0.010011039431836944 0.6023006398675373
5.444699287414551 -1.2991220516017457 1.917239014302389 4.947968470841207 -1.4586446920977991 -5.591672960911886 -0.31121248474191526 0.09851794371692826 0.07888838827883668 2.361636938283729 -0.009937564840893278 0.6023613920438802
5.4446635246276855 -1.299110011463501 1.9172142187701624 4.948028313904562 -1.4586203734027308 -5.591684881840841 -0.3112114571891745 0.09852133691437834 0.07889876396141396 2.361577989949225 -0.009982512274239517 0.6023469612392747
5.4446635246276855 -1.2991220516017457 1.9172266165362757 4.947932469635763 -1.458632771168844 -5.591648880635397 -0.3112221968393539 0.09853864053740918 0.07888523319276716 2.3616749788650533 -0.01001091551416544 0.6023102393881151
5.4446635246276855 -1.299110011463501 1.9172142187701624 4.947980391770162 -1.4586203734027308 -5.591648880635397 -0.311219966216399 0.09853080088280544 0.07889147029627078 2.3616265691119214 -0.010021304242110833 0.6023309715181562
5.444675445556641 -1.2991220516017457 1.9171913305865687 4.948004472046652 -1.4586203734027308 -5.591660801564352 -0.3112250875555264 0.09853148865872426 0.0789023549950571 2.3616366619872666 -0.009992464764046569 0.602323440007839
5.4446516036987305 -1.299110011463501 1.9171550909625452 4.947944628983297 -1.4586446920977991 -5.591648880635397 -0.3112390214743468 0.09856756172335006 0.07889541495791738 2.3617213770002476 -0.010015197449714689 0.6022834781844976
5.444687366485596 -1.299098090534546 1.9171913305865687 4.947980391770162 -1.4586084524737757 -5.591708485280172 -0.3112319500876711 0.09852894863380902 0.07889219334694408 2.361627773324977 -0.00992836888813943 0.6022942541081606
5.444687366485596 -1.2991220516017457 1.917177979146139 4.947980391770162 -1.458632771168844 -5.591672960911886 -0.3112320765203605 0.09853961627809647 0.07890066561626491 2.3616758630745007 -0.009954512918709269 0.6023096444470761
5.444687366485596 -1.2990859311870118 1.9172266165362757 4.947968470841207 -1.4586203734027308 -5.591660801564352 -0.3112189941484051 0.0985196849425219 0.07888080208146661 2.361605763832546 -0.00998084424537127 0.602353776717914
5.444675445556641 -1.299098090534546 1.9171550909625452 4.947980391770162 -1.4586203734027308 -5.591648880635397 -0.3112399721687466 0.09854806188560913 0.07889800885915885 2.3616715665891768 -0.01000380017638062 0.6023038977291387
5.4446516036987305 -1.299098090534546 1.9171913305865687 4.947980391770162 -1.4586203734027308 -5.591636959706442 -0.31122567170140136 0.09854217461108532 0.0788919441436414 2.3616365238478174 -0.01004866988550893 0.6023233477945659
5.4446635246276855 -1.299110011463501 1.9172266165362757 4.947944628983297 -1.4586203734027308 -5.591684881840841 -0.3112222278067137 0.09853331099481379 0.07888395298705256 2.3616434359386336 -0.009976888897660402 0.6022973813757571
5.4446635246276855 -1.299110011463501 1.9172142187701624 4.947980391770162 -1.458632771168844 -5.591648880635397 -0.31121710156082205 0.09853298028166943 0.07889121115670103 2.3616313092273438 -0.010014641120510471 0.6023433182381743
5.444675445556641 -1.2991220516017457 1.917177979146139 4.9479925511176965 -1.4586446920977991 -5.591648880635397 -0.3112259882669258 0.09854302071535172 0.07890226688251067 2.3616706853744627 -0.009991573102211023 0.6023358280049534
5.4446516036987305 -1.299110011463501 1.9172504583941858 4.947956549912252 -1.4586203734027308 -5.591660801564352 -0.31121107390457964 0.09852591139949007 0.0788817777337237 2.3616120190709617 -0.010022077919336167 0.6023280992687546
5.444687366485596 -1.299098090534546 1.9171913305865687 4.9479925511176965 -1.458632771168844 -5.591636959706442 -0.3112241719412869 0.0985308224239786 0.07889353554282144 2.3616350083467594 -0.010000745941106873 0.6023613725435195
5.444675445556641 -1.299098090534546 1.9172504583941858 4.9479925511176965 -1.4586203734027308 -5.591660801564352 -0.3112063625196536 0.09851064055855928 0.07888390120227187 2.3615712876378745 -0.00999763176139126 0.6023729030392527
5.444687366485596 -1.2991339725307007 1.9171913305865687 4.9479925511176965 -1.4586446920977991 -5.591684881840841 -0.3112234276959913 0.09853514909633435 0.07890338876043587 2.361666425484009 -0.009935062306778234 0.6023252271815431
5.444675445556641 -1.299110011463501 1.917142693196432 4.947944628983297 -1.4586084524737757 -5.591672960911886 -0.3112538334401079 0.09855832303250756 0.07889824763897649 2.361719115924446 -0.009977177514518668 0.602238653873198
5.444675445556641 -1.299110011463501 1.9172027746783655 4.9479925511176965 -1.4586203734027308 -5.591672960911886 -0.3112227557713393 0.09852889192666503 0.07889523587437594 2.361624489321602 -0.009978899395707161 0.6023256175708727
5.4446635246276855 -1.299110011463501 1.9172504583941858 4.947968470841207 -1.4586446920977991 -5.591672960911886 -0.31120451259970155 0.09852412223153884 0.07888308378969361 2.3616104604164527 -0.009981503271972544 0.6023604932437167
5.4446635246276855 -1.299098090534546 1.9172142187701624 4.947968470841207 -1.4585846106158655 -5.591648880635397 -0.31122967856771033 0.09852612726879045 0.0788870475253447 2.3616128910681002 -0.010040479190524578 0.6022953514830701
5.444675445556641 -1.2990740102580567 1.9172504583941858 4.948028313904562 -1.4586084524737757 -5.591696564351217 -0.3112014179072219 0.09849998517424328 0.07888281523662058 2.3615072267573614 -0.009966368909927465 0.6023854145598255
5.444675445556641 -1.299110011463501 1.917166535054342 4.9479925511176965 -1.4586446920977991 -5.591672960911886 -0.3112290878004386 0.09854647445656553 0.07890079217647136 2.361667074464166 -0.009963182251449756 0.6023246463603749
5.444687366485596 -1.299110011463501 1.9172142187701624 4.947956549912252 -1.4586203734027308 -5.591672960911886 -0.31122654883216505 0.09852808922987635 0.07888784183434044 2.361648666827489 -0.009962856731253559 0.6023142757129621
5.444675445556641 -1.299098090534546 1.9171913305865687 4.947968470841207 -1.4586084524737757 -5.591708485280172 -0.31123289225815487 0.09853501304925409 0.07889037913527355 2.3616370828397923 -0.009941508312063582 0.6022802231722565
5.444687366485596 -1.2991220516017457 1.9172142187701624 4.947968470841207 -1.4586084524737757 -5.591660801564352 -0.31122786105474753 0.09852438805585391 0.0788932950306582 2.361645769914178 -0.009983664965989441 0.6023081809145762
5.4446635246276855 -1.299110011463501 1.9172142187701624 4.947932469635763 -1.4585846106158655 -5.591684881840841 -0.3112367389890083 0.09853397851230876 0.07888492496430491 2.361652313861913 -0.009994254291915496 0.6022446914201895
5.444711208343506 -1.2990859311870118 1.917239014302389 4.947980391770162 -1.458632771168844 -5.591696564351217 -0.31121227280814356 0.09850753776001939 0.07888028298960803 2.361586890741489 -0.009905629046807262 0.6023772903216552
5.4446635246276855 -1.2991339725307007 1.9171913305865687 4.947980391770162 -1.4586446920977991 -5.591684881840841 -0.3112232374379097 0.09854497061218571 0.07890153833084779 2.361674318253893 -0.009962253725034087 0.602305290219958
5.444675445556641 -1.2991460126689454 1.9171913305865687 4.947956549912252 -1.4586203734027308 -5.591636959706442 -0.3112349392988306 0.09854244266503312 0.07890180845265493 2.3617057011973444 -0.010015115182396221 0.6022849371158435
5.4446635246276855 -1.2991339725307007 1.9172142187701624 4.947980391770162 -1.4586203734027308 -5.591696564351217 -0.31122130857217917 0.09853229078414225 0.07889821622450233 2.361642510517617 -0.009963193878513393 0.6022913548572357
5.444675445556641 -1.299098090534546 1.9172266165362757 4.947956549912252 -1.458632771168844 -5.591660801564352 -0.3112177530783134 0.0985286847799136 0.07888215189323591 2.3616309812662832 -0.009986418430433871 0.6023436408108563
5.444675445556641 -1.299110011463501 1.9171913305865687 4.947980391770162 -1.4586084524737757 -5.591660801564352 -0.31123144336425035 0.09853340004587467 0.0788955496502858 2.361643154105193 -0.00999788627969039 0.6023031900093767
5.444639205932617 -1.2991339725307007 1.9172027746783655 4.9479925511176965 -1.458632771168844 -5.591684881840841 -0.3112176624715068 0.09854383965814953 0.07890172271424276 2.361644748026137 -0.009999147444333233 0.6022981183136573
5.4446635246276855 -1.299110011463501 1.917239014302389 4.947980391770162 -1.4585965315448206 -5.591672960911886 -0.31121729813664245 0.09851750446207914 0.07888781967526232 2.3615916146418976 -0.010007481709004331 0.6023128668079049
5.444699287414551 -1.299110011463501 1.9171913305865687 4.947944628983297 -1.4586203734027308 -5.591696564351217 -0.3112373885890221 0.09853513803098016 0.0788898580247118 2.361679266988559 -0.0099182992894888 0.6022844497408502
5.444675445556641 -1.2991460126689454 1.9171913305865687 4.947980391770162 -1.4586446920977991 -5.591648880635397 -0.31122508662191695 0.09854200910885026 0.07890492822307607 2.361691593419117 -0.009989822221704928 0.6023199974700174
5.4446516036987305 -1.299050049190857 1.9172266165362757 4.947920548706808 -1.4585846106158655 -5.591696564351217 -0.3112302324554724 0.09853176079352452 0.07886415408592892 2.361593675115868 -0.009998948884191219 0.6022753294751526
5.444675445556641 -1.299110011463501 1.9172142187701624 4.9479925511176965 -1.458632771168844 -5.591660801564352 -0.3112161170835013 0.09852686897112879 0.07889306173406585 2.361620264549579 -0.009987436810108283 0.6023517744289054
5.444675445556641 -1.2991220516017457 1.917239014302389 4.948016392975607 -1.4585726896869105 -5.591696564351217 -0.31121826374413036 0.09850324250768279 0.07889718714609972 2.3615591374249645 -0.009980258401579149 0.6023001653623181
5.444687366485596 -1.2990740102580567 1.9171913305865687 4.9479925511176965 -1.4586084524737757 -5.591684881840841 -0.3112284418525221 0.0985250499859524 0.07888726426301751 2.361597495597623 -0.009958989493957569 0.602330813967559
5.4446635246276855 -1.299110011463501 1.9172266165362757 4.947968470841207 -1.4586566130267542 -5.591672960911886 -0.3112096208173048 0.0985349730878503 0.07888682404941111 2.3616369178506758 -0.00997335504275163 0.6023557932890269
5.444639205932617 -1.299110011463501 1.917177979146139 4.948004472046652 -1.4585965315448206 -5.591636959706442 -0.3112307540949629 0.09854273059618315 0.07890169791764529 2.361626810469659 -0.010076134539168237 0.6022928141728773
5.444687366485596 -1.299098090534546 1.9171550909625452 4.947932469635763 -1.4586084524737757 -5.591684881840841 -0.3112524110772835 0.09855172025650216 0.07889096563208986 2.361708061737365 -0.009949865489195837 0.6022471014880596
5.444699287414551 -1.299061970119812 1.9171302954303187 4.9479925511176965 -1.458632771168844 -5.591672960911886 -0.3112434515575928 0.09854727852673714 0.07889357948191622 2.3616549498441883 -0.009942366678589817 0.6023324570721375
5.4446635246276855 -1.2991220516017457 1.9172266165362757 4.947980391770162 -1.458632771168844 -5.591660801564352 -0.3112136875697726 0.09852917630303441 0.0788925262669585 2.3616294635492547 -0.010000570257576431 0.6023378266178194
5.444699287414551 -1.299098090534546 1.917166535054342 4.948004472046652 -1.4586446920977991 -5.591660801564352 -0.31122865259939625 0.09853595876009096 0.07889924999587153 2.361649998823272 -0.009951221745684713 0.6023585588401862
5.444711208343506 -1.2991220516017457 1.9172266165362757 4.947968470841207 -1.4585965315448206 -5.591636959706442 -0.3112288756287631 0.09851031965056355 0.07889146958966306 2.361636129235603 -0.009991004230662128 0.6023278892970342
5.4446516036987305 -1.2991460126689454 1.9172142187701624 4.948016392975607 -1.4586446920977991 -5.591660801564352 -0.31120879683227193 0.09853391438319167 0.07890657662280484 2.361632727400138 -0.010008358193730853 0.6023437229433279
5.4446635246276855 -1.299110011463501 1.9172027746783655 4.947968470841207 -1.458632771168844 -5.591672960911886 -0.3112229923089268 0.09853953700965717 0.07889131197750934 2.3616497024007472 -0.009984427459346324 0.6023154772431121
5.444699287414551 -1.2990859311870118 1.9172027746783655 4.947956549912252 -1.458632771168844 -5.591660801564352 -0.31122728375471576 0.09852926354249178 0.07888271807501879 2.3616449841195184 -0.009957439478882014 0.6023470009970721
5.4446516036987305 -1.2991220516017457 1.917166535054342 4.947944628983297 -1.458632771168844 -5.591696564351217 -0.31123867649309017 0.09856201232299575 0.07889713884718541 2.361711299525883 -0.009965211981201127 0.6022482315528913
5.444675445556641 -1.299110011463501 1.9172027746783655 4.947980391770162 -1.4586446920977991 -5.591672960911886 -0.3112192957837547 0.09853556831913052 0.0788928770463688 2.3616449507989175 -0.009964880708364827 0.6023413800805856
5.444699287414551 -1.299110011463501 1.917239014302389 4.9479925511176965 -1.4586203734027308 -5.591648880635397 -0.311213153249577 0.09850816444309048 0.07888917191555028 2.3615975373795512 -0.009981855089165482 0.602373885259841
5.444675445556641 -1.299098090534546 1.9172027746783655 4.9479925511176965 -1.4586446920977991 -5.591708485280172 -0.31121646884558296 0.09853242574202759 0.07889137140303784 2.3616183167937272 -0.009924746377298278 0.6023410147016278
5.444675445556641 -1.2990740102580567 1.917177979146139 4.948004472046652 -1.458632771168844 -5.591648880635397 -0.3112239345873271 0.09853558371665547 0.07889080435466897 2.361611056922015 -0.010002473814706614 0.6023656385730629
5.444675445556641 -1.299098090534546 1.917177979146139 4.947956549912252 -1.4586084524737757 -5.591696564351217 -0.31123941211613826 0.09854227012967103 0.07889079934310964 2.3616618081850187 -0.009953685536407814 0.6022683927432966
5.444639205932617 -1.2991460126689454 1.9172027746783655 4.947968470841207 -1.4585726896869105 -5.591672960911886 -0.3112364955888336 0.09853878292584922 0.07890270416324857 2.361656459873933 -0.010042747670473627 0.6022189083893746
5.444675445556641 -1.2991460126689454 1.9172142187701624 4.947980391770162 -1.4586446920977991 -5.591660801564352 -0.3112175385805657 0.09853360441544659 0.07890109768220868 2.361669053039101 -0.009977410456748865 0.6023301669588936
5.444675445556641 -1.299110011463501 1.9172142187701624 4.947968470841207 -1.4586084524737757 -5.591660801564352 -0.3112260119783632 0.09852734949621447 0.07888990525010503 2.3616330755022426 -0.00999862826173144 0.6023108091825587
5.444699287414551 -1.299098090534546 1.9172142187701624 4.948004472046652 -1.4585846106158655 -5.591672960911886 -0.3112268093258548 0.09850788724333888 0.07889252675773575 2.361581681776768 -0.00997263246052638 0.6023260148427569
5.444675445556641 -1.2991220516017457 1.9172142187701624 4.947956549912252 -1.458632771168844 -5.591660801564352 -0.31122318420928 0.09853472746902127 0.07889097249932547 2.361664377094169 -0.00998373508488225 0.6023183685670057
5.4446516036987305 -1.299098090534546 1.917177979146139 4.947980391770162 -1.4586203734027308 -5.591672960911886 -0.31123007464848335 0.09854707749848894 0.07889417843710328 2.3616442079563216 -0.010005163616653791 0.6022967308177044
5.444699287414551 -1.2991220516017457 1.9171913305865687 4.9479925511176965 -1.4586446920977991 -5.591660801564352 -0.31122393449390334 0.09853069785733665 0.07890003248194535 2.3616601761982277 -0.009950325062069026 0.6023508491054584
5.444675445556641 -1.299098090534546 1.9172027746783655 4.947968470841207 -1.4586084524737757 -5.591636959706442 -0.3112291181754343 0.09853081063331061 0.07888846405716143 2.3616356711414475 -0.010026843085226505 0.6023226214056244
5.4446516036987305 -1.299098090534546 1.9172027746783655 4.948004472046652 -1.4586203734027308 -5.591696564351217 -0.3112176220789757 0.09853321651006038 0.07889369400781865 2.361596320481428 -0.00998096907679185 0.6023193452919021
5.444687366485596 -1.299098090534546 1.9172027746783655 4.948004472046652 -1.4585965315448206 -5.591660801564352 -0.31122665461684906 0.09851789524336922 0.07889419242108106 2.3615966625535685 -0.009993823136488595 0.6023300465167634
5.4446635246276855 -1.299110011463501 1.9172142187701624 4.947968470841207 -1.4586446920977991 -5.591696564351217 -0.31121646381622964 0.09853743014989827 0.07888914775474148 2.3616407448084553 -0.009950971898784458 0.6023239376205289
5.444675445556641 -1.299110011463501 1.9171913305865687 4.947956549912252 -1.4585965315448206 -5.591672960911886 -0.3112384313849957 0.09853601302605176 0.07889217058075707 2.3616589388479876 -0.00998806776665681 0.6022688815461289
5.4446516036987305 -1.2991220516017457 1.9172027746783655 4.948004472046652 -1.4586446920977991 -5.591672960911886 -0.3112133452154543 0.09853898132159852 0.0788999316102327 2.3616306291291154 -0.009994005385339934 0.6023382768108905
5.444675445556641 -1.299098090534546 1.9172142187701624 4.947944628983297 -1.4586203734027308 -5.591684881840841 -0.31122682309974015 0.09853341227092982 0.07888267138146504 2.3616455100857654 -0.009962797968173617 0.6023027900634204
5.444699287414551 -1.299098090534546 1.9172266165362757 4.947980391770162 -1.4586446920977991 -5.591696564351217 -0.31121311416055925 0.09851865211292345 0.0788855313780785 2.3616123689228607 -0.00991148302983129 0.6023663526167502
5.444675445556641 -1.299110011463501 1.917177979146139 4.947968470841207 -1.4586566130267542 -5.591672960911886 -0.31122683527161826 0.09854912343640074 0.07889496323625816 2.3616832291813306 -0.009955732979579456 0.6023277264636993
5.444687366485596 -1.2991220516017457 1.9172027746783655 4.947956549912252 -1.458632771168844 -5.591696564351217 -0.31122813294721274 0.09853521976530147 0.0788928876777886 2.361671973762214 -0.00992657921276549 0.6022989329713462
5.4446635246276855 -1.2990740102580567 1.9172027746783655 4.947968470841207 -1.4586203734027308 -5.591660801564352 -0.3112238398868728 0.09853511882482867 0.07888143522376848 2.3616134425197837 -0.010008126449090009 0.6023340087538556
5.444675445556641 -1.2990740102580567 1.917177979146139 4.947980391770162 -1.458632771168844 -5.591660801564352 -0.3112282103585217 0.09854033923004199 0.07888713944917733 2.36163164908547 -0.009986512392488147 0.6023431513333374
5.4446635246276855 -1.299098090534546 1.9172142187701624 4.9479925511176965 -1.4586084524737757 -5.591708485280172 -0.31121989382142357 0.09852556273538265 0.07889021393651677 2.361592315032274 -0.009959129682931096 0.6023071377343212
5.444675445556641 -1.299110011463501 1.9171550909625452 4.9479925511176965 -1.4585965315448206 -5.591672960911886 -0.3112439897874606 0.09854221053822627 0.0789037142089064 2.361659172530459 -0.009988229175621964 0.6022687286201136
5.444675445556641 -1.299110011463501 1.9171913305865687 4.947968470841207 -1.458632771168844 -5.591672960911886 -0.31122794104104884 0.09854002933877515 0.07889322711637406 2.36166184991467 -0.009969521623344276 0.602313262955858
5.4446635246276855 -1.299110011463501 1.917177979146139 4.947968470841207 -1.4585846106158655 -5.591660801564352 -0.3112422974942805 0.0985401762888757 0.0788964684032506 2.3616556106856503 -0.01002286383225574 0.6022561342590967
5.4446635246276855 -1.2991579335979004 1.9172142187701624 4.947956549912252 -1.4586203734027308 -5.591660801564352 -0.31122688437079177 0.0985384892327683 0.07890133404229349 2.3616909581014847 -0.010001805634049198 0.6022753405003176
5.444675445556641 -1.299110011463501 1.9171913305865687 4.947980391770162 -1.4586203734027308 -5.591720644627706 -0.311228688898778 0.09853549563217713 0.0788953004436074 2.361640097416855 -0.009920782174000378 0.6022862444558409
5.444675445556641 -1.299098090534546 1.9172027746783655 4.947968470841207 -1.458632771168844 -5.591708485280172 -0.311223499080575 0.09853508565286978 0.07888795571064625 2.3616358683895564 -0.009929274482335363 0.6023123966471057
5.444675445556641 -1.2991220516017457 1.9172027746783655 4.947968470841207 -1.4586084524737757 -5.591684881840841 -0.31123046059720544 0.09853230057220384 0.07889521017947054 2.3616515822120245 -0.009968450675658817 0.6022828897182763
5.444699287414551 -1.299110011463501 1.917177979146139 4.947980391770162 -1.4586203734027308 -5.591636959706442 -0.3112354412426969 0.09853297799163412 0.07889753481562464 2.361666280670544 -0.00999053091015165 0.6023287428708659
5.444699287414551 -1.299110011463501 1.9172027746783655 4.9479925511176965 -1.4586084524737757 -5.591636959706442 -0.3112278592141601 0.09851937612246622 0.07889548507431576 2.3616277836130255 -0.009999697686346046 0.6023425637342228
5.444627285003662 -1.299110011463501 1.9171913305865687 4.948004472046652 -1.4586203734027308 -5.591684881840841 -0.3112196674204043 0.09854572868756227 0.07889896519701747 2.361615930957807 -0.010021751915693615 0.6022970203046736
5.444675445556641 -1.299098090534546 1.917166535054342 4.947956549912252 -1.458632771168844 -5.591660801564352 -0.31123756710251965 0.09855074756366528 0.07889220622312842 2.3616861681943577 -0.009982029964861834 0.6023018779185846
5.4446516036987305 -1.299110011463501 1.917177979146139 4.947944628983297 -1.4586084524737757 -5.591696564351217 -0.3112398471985577 0.09855278626582642 0.078892341744313 2.361680431135274 -0.009980010567083438 0.6022403356543325
5.4446635246276855 -1.2991339725307007 1.9172027746783655 4.947968470841207 -1.4586566130267542 -5.591636959706442 -0.31121882578299465 0.09854521816243283 0.07889755981980393 2.3616854065118207 -0.010012368215647442 0.6023399026699057
5.444675445556641 -1.299110011463501 1.917177979146139 4.9479925511176965 -1.458632771168844 -5.591708485280172 -0.31122806821686816 0.09854017647818329 0.07889912612576949 2.36164748450402 -0.00992845710510065 0.6023036224543598
5.444699287414551 -1.299098090534546 1.9172027746783655 4.948016392975607 -1.4586203734027308 -5.591636959706442 -0.3112202034054091 0.09851602224894557 0.07889550837313869 2.3615995024579957 -0.0099960353275175 0.6023793026778558
5.444687366485596 -1.2991339725307007 1.9172027746783655 4.9479925511176965 -1.4586084524737757 -5.591648880635397 -0.3112280270765117 0.0985245760383595 0.07890223106729602 2.3616466388816617 -0.009997906260243588 0.6023144275689645
5.444699287414551 -1.299098090534546 1.9172027746783655 4.947968470841207 -1.4586446920977991 -5.591648880635397 -0.31122309386972236 0.09852976118152948 0.0788877065622528 2.3616512821366134 -0.009965143512584347 0.6023644522410576
5.444687366485596 -1.299110011463501 1.9172027746783655 4.947980391770162 -1.4586203734027308 -5.591684881840841 -0.31122608940566254 0.09852758314943581 0.07889338533761917 2.3616357719293064 -0.009949797829825925 0.6023171613560969
5.444675445556641 -1.299098090534546 1.917177979146139 4.9479925511176965 -1.4586084524737757 -5.591696564351217 -0.3112330194849793 0.09853516024540065 0.07889627813583888 2.3616287547390433 -0.009956494977396617 0.602293429821959
5.444675445556641 -1.299098090534546 1.9172027746783655 4.947980391770162 -1.4585965315448206 -5.591708485280172 -0.311229755926777 0.09852636084440386 0.07889052753216186 2.361611068639531 -0.009949681880024862 0.6022845961447113
5.444687366485596 -1.2991339725307007 1.9172142187701624 4.947968470841207 -1.4586446920977991 -5.591648880635397 -0.31122015547178544 0.09853150005392695 0.07889589374499259 2.3616720918334044 -0.00997738715484377 0.6023417259206917
5.444699287414551 -1.2990859311870118 1.9172142187701624 4.947980391770162 -1.458632771168844 -5.591696564351217 -0.3112192759750622 0.09852035283652796 0.07888443172214196 2.3616080311237617 -0.009917886832777915 0.6023543146804052
5.444675445556641 -1.2991339725307007 1.917177979146139 4.947956549912252 -1.4586446920977991 -5.591684881840841 -0.3112330488234681 0.0985508719225832 0.07890014475829452 2.3617101074055262 -0.0099453483654376 0.6022851689213562
5.444687366485596 -1.299110011463501 1.9171913305865687 4.947956549912252 -1.4586446920977991 -5.591708485280172 -0.31122847811721494 0.09854076914239311 0.07889116381472466 2.361674467312119 -0.009906146602406313 0.602305478620992
5.444699287414551 -1.299110011463501 1.917177979146139 4.947956549912252 -1.4586446920977991 -5.591660801564352 -0.3112340559925957 0.09854196170157879 0.07889339826360603 2.3616944348507865 -0.009947434538530623 0.6023248994003736
5.444699287414551 -1.299098090534546 1.917177979146139 4.947968470841207 -1.458632771168844 -5.591672960911886 -0.31123402563775615 0.0985367705066793 0.07889210511399541 2.3616664356117396 -0.00994129092914536 0.6023237490227527
5.444711208343506 -1.2991220516017457 1.9171550909625452 4.9479925511176965 -1.458632771168844 -5.591648880635397 -0.3112398148721037 0.09853819895616114 0.07890634664983154 2.3616920581659993 -0.00995409778127249 0.602325266885227
5.444699287414551 -1.299110011463501 1.917177979146139 4.947956549912252 -1.4586203734027308 -5.591625038777487 -0.3112396749334359 0.09853768647637837 0.0788939065831604 2.361689686925893 -0.010002754297196768 0.6023179013424247
5.4446635246276855 -1.299098090534546 1.917177979146139 4.947980391770162 -1.4586446920977991 -5.591708485280172 -0.31122563029291583 0.09854764235019799 0.0788936701384812 2.3616506211523323 -0.009936056075899799 0.6023095835966106
5.444687366485596 -1.2991339725307007 1.9172027746783655 4.947968470841207 -1.4586084524737757 -5.591636959706442 -0.3112323030116676 0.09852933161928401 0.07889856647712679 2.3616702639443736 -0.010010110805888586 0.6023034206180301
5.444699287414551 -1.2991460126689454 1.9172142187701624 4.947980391770162 -1.4586203734027308 -5.591648880635397 -0.3112255066655333 0.09852190916724642 0.07890160598767276 2.3616645432658583 -0.009976423514353806 0.6023231693861658
5.444687366485596 -1.299110011463501 1.917239014302389 4.947968470841207 -1.4586203734027308 -5.591696564351217 -0.3112162547104895 0.09851662980734038 0.07888550693343327 2.361611942850788 -0.009937714141701253 0.6023284349517131
5.444687366485596 -1.2991220516017457 1.9172266165362757 4.947980391770162 -1.4586084524737757 -5.591684881840841 -0.3112216556479508 0.09851748128049778 0.07889303460658012 2.3616203734656804 -0.009957053180931694 0.6023134932060651
5.444687366485596 -1.299098090534546 1.9172142187701624 4.947944628983297 -1.4586203734027308 -5.591708485280172 -0.31122799768745313 0.09852970215105097 0.07888267138146504 2.361644142011678 -0.009920843495322617 0.6022971643504474
5.444687366485596 -1.299098090534546 1.917177979146139 4.947980391770162 -1.4586446920977991 -5.591696564351217 -0.3112279797633529 0.09854022212496544 0.0788936701384812 2.361655409057961 -0.009921999407828983 0.6023268050164317
5.444687366485596 -1.2991220516017457 1.917239014302389 4.947968470841207 -1.4586203734027308 -5.591672960911886 -0.3112169293069235 0.09851737851661874 0.07888889656322759 2.361626005129892 -0.009964704875472675 0.602331432894733
5.4446516036987305 -1.2991220516017457 1.9171550909625452 4.948004472046652 -1.4586446920977991 -5.591684881840841 -0.3112290697677781 0.09855649134527968 0.07890791159595073 2.3616729119808997 -0.009976439694836066 0.6022993923153216
5.444711208343506 -1.2990859311870118 1.9171913305865687 4.948004472046652 -1.4586203734027308 -5.591648880635397 -0.3112265875173848 0.09851811251018289 0.0788921856373355 2.3616099099515093 -0.009967019018480362 0.6023715088867635
5.444723129272461 -1.299098090534546 1.9172142187701624 4.947956549912252 -1.4586203734027308 -5.591648880635397 -0.3112294043201558 0.0985162175566484 0.0788844855935601 2.36164568871663 -0.009949979819619158 0.6023513790904794
5.444675445556641 -1.2991220516017457 1.9172266165362757 4.947980391770162 -1.4586084524737757 -5.591660801564352 -0.3112204812059812 0.09852119132477019 0.07889303460658012 2.3616218015847776 -0.009999570576904235 0.6023193486776274
5.4446516036987305 -1.2991220516017457 1.9171913305865687 4.947968470841207 -1.458632771168844 -5.591672960911886 -0.3112262660826761 0.09854819822732201 0.0788966170259858 2.361669637220454 -0.009996768221239336 0.6022934134804061
5.444687366485596 -1.2991339725307007 1.9172142187701624 4.9479925511176965 -1.4585965315448206 -5.591696564351217 -0.3112270074626574 0.09851827814252308 0.07890056515485971 2.361625502419243 -0.009948816843405062 0.6022875483017333
5.444675445556641 -1.2991220516017457 1.917177979146139 4.9479925511176965 -1.4586084524737757 -5.591696564351217 -0.31123436178162345 0.09853665004504351 0.07890302439814767 2.361650762593409 -0.00995471650522069 0.6022767754284183
5.444675445556641 -1.2991460126689454 1.9171913305865687 4.948016392975607 -1.4586203734027308 -5.591684881840841 -0.3112243129890922 0.0985306240829938 0.07891091524224703 2.3616446611975785 -0.009963168839349987 0.6023034800558401
5.444699287414551 -1.2991339725307007 1.917177979146139 4.947944628983297 -1.4586084524737757 -5.591648880635397 -0.3112458886029355 0.09853943491898524 0.07889908833548728 2.361715047601674 -0.009978285593780304 0.6022696022848686
5.444675445556641 -1.299110011463501 1.9172027746783655 4.948016392975607 -1.4586446920977991 -5.591648880635397 -0.311212903268668 0.09852845856292823 0.07889835622175739 2.361614960798148 -0.009996136697451712 0.6023780129231374
5.444675445556641 -1.2991220516017457 1.9171913305865687 4.947968470841207 -1.4585965315448206 -5.591684881840841 -0.3112369891280799 0.09853440738913831 0.07889737463347823 2.361657536043166 -0.00997402114207472 0.60226306286789
5.444711208343506 -1.2991220516017457 1.917177979146139 4.9479925511176965 -1.4586203734027308 -5.591660801564352 -0.3112351311393593 0.09852761506093542 0.07890277518780825 2.3616647775801898 -0.009948349606324305 0.6023230900576536
5.444796085357666 -1.299098090534546 1.917177979146139 4.947980391770162 -1.4586203734027308 -5.591708485280172 -0.311244309645231 0.09850210943254673 0.07889417843710328 2.3616595058413905 -0.009792668219352854 0.6023491988051262
5.444831371307373 -1.299110011463501 1.917166535054342 4.948004472046652 -1.4586203734027308 -5.591660801564352 -0.31124795120131055 0.09849131473418166 0.0789031146565031 2.3616697690591515 -0.009807511596326337 0.6023896581640269
5.444807052612305 -1.299110011463501 1.9172142187701624 4.947980391770162 -1.4586203734027308 -5.591672960911886 -0.3112341049380384 0.09848613109355969 0.07889147029627078 2.361643195543024 -0.009823455846053847 0.6023884920576779
5.444807052612305 -1.2991339725307007 1.9171550909625452 4.947980391770162 -1.4585965315448206 -5.591696564351217 -0.31126045778794886 0.09850513839985364 0.07890861047421038 2.36170739145467 -0.00980228147817125 0.6022956233066226
5.44481897354126 -1.2990859311870118 1.9171913305865687 4.948004472046652 -1.458632771168844 -5.591660801564352 -0.3112343382126831 0.09848675238255457 0.07889192650538074 2.36162791644868 -0.009819082038039842 0.6024300101950146
5.444830894470215 -1.2990859311870118 1.917166535054342 4.947968470841207 -1.4586084524737757 -5.591696564351217 -0.3112557028641644 0.09849497897774644 0.07889110508847691 2.3616715276713585 -0.00977120913975229 0.6023520351924191
5.44481897354126 -1.2991220516017457 1.917142693196432 4.948004472046652 -1.458632771168844 -5.591684881840841 -0.31125240402007937 0.09850685543884291 0.07891023573776665 2.3617027000267123 -0.009784395433340578 0.6023594957287177
5.44481897354126 -1.299110011463501 1.9170706907855433 4.947968470841207 -1.4586566130267542 -5.591660801564352 -0.31127636335744724 0.09854384418207467 0.0789129214532272 2.3618030114645103 -0.009792850211835295 0.6023281085219713
5.444830894470215 -1.2991220516017457 1.9171183745013636 4.947980391770162 -1.4586084524737757 -5.591672960911886 -0.3112714944497649 0.09851255275034451 0.0789111503030388 2.3617409993326186 -0.0097938195496331 0.6023131026452565
5.44479513168335 -1.2991220516017457 1.9170940558062952 4.947980391770162 -1.458632771168844 -5.591672960911886 -0.31127037327720797 0.09853688915457506 0.07891471272905717 2.3617677303092193 -0.009821183793436819 0.6023031955169473
5.4447832107543945 -1.2991579932025452 1.9170940558062952 4.947956549912252 -1.4586084524737757 -5.591696564351217 -0.31128106478900935 0.09854326652083366 0.07892171484288735 2.3618086912861025 -0.009815906324313017 0.6022203036967797
5.4447712898254395 -1.2991340321353455 1.9170454184161585 4.9479925511176965 -1.4586203734027308 -5.591648880635397 -0.31128544046470197 0.09855833166461636 0.07892833837235266 2.3618072986596474 -0.009880941737320166 0.6022572797710009
5.4447712898254395 -1.2991340321353455 1.9169743696795862 4.947968470841207 -1.4586084524737757 -5.591696564351217 -0.3113159029110963 0.09858707721808986 0.07893682130645593 2.361884035229404 -0.009823936351934386 0.6021563062688394
5.444807052612305 -1.2991580230048676 1.9168904463397425 4.947968470841207 -1.458632771168844 -5.591660801564352 -0.3113428311773086 0.09861252096669354 0.07895712738517019 2.36200190612657 -0.00980299086769092 0.6021399325118926
5.44479513168335 -1.2991821330836792 1.9168437162982386 4.947980391770162 -1.4586446920977991 -5.591660801564352 -0.3113535445173102 0.09863462736105165 0.0789733122901404 2.3620589494076185 -0.009806382290922375 0.602105106221326
5.4447832107543945 -1.299206332569458 1.9168556372271937 4.947944628983297 -1.4586084524737757 -5.591660801564352 -0.3113645173393347 0.09863615775801177 0.07897345196379907 2.3620875616585075 -0.009836206526013877 0.6020298585281026
5.44479513168335 -1.299218164091446 1.9168441931353968 4.947968470841207 -1.4585965315448206 -5.591684881840841 -0.3113686483749405 0.09863057694224335 0.07898257778086049 2.362081060554062 -0.009800231407512447 0.6020125351501008
5.44479513168335 -1.2992301446250458 1.9168441931353968 4.947980391770162 -1.4586084524737757 -5.591696564351217 -0.31136444717105055 0.09863106234430057 0.07898751640527077 2.362084192058602 -0.009780064166666613 0.602018748270159
5.4447712898254395 -1.2992183727077027 1.9168556372271937 4.947980391770162 -1.4586203734027308 -5.591660801564352 -0.3113549086179291 0.09863564927180492 0.07898203290680977 2.3620687129584943 -0.009845772836378826 0.6020525012993723
5.4447832107543945 -1.2992544633201142 1.9168551603900355 4.948004472046652 -1.4586203734027308 -5.591696564351217 -0.31135398408323944 0.09862959765712316 0.0789959420735413 2.362077272264727 -0.009788608526005486 0.6020323525794657
5.444807052612305 -1.2992906135371705 1.9167712370501917 4.947968470841207 -1.4585965315448206 -5.591708485280172 -0.31139793735030435 0.09865814611961897 0.07901521888057275 2.3622132300302043 -0.009747548415385276 0.6019058086832692
5.444759368896484 -1.2992663246444245 1.9167478720294397 4.947956549912252 -1.4585965315448206 -5.591708485280172 -0.31140169589081634 0.09868241900609123 0.07901047964763652 2.3622167907658445 -0.009803006323014613 0.6018752077792421
5.4447832107543945 -1.2993143063834687 1.9167354742633265 4.948016392975607 -1.4585965315448206 -5.591720644627706 -0.31140018986027646 0.09867070291440232 0.07903517598752838 2.362219025757428 -0.00976069408078272 0.6018804800445192
5.4447832107543945 -1.2992904347232361 1.91673452058901 4.947956549912252 -1.4586446920977991 -5.591708485280172 -0.31139867356166234 0.09868986065177625 0.07901850464110396 2.362272885149981 -0.009746222362479554 0.6019086045564317
5.444759368896484 -1.2993381482413788 1.9166372458087366 4.947968470841207 -1.4586203734027308 -5.591708485280172 -0.31143456485188353 0.09872932480888523 0.07905058497771544 2.3623825271110106 -0.009777705699897934 0.6017803821073647
5.4447832107543945 -1.2993502479842682 1.9164450804339808 4.947980391770162 -1.4585965315448206 -5.591648880635397 -0.3115043464950184 0.09878664003408942 0.07908854867220086 2.3625609039006035 -0.009818778598923 0.6016630222473252
5.444759368896484 -1.2993987065604706 1.9162638823138636 4.948016392975607 -1.4586566130267542 -5.591708485280172 -0.31154416000479235 0.09886702962841423 0.0791368446180517 2.3627508990719934 -0.009730187763016354 0.6015480552560621
5.444807052612305 -1.299386666422226 1.916060749684469 4.9479925511176965 -1.4586203734027308 -5.591648880635397 -0.3116277795052191 0.09892431622617819 0.07916471050735807 2.3629485129259113 -0.009747961741017944 0.6014140412595999
5.4447712898254395 -1.2994704109481354 1.915832821522848 4.948004472046652 -1.4586084524737757 -5.591684881840841 -0.3117046859472843 0.09901984174430775 0.07922871866076539 2.363209721471522 -0.009732075911289634 0.6011591294109188
5.4447712898254395 -1.2994822424701233 1.9155195395099085 4.947968470841207 -1.4585965315448206 -5.591696564351217 -0.3118177592573999 0.09914055126905413 0.07927956519377319 2.3635352321395207 -0.00969804774157633 0.6008903645914951
5.4447832107543945 -1.299482361679413 1.9150880018817347 4.9479925511176965 -1.4586084524737757 -5.591684881840841 -0.3119541324204849 0.09929250397848305 0.07935569718471494 2.36391713769715 -0.009661679798511753 0.6006299536704587
5.44479513168335 -1.2995303732207795 1.9147289435016077 4.948004472046652 -1.4586203734027308 -5.591696564351217 -0.31207143383403396 0.09942320575617974 0.07943138631446883 2.3642846297732008 -0.009598472618267231 0.6003669062789899
5.4447712898254395 -1.2995303136161347 1.9142487684832972 4.9479925511176965 -1.458632771168844 -5.591708485280172 -0.3122265169737108 0.09961130227853182 0.07951039835423199 2.364736293910596 -0.009569829499269447 0.6000195295080835
5.444759368896484 -1.2995548707297822 1.9136727491961878 4.947956549912252 -1.4586084524737757 -5.591672960911886 -0.3124284594708424 0.09983062664486432 0.07960985606817145 2.3653141594239204 -0.009592169995690795 0.5995632918577962
5.4447832107543945 -1.299578772192337 1.9130595366107386 4.947980391770162 -1.4586203734027308 -5.591684881840841 -0.3126271235610089 0.10004685491897995 0.07972389884280834 2.365883348788546 -0.009498685148277668 0.5991536855056724
5.444759368896484 -1.2996506851962586 1.9122284094439905 4.947980391770162 -1.4586203734027308 -5.591684881840841 -0.3129023656931965 0.10036337964624782 0.07988546757540846 2.3667087932595017 -0.009460665360524978 0.5985129494730084
5.444759368896484 -1.2996624273112793 1.9111455122577112 4.948004472046652 -1.4586446920977991 -5.591672960911886 -0.3132495185459072 0.10076040312421504 0.0800763670028676 2.3677019223768783 -0.009383476977360736 0.5977965164126912
5.4447712898254395 -1.2996741992286225 1.9096797148333948 4.948016392975607 -1.4586203734027308 -5.591672960911886 -0.313737081759246 0.10128759894318037 0.08033261110493078 2.3690386462779776 -0.009274996395236157 0.5967554346141694
5.444735527038574 -1.2996985775283356 1.907853905354635 4.947980391770162 -1.458632771168844 -5.591756645833151 -0.31433865169447084 0.10197797705969687 0.08064755632772136 2.3707576247225157 -0.009073007517120507 0.5953937894335676
5.4447712898254395 -1.2997960907271882 1.9057882467852991 4.948004472046652 -1.4586203734027308 -5.591696564351217 -0.31502489257801664 0.102721278391494 0.08103624709967436 2.372726204230694 -0.008951500844458131 0.5939320828536446
5.444746971130371 -1.2999533873847504 1.9033516089068812 4.947980391770162 -1.4586203734027308 -5.591660801564352 -0.31583515970484227 0.10363379263816269 0.08150176005850748 2.3751262803658055 -0.008830253722865493 0.5921055584463762
5.444759368896484 -1.3001216512969513 1.900520149861471 4.9479925511176965 -1.458632771168844 -5.591660801564352 -0.3167691009300475 0.1046735627668876 0.08204832874712614 2.3778688319673824 -0.008589250517049778 0.5900303837308214
5.444746971130371 -1.3003022533706208 1.8974750677691858 4.948004472046652 -1.4585965315448206 -5.591708485280172 -0.31778124628413673 0.10579008447872049 0.08264181030364162 2.3807886030447025 -0.008329710554041142 0.5877102907257338
5.444759368896484 -1.300567553644516 1.8943494001971644 4.948004472046652 -1.4586566130267542 -5.591708485280172 -0.3188055385294478 0.10695102436744798 0.08327580523795988 2.3839155393514675 -0.008033158140304818 0.5853927525076654
5.444687366485596 -1.3008677822402497 1.891113583241598 4.947956549912252 -1.4586203734027308 -5.591732565556661 -0.31988802298952257 0.10817212962896268 0.08394074782303615 2.3871650128857342 -0.007844342046481354 0.5827877142275666
5.444723129272461 -1.301229105596878 1.887756649647848 4.9479925511176965 -1.458632771168844 -5.591684881840841 -0.3209969346345411 0.1093963700046395 0.08466310637659005 2.390544525320203 -0.007579971837505461 0.5802418901293586
5.444746971130371 -1.3015640538981934 1.8841474691974085 4.948004472046652 -1.4586084524737757 -5.591696564351217 -0.322196492522926 0.11071076856397186 0.08542817755465879 2.394126316202246 -0.00725901590292549 0.577444150163504
5.444722652435303 -1.301827387218811 1.8802154699908655 4.948016392975607 -1.4586446920977991 -5.591696564351217 -0.3234761049760907 0.11216200330823263 0.08623825055719397 2.397953497617265 -0.006959273981063682 0.57450690475297
5.444711208343506 -1.302016870384552 1.8758257071124476 4.948004472046652 -1.4586203734027308 -5.591696564351217 -0.32491801738767256 0.11376207402863055 0.08711899156438097 2.4021269664921108 -0.006644795539648604 0.5712189791741316
5.444723129272461 -1.3021227580359955 1.8710888067828577 4.948028090387144 -1.4586203734027308 -5.591672960911886 -0.32645612865341267 0.11546926898708107 0.08805531617375753 2.4065199827295327 -0.006300854663153345 0.567807466873993
5.444711208343506 -1.3021103900722046 1.866124455128805 4.947991642146864 -1.4586084524737757 -5.591672960911886 -0.3280698864165306 0.11726640046193067 0.08900273782884668 2.411052069455333 -0.005949948320240018 0.5642330799527158
5.444699287414551 -1.3021103304675599 1.8611181418048304 4.947980540781774 -1.458632771168844 -5.591732565556661 -0.32968160078024045 0.11907705096239818 0.08997680871474908 2.415613298974081 -0.0055059281596891016 0.5606388450480351
5.444591045379639 -1.3020982903293152 1.8561585585223597 4.948016392975607 -1.4586446920977991 -5.591660801564352 -0.33125696132185467 0.12088683293839701 0.090956602867838 2.4200732137086836 -0.005351099001838512 0.5571152965809498
5.4446516036987305 -1.3020863395980378 1.8512914816485804 4.948016392975607 -1.458632771168844 -5.591708485280172 -0.3328317291906138 0.12260716170084385 0.09192528074713074 2.424474985088905 -0.00486312612415833 0.5536222006574665
5.444675445556641 -1.3020742398551484 1.8461006323443812 4.9480283735092065 -1.458632771168844 -5.591672960911886 -0.3344978149381428 0.1244512940627533 0.09297239149022007 2.4291652370364267 -0.004490385759450149 0.5499290629189114
5.444639205932617 -1.3020382684520264 1.840588394795553 4.948040473252096 -1.458632771168844 -5.591660801564352 -0.33625441535318357 0.12642471690413679 0.09409092572647357 2.434109409246673 -0.004139361176726355 0.5459740754334899
5.444639205932617 -1.3020623487285157 1.8349183241473597 4.948016392975607 -1.4586203734027308 -5.591648880635397 -0.3380740074384182 0.12844576886540016 0.09527164715345074 2.4392774157128603 -0.0037300805057014315 0.5418278746842315
5.444627285003662 -1.3020863097957154 1.829299275075094 4.948028313904562 -1.4586566130267542 -5.591684881840841 -0.33985342327338874 0.13044894808728208 0.09646057522434995 2.4443736516045997 -0.003258758823705596 0.5377565998392627
5.4446635246276855 -1.3020742696574708 1.8238118330584925 4.948004472046652 -1.4586084524737757 -5.591672960911886 -0.34161736723562747 0.13237489410603345 0.09762212120556726 2.449322268393925 -0.0028374902435315376 0.5337264378444707
5.4446635246276855 -1.3020623487285157 1.8183234373675745 4.9479925511176965 -1.458632771168844 -5.591672960911886 -0.3433537435087136 0.13431912708918176 0.09879804453856847 2.4542797233140847 -0.0024105243828444946 0.5297462578873287
5.444675445556641 -1.3020623487285157 1.8124778906451624 4.948064315110006 -1.4586203734027308 -5.591612879429952 -0.3451934603987409 0.1363566481362463 0.10008163980406884 2.45948200998885 -0.0020386400074251924 0.5255399499068966
5.4446516036987305 -1.3020742696574708 1.806507412587301 4.948052394181051 -1.4586446920977991 -5.591672960911886 -0.3470703291879205 0.13846926422309275 0.10140191057771056 2.4648730537343466 -0.0015272074786672758 0.5211298222076928
5.444615364074707 -1.3020863097957154 1.8005841414081019 4.948004472046652 -1.4586446920977991 -5.591648880635397 -0.348937589170383 0.14056712036102115 0.10272477695306648 2.470246064646563 -0.001146307416526559 0.5167213130153664
5.4446635246276855 -1.3020623487285157 1.794901196156637 4.948052364378729 -1.4585965315448206 -5.591684881840841 -0.3507277433351089 0.14251557973487722 0.10400979032517632 2.475261436777152 -0.0006376931074779373 0.5125359404270952
5.444615364074707 -1.3020742696574708 1.7893384138690394 4.948016392975607 -1.4586203734027308 -5.591708485280172 -0.3524624657653297 0.14448254495782276 0.10528285531274631 2.4802911305332147 -0.00022802462060659504 0.5083781257926899
5.4446516036987305 -1.3020382684520264 1.7834489981280726 4.948052394181051 -1.4586446920977991 -5.591672960911886 -0.3542907754162086 0.14651070569730168 0.10663830936997687 2.485517283754146 0.00022925272313469564 0.5041166442948293
5.444603443145752 -1.3020501893809815 1.7774766127215784 4.948040473252096 -1.4586446920977991 -5.591696564351217 -0.35614352048015846 0.1485992673080507 0.10804105704486197 2.490869675804034 0.0006585321649330042 0.49962444941594936
5.444579124450684 -1.3020623487285157 1.7713616530047815 4.948040473252096 -1.4586203734027308 -5.591660801564352 -0.35804144876139604 0.1507155075164129 0.1094965055474258 2.4963314660046274 0.001043082790401698 0.4950312285953722
5.444543361663818 -1.3020863992026825 1.765405003224508 4.948064315110006 -1.4585726896869105 -5.591672960911886 -0.3598838882571878 0.15276610647380415 0.11093852175086938 2.501617381583207 0.0014501571486849178 0.4905033524719386
5.444591522216797 -1.3020864588073273 1.7596467177020472 4.948076236038961 -1.4586446920977991 -5.591732565556661 -0.361646462087195 0.15473507094654487 0.11233579163703011 2.506765491569883 0.0020612584290283496 0.48626006651211223
5.444555282592773 -1.3021103006652375 1.7536972204791468 4.948076236038961 -1.4586446920977991 -5.591720644627706 -0.3634687438693913 0.15678438933569397 0.11380451127183852 2.5120765069561526 0.0024626149004769154 0.4817540583266418
5.444567680358887 -1.3020982605269928 1.7475979963885706 4.948088395386495 -1.4586566130267542 -5.591660801564352 -0.3653322709721337 0.15885876844181454 0.11531494074652623 2.5174872715941583 0.0028787069285048294 0.4772097496427739
5.444591522216797 -1.3021103304675599 1.7412646452533167 4.948064315110006 -1.4585965315448206 -5.591672960911886 -0.36728697210156536 0.16099716326898195 0.11690825306571831 2.52311321800096 0.003391744688689027 0.47232913956769
5.444603443145752 -1.302110419874527 1.73503286043276 4.9480647323425195 -1.4586446920977991 -5.591696564351217 -0.36917242151933627 0.1631116926001776 0.11848944738618508 2.5286544298691376 0.003942807554984377 0.4676421863838323
5.444579601287842 -1.3021229070476075 1.7288692633258265 4.948100405722418 -1.458632771168844 -5.591696564351217 -0.3710320025292654 0.165191154255816 0.12008026210519282 2.534079790701882 0.004385942487405087 0.4629432011606208
5.444567680358887 -1.3021344405463715 1.7225716749774378 4.948112267046728 -1.4586084524737757 -5.591696564351217 -0.3729346590252399 0.16730677474848332 0.1217208254255025 2.5396320535301182 0.004852175478161511 0.45810227355358174
5.444567680358887 -1.3021704417518158 1.7159512678729456 4.948088425188818 -1.458632771168844 -5.591696564351217 -0.37492572589759654 0.16953534022540684 0.1234690853112225 2.545537434608248 0.005385980124176608 0.4530085156850491
5.444555282592773 -1.3022438746741791 1.708947483693258 4.948052438884535 -1.4586203734027308 -5.591660801564352 -0.37703313863417015 0.1718846681163096 0.12535374774676936 2.551801334059691 0.005877792589377817 0.4475355695850119
5.444567680358887 -1.302341954117157 1.7020028273211878 4.9481122372444055 -1.458632771168844 -5.591696564351217 -0.37909452210057293 0.17417940339883403 0.12726252079126799 2.5579467334098176 0.006493730485304599 0.4421527442369687
5.444555282592773 -1.302571640615799 1.6952369848834437 4.948136555939474 -1.4586566130267542 -5.591636959706442 -0.38109687212187915 0.17642752471283402 0.12919162963188952 2.564085390853206 0.006961375448326774 0.43680002305752896
5.444543361663818 -1.302810714845993 1.688019100819723 4.948124173074522 -1.4586203734027308 -5.591708485280172 -0.38324471135113464 0.1788115514606463 0.13126936234483652 2.5706089087001165 0.007613440958418784 0.4309293312361642
5.444579601287842 -1.3031001848033448 1.6802786032306116 4.948124336987295 -1.4586203734027308 -5.591672960911886 -0.3855346212117512 0.1813413964918536 0.13353798640690626 2.577644489595906 0.0082512759665614 0.42469672253358143
5.444567680358887 -1.303413764839508 1.6723955313311976 4.948124009161749 -1.4586566130267542 -5.591660801564352 -0.38783769274157653 0.18392979891471517 0.13588393269399296 2.5848225263726805 0.008886884182447412 0.4183206991562178
5.444579601287842 -1.303883896475174 1.6643574873553675 4.948112177639761 -1.4586203734027308 -5.591648880635397 -0.39019868041582484 0.18653718539065894 0.13836730586287765 2.592236679169238 0.009551923801614038 0.4115973656566337
5.444615364074707 -1.3043507796576996 1.6559203306781214 4.948233085661688 -1.4586446920977991 -5.591660801564352 -0.3926254352055199 0.1892296252867022 0.14100568673092556 2.5998928911710397 0.010325700507986903 0.4047029561029474
5.444615364074707 -1.3048678201488038 1.6468990484820765 4.948256242066183 -1.4586203734027308 -5.591684881840841 -0.39522854219082915 0.1921188368951509 0.14386453948605535 2.608140378931508 0.011111244243379292 0.39712979012345917
5.444639205932617 -1.305458979015686 1.6376121679889124 4.948160517006674 -1.4586203734027308 -5.591672960911886 -0.3979128545677287 0.19509437124960904 0.14686315117627488 2.616783267009447 0.011930941615294148 0.38920388985159526
5.444615364074707 -1.3060954076102753 1.6282156149493616 4.9482446042592905 -1.4586446920977991 -5.591708485280172 -0.400558401687714 0.19806667174697884 0.14996752172309757 2.6253864876632473 0.01275947309159011 0.38125338359648014
5.444627285003662 -1.306716875439026 1.618265453969137 4.948160397797384 -1.4586446920977991 -5.591720644627706 -0.40338485278218905 0.201207826570663 0.15326791929441716 2.6345713436433367 0.013656076899727981 0.3726910355306633
5.444603443145752 -1.307393656378128 1.6079075972186487 4.948196443706312 -1.4586203734027308 -5.591636959706442 -0.40627616769379143 0.20443329920615735 0.15677475486393616 2.6440207641094897 0.014400515308635195 0.3638022464330793
5.444603443145752 -1.3082846266082306 1.5975607077227991 4.948292243271627 -1.458632771168844 -5.591708485280172 -0.4091237399067942 0.20761100675190156 0.1604225952507331 2.6535717137629304 0.01541004784063418 0.35474631365016157
5.444615364074707 -1.3091233235648652 1.5865348021136683 4.948267432838239 -1.4586084524737757 -5.591696564351217 -0.4121651420788745 0.21098107919850634 0.16431232687022043 2.663724528440249 0.016377305513063736 0.3450237454496127
5.444567680358887 -1.3101620239070435 1.5753997007953089 4.948256182461538 -1.4586446920977991 -5.591672960911886 -0.4151758877122814 0.21438207817339364 0.1683817662500554 2.6741246709368753 0.01729911095781266 0.33505360887640134
5.444603443145752 -1.311360941534378 1.5643509070025843 4.948341864138403 -1.4586446920977991 -5.591708485280172 -0.41813635869300403 0.21765692792739988 0.17255857588274737 2.6844551654607502 0.018400640353610002 0.32501438575517944
5.444615364074707 -1.3124758166125794 1.5527141729937952 4.948267432838239 -1.4585965315448206 -5.591708485280172 -0.421258266309971 0.22110625733636252 0.1769496048579007 2.695290548790819 0.019467041063431226 0.3143168336574543
5.444639205932617 -1.31378989041362 1.5411623159991663 4.948268431216039 -1.4586566130267542 -5.591672960911886 -0.42428181582024993 0.22448474411209124 0.18146591583577235 2.706181121918657 0.020545303719299718 0.30365438088090035
5.444615364074707 -1.3151563268950959 1.52952748933901 4.948426890164175 -1.4586203734027308 -5.591672960911886 -0.4272669556342023 0.22781097405107426 0.18610753627170726 2.716958929000985 0.02157742881197816 0.29281671590583075
5.444591522216797 -1.3165486019900818 1.5174568335162562 4.948315757303991 -1.4586446920977991 -5.591648880635397 -0.4303648301994414 0.23128937780406975 0.19096808140203542 2.7283440167533475 0.022663543281451384 0.28136794973430573
5.444591522216797 -1.318115310078003 1.50572377840151 4.9483400014932535 -1.4586203734027308 -5.591672960911886 -0.43331937390165637 0.23457084725553115 0.1958635126779172 2.739409082014011 0.023812151732130294 0.2700419251773242
5.444639205932617 -1.3197668951800843 1.4937151114093226 4.9484979687030695 -1.458632771168844 -5.591708485280172 -0.4362738959428986 0.237834868246583 0.2009666259148414 2.7506420764206285 0.0250772204065231 0.2585021209533475
5.444627285003662 -1.321529285316803 1.4816539923297327 4.94850908496932 -1.458632771168844 -5.591660801564352 -0.4392112708554572 0.24111600444007636 0.20620630255430794 2.7620844516818037 0.026174941580996643 0.2466150235269923
5.444627285003662 -1.3235205125859757 1.4698966185199183 4.948594900756635 -1.4586566130267542 -5.591660801564352 -0.4420024241229791 0.24423625044883263 0.2115113752300278 2.7733674081265844 0.027353710915197827 0.23479879039729185
5.444615364074707 -1.3255607050708313 1.4576485792743128 4.948578524380483 -1.458632771168844 -5.591696564351217 -0.44489035626504336 0.24745233074132716 0.2170922720111834 2.78510145788033 0.0286138607123747 0.22228229628046625
5.444639205932617 -1.3278010052493592 1.4457839171039026 4.948580252915182 -1.458632771168844 -5.591672960911886 -0.44762787184162356 0.2504853529018346 0.22269438108932196 2.7966395755400324 0.02983653671815883 0.20991125509505593
5.444603443145752 -1.3301976335099717 1.4338792006122034 4.94878942051486 -1.4586446920977991 -5.591696564351217 -0.45025644016281113 0.25344565952691295 0.22845678565926583 2.8081197333336148 0.031048594969387815 0.19745720731935074
5.444639205932617 -1.3326285493424912 1.42169696489443 4.9487472651298425 -1.4586566130267542 -5.591648880635397 -0.4529627606621587 0.2564402338262398 0.23441267765964874 2.8200128316331816 0.03231719171345158 0.18445414591368767
5.444603443145752 -1.3354396683028718 1.41008168855776 4.948783474951544 -1.458632771168844 -5.591648880635397 -0.4554391818469657 0.25921601263776645 0.24040337924050836 2.8316109889496466 0.033526379003931045 0.1715347571205133
5.4446516036987305 -1.3382947754910965 1.3981359640704554 4.948929640441694 -1.4586084524737757 -5.591672960911886 -0.45792945944580676 0.26194463834815707 0.24661441379801888 2.8433677179612418 0.034917974553859255 0.1583043263338919
5.444627285003662 -1.3412394535592576 1.386256519948141 4.948940026551046 -1.4586446920977991 -5.591672960911886 -0.4603358873500118 0.2646603369045286 0.25291153338492633 2.8552296291409944 0.03620714202269435 0.14489823363314114
5.444627285003662 -1.3445376318744202 1.3748043219195765 4.949100690871038 -1.4586446920977991 -5.591684881840841 -0.4625520310863493 0.2671301458789068 0.25927754844140616 2.86683405237801 0.03752608676052522 0.13156937901098514
5.444639205932617 -1.347677306537964 1.3627999464618128 4.949130880623617 -1.4586203734027308 -5.591672960911886 -0.46486857573850787 0.26969230404119304 0.2658601277161029 2.8787817554383994 0.03887721136436286 0.1176488336910919
5.444627285003662 -1.351124883895256 1.3513701597796839 4.949155422836103 -1.4586446920977991 -5.591660801564352 -0.46696478304615374 0.2720482944023863 0.272424521055327 2.890490711723563 0.04018656566089585 0.10392537407578853
5.444627285003662 -1.354623095398285 1.3399675528155726 4.949352788716116 -1.4586446920977991 -5.591672960911886 -0.46896190928133347 0.2742743687487661 0.2790608588498398 2.902006182552097 0.0415357400150315 0.0902198278774531
5.444627285003662 -1.3580677670291443 1.3284509817706507 4.949335562973776 -1.4586566130267542 -5.591672960911886 -0.47096274447097136 0.27650981355070003 0.28578583790725154 2.913682693628699 0.04290193028507492 0.07618042031016607
5.444627285003662 -1.3616800916245957 1.317319695149557 4.949287476926603 -1.4586446920977991 -5.591672960911886 -0.47282168658882323 0.2785768699660545 0.2924937328956929 2.9251363573322413 0.04425432443627399 0.06219650775173203
5.444627285003662 -1.3652613174966355 1.306070629750387 4.949493276863851 -1.458632771168844 -5.591660801564352 -0.4745901171873736 0.28054326281740105 0.2992822029452305 2.9363987645696716 0.04557891864094082 0.04828075922601639
5.444591522216797 -1.3687675309232255 1.2949031035052698 4.949503409653463 -1.4586084524737757 -5.591672960911886 -0.4763177728297862 0.2824872005211245 0.30605976120948575 2.947620332461956 0.04689620928250817 0.03421369732464331
5.444639205932617 -1.3724125933698197 1.2842615286456507 4.949551570206442 -1.4586203734027308 -5.591648880635397 -0.47788129760402015 0.28419793851329445 0.3127262298731567 2.958478197412539 0.04825508235770005 0.020522953128015258
5.444615364074707 -1.3758717489293595 1.2733362356769007 4.949600043683805 -1.4586446920977991 -5.591696564351217 -0.4794289013226144 0.2859532131954571 0.3194696149947507 2.9693563891266734 0.0496307744359982 0.006644745109341209
5.444615364074707 -1.3792106968215485 1.2624767462359827 4.949599492340841 -1.4585965315448206 -5.591660801564352 -0.48094787660424126 0.2876263357202882 0.3261726388348888 2.9800243239186917 0.05090361491221768 -0.007256115434566626
5.444591522216797 -1.3827432704022904 1.2521327177630823 4.949672820955076 -1.4586203734027308 -5.591660801564352 -0.4822604333814722 0.2891198538892257 0.33278287210004054 2.9903813596694926 0.05217034006554455 -0.02078109157981951
5.444627285003662 -1.3861109477332612 1.2414897123919886 4.949756178050794 -1.4586566130267542 -5.591660801564352 -0.48359369149739695 0.29059398727237035 0.33948285914816645 3.000777922614517 0.05354415912161736 -0.034491456254980166
5.444603443145752 -1.3893749427846451 1.2310875097857874 4.9497312037046335 -1.4586446920977991 -5.591696564351217 -0.4848554735986898 0.29201573936078984 0.3460665915267277 3.010909115639805 0.05486232194249528 -0.04811579584020562
5.4446516036987305 -1.392718569641449 1.2211621443377894 4.949779319554128 -1.4586446920977991 -5.591672960911886 -0.4859797931128176 0.2932311158274187 0.3525038461744477 3.020640980714909 0.05616132475281103 -0.061325111189759314
5.444603443145752 -1.395820901995041 1.2108443419085901 4.949890079885282 -1.4586203734027308 -5.591684881840841 -0.48710322017146107 0.29451343144753267 0.35902507317267496 3.0303687954796974 0.057380458072744764 -0.07474079072159218
5.444603443145752 -1.3989049059203644 1.2005823294269007 4.949971261411466 -1.4586203734027308 -5.591660801564352 -0.4881787431341974 0.29571384009613483 0.36554689040405686 3.0400209506966336 0.058620651256203464 -0.08815521278930318
5.444591522216797 -1.401998595600464 1.1906984488116663 4.950007605343618 -1.458632771168844 -5.591696564351217 -0.48914571197087087 0.2968084403340673 0.3719315037953652 3.049390931056696 0.05990869605646115 -0.10130936774734817
5.444591522216797 -1.4049422454885026 1.180516544972555 4.9502155659492395 -1.4586203734027308 -5.591660801564352 -0.49009636868426476 0.2978645620367589 0.37839183222625417 3.058670248612759 0.061106724722554046 -0.11453694922692878
5.444603443145752 -1.407822461133339 1.1702864805804651 4.95029582360343 -1.4586928526507776 -5.591696564351217 -0.49101754242283857 0.2989148536631081 0.38488042003580847 3.068032295971493 0.06245091800936435 -0.12786301237102168
5.444591522216797 -1.41070011377845 1.1604517141925257 4.950355174928465 -1.458632771168844 -5.591708485280172 -0.49185848256023784 0.2998379560164013 0.3912124186521637 3.0769783913585207 0.06368861575546615 -0.14102507210959295
5.444591522216797 -1.4134978961995621 1.1505354086505335 4.950614395528593 -1.4586203734027308 -5.591672960911886 -0.4926244747048165 0.3006885205533156 0.39754397275318565 3.085761448190705 0.0648568265418565 -0.1539965300595121
5.444603443145752 -1.4160936337760468 1.1404712835894983 4.9509227005536935 -1.4586566130267542 -5.591684881840841 -0.49337205320281274 0.301529875747401 0.40385359656638187 3.094452454694416 0.0661104718343694 -0.1668770058854755
5.444627285003662 -1.4188581270030518 1.1308210531817835 4.951172578125753 -1.4586084524737757 -5.591660801564352 -0.494024669389116 0.30221888830633636 0.4100867993962407 3.1028974438101504 0.06731500252127787 -0.17972513002736804
5.444579601287842 -1.4216198188117524 1.1211512724505823 4.951308879047193 -1.4586446920977991 -5.591648880635397 -0.4946112480929638 0.30293040213811295 0.4163605026459992 3.11144721301785 0.06844391876620978 -0.1926859810250544
5.444615364074707 -1.4240954381278534 1.1113422552691858 4.951742666750707 -1.4585965315448206 -5.591648880635397 -0.49519892525940784 0.30353731109720195 0.4225320322458871 3.119568460553549 0.06968218198081609 -0.20533804111733664
5.444591522216797 -1.426786796455719 1.101891819630758 4.95211141088561 -1.4586203734027308 -5.591636959706442 -0.49564055361349735 0.30406231660428773 0.42867040440201243 3.1276433878728973 0.07080368977012975 -0.21789104218174787
5.444591522216797 -1.429303304558136 1.0927007834063929 4.952511864691534 -1.4586084524737757 -5.591660801564352 -0.49604864869315685 0.3045145930158896 0.434596318898285 -3.1293745244964386 -0.07184068102895659 0.22961111194696793
5.444579601287842 -1.4317063254169007 1.0831893126117151 4.9532485631997965 -1.4586203734027308 -5.591684881840841 -0.49639243558306423 0.30491571743758944 0.44058951063786844 -3.120053070903997 -0.07258906984610346 0.24033836991126972
5.444591522216797 -1.4341139954379578 1.0738428274737757 4.954135748534956 -1.4586685339557093 -5.591696564351217 -0.4966459212910925 0.3052120333701938 0.44649456063340476 -3.1109377708742123 -0.07332438299425677 0.2506617904642862
5.444591522216797 -1.436563493018486 1.0650270620929163 4.955219480186262 -1.4586203734027308 -5.591636959706442 -0.4967807726602251 0.30534434237336794 0.45214356381782705 -3.102426157815702 -0.07389003344972825 0.2603960565538461
5.444591522216797 -1.4388189029744645 1.0558660666095179 4.956742200046339 -1.4586084524737757 -5.591672960911886 -0.49685463065569385 0.3054245998287077 0.4578034333874148 -3.0940965193381564 -0.07457444497092859 0.2697602613842049
5.444591522216797 -1.440911979680397 1.046603027974264 4.958811852126875 -1.4586084524737757 -5.591672960911886 -0.496826643078113 0.30539668886985 0.4633515468985569 -3.086251144549725 -0.07515557166037402 0.27849322875511145
5.444603443145752 -1.4431615632823487 1.0378182570086878 4.961058425694265 -1.4586084524737757 -5.591684881840841 -0.4966618579664458 0.3052063146638872 0.46872231780819107 -3.07880410593686 -0.07573734525591318 0.2867179411863133
5.444627285003662 -1.4453605574420472 1.0292604605304163 4.963611411839285 -1.4586685339557093 -5.591672960911886 -0.4963897242004395 0.3049124075983532 0.47390328857777747 -3.071804288022181 -0.07625061195353068 0.29429072830921277
5.4446516036987305 -1.4473878231695672 1.020245377217428 4.966687518149175 -1.4586685339557093 -5.591660801564352 -0.49607088350144424 0.3045402931033211 0.4791417470038037 -3.0650216105729444 -0.07675136296843163 0.3016848909123855
5.444639205932617 -1.4495237109116097 1.0116289297686976 4.970002311259069 -1.4586446920977991 -5.591696564351217 -0.4956177347330504 0.304038833179602 0.48419932450587 -3.058678331292909 -0.0772359840359797 0.30858517766886506
5.444639205932617 -1.451768772011139 1.0034521261798304 4.973824578314581 -1.4586446920977991 -5.591648880635397 -0.4949881675975126 0.303340735124933 0.4890107630607847 -3.0530378247405 -0.07755227679973396 0.3146668278598184
5.444627285003662 -1.4539817211082955 0.9951403776751917 4.9782277820403955 -1.458632771168844 -5.591708485280172 -0.49423982982978587 0.302515164310309 0.49377467321673546 -3.047787697475767 -0.07798151469251388 0.3202974718014806
5.444555282592773 -1.456095279460289 0.9866116682635706 4.983570831805029 -1.4585726896869105 -5.591696564351217 -0.4933227000009226 0.301530589140937 0.49843740244157586 -3.043266932608856 -0.07816148654133247 0.32522034491704965
5.444567680358887 -1.458327369098999 0.9783890883075159 4.990074354201116 -1.4586446920977991 -5.591660801564352 -0.4921259107945861 0.3002214764111507 0.5028109854596599 -3.039840111773552 -0.07832331035287993 0.32875285483581823
5.444627285003662 -1.4606340390494843 0.9705637137042444 4.997331428318777 -1.4586446920977991 -5.591684881840841 -0.49076102991379655 0.29865493580328256 0.5068916542630851 -3.037369982695325 -0.07858986140602767 0.33138816642861996
5.444591522216797 -1.462859423165657 0.9624078909503382 5.006083506136694 -1.458632771168844 -5.591720644627706 -0.4891186410265789 0.29685273304162 0.5108395798688501 -3.035972345653293 -0.07864734474710655 0.3328981534670198
5.444591522216797 -1.4650501248291512 0.9541028181659144 5.016177493124761 -1.4586203734027308 -5.591660801564352 -0.48724188101156896 0.29475969851100653 0.5146100898323727 -3.0356499732408544 -0.07853310861023632 0.33330681767669534
5.444591522216797 -1.4673903670958062 0.9462040106402796 5.028118926077642 -1.4586446920977991 -5.591708485280172 -0.4849542676599594 0.29222452150208406 0.5179444566477218 -3.037109692286288 -0.07843863104092362 0.3317560179399866
5.444615364074707 -1.4698195841959496 0.938634220753805 5.041136133461752 -1.4586446920977991 -5.591708485280172 -0.48242993607489354 0.2893955222011115 0.520974262994069 -3.0397241641540065 -0.07822691736640187 0.32904426788272
5.444567680358887 -1.4721278262189408 0.9307735602008265 5.055942702084341 -1.4586084524737757 -5.591660801564352 -0.4795949916856987 0.28626189065290025 0.5237859913120562 -3.043752472506089 -0.07773123548893583 0.3248974887989127
5.444591522216797 -1.4744523999146004 0.9226482550250452 5.071922886162557 -1.4586203734027308 -5.591708485280172 -0.4765440120391451 0.28285081184941874 0.5265362877730516 -3.048508961912346 -0.07741992276447607 0.3198666105079803
5.444579601287842 -1.4769720298102875 0.9149997870074671 5.089439826994695 -1.4586084524737757 -5.591696564351217 -0.47312184147467434 0.27904351871593813 0.5289086574659411 -3.054835892082802 -0.07684608977502877 0.3131851457849941
5.444555282592773 -1.4797009614161034 0.9076326529132288 5.107571470528402 -1.4586203734027308 -5.591648880635397 -0.46949149175756444 0.275023406583649 0.5311519867904206 -3.0617275116857114 -0.07614693093966389 0.3058177578981698
5.444615364074707 -1.482265205388405 0.8999555746661585 5.12736793139533 -1.4586084524737757 -5.591636959706442 -0.46561375843971425 0.2706514478336496 0.5332064591705019 -3.069910739284783 -0.07552861928696154 0.2970450040137816
5.444591522216797 -1.4848485973528405 0.8921759764300745 5.148144501238622 -1.4585965315448206 -5.591660801564352 -0.4615034224178559 0.2660842639698772 0.5351766183001843 -3.0787901166027205 -0.07477293593547979 0.2874227100368053
5.444591522216797 -1.4875043344548722 0.884838883076803 5.169537681132116 -1.4586203734027308 -5.591672960911886 -0.45721384018181566 0.26131362194154284 0.5368920693555354 -3.088458710054207 -0.07396062118048376 0.276780477084498
5.444603443145752 -1.4903869938901444 0.8779805342303675 5.192004638701238 -1.458632771168844 -5.591672960911886 -0.4526278387361045 0.25619785687894336 0.5383622398728602 -3.0992171602616962 -0.07305345660747915 0.26483847644986636
5.444591522216797 -1.4930263695171853 0.8709424177752894 5.215351509838857 -1.4586446920977991 -5.591672960911886 -0.44790605215665935 0.25094717824144025 0.5396971386012136 -3.1107209088031036 -0.07203597135188483 0.25191905228971945
5.44454288482666 -1.4955892276814957 0.8637922445880335 5.239052164345541 -1.458632771168844 -5.591684881840841 -0.4431013606238072 0.24561894299363732 0.5410273544019837 -3.122447659659458 -0.07095052577002527 0.23862968635438464
5.444591522216797 -1.4981060934117814 0.85706073442568 5.2633748529251 -1.458632771168844 -5.591660801564352 -0.4381647680032597 0.24007796870531783 0.542102232402922 3.1306130314468366 0.06977660122201282 -0.22386336703557336
5.444603443145752 -1.5006677594831963 0.8508027235614222 5.288297998696127 -1.4586685339557093 -5.591636959706442 -0.4330368152096945 0.23436459900235865 0.542958955089477 3.119604871753876 0.06802932508148918 -0.20665893183712272
5.444567680358887 -1.503193662767746 0.8448646704303187 5.313612091332235 -1.4586566130267542 -5.591636959706442 -0.427797158808298 0.2285377462570248 0.5436701894174906 3.1079557259750525 0.06618169793662372 -0.1888411698035596
5.444591522216797 -1.5054995876601716 0.8389342466937464 5.339180874615469 -1.4586446920977991 -5.591648880635397 -0.4225420519179921 0.22265176535845113 0.5443116689288368 3.095862740966815 0.06440679772824251 -0.17064780779881214
5.444591522216797 -1.5078231182745476 0.8329156080829065 5.364855694561758 -1.4586203734027308 -5.591672960911886 -0.4172258317931518 0.21670763340805316 0.5450534062868957 3.0836570517499196 0.0626242809904877 -0.1526083037201401
5.444591522216797 -1.5101355736008664 0.827376667653219 5.39103792884902 -1.4586446920977991 -5.591684881840841 -0.41175572718305037 0.21061175608553084 0.5456092584120403 3.070671639722239 0.06073448644285221 -0.13361928913200063
5.444579601287842 -1.5125888672522088 0.8225191275226038 5.417186546116628 -1.4586446920977991 -5.591684881840841 -0.4062052627967133 0.2044222658309864 0.5460364602155499 3.057191620983793 0.05877191107974712 -0.11429044471666215
5.444567680358887 -1.5150869277170678 0.818423096333639 5.443482208042898 -1.458632771168844 -5.5917444864856165 -0.40056343403882533 0.1981242842150541 0.5462583940560404 3.042959450483772 0.05682902347894113 -0.0942613768196302
5.444579601287842 -1.5174225953272362 0.8147204558001917 5.46981309631423 -1.4586566130267542 -5.591636959706442 -0.3949108582900065 0.19181391530026706 0.5463589939981843 3.028191380099406 0.05462715260143488 -0.07375482706097866
5.444555282592773 -1.5196311001530667 0.8113277594195765 5.4958366630371 -1.4586685339557093 -5.591696564351217 -0.3893087039221147 0.18557565619738847 0.5464262319142426 3.0131876984700026 0.05262740460517676 -0.053331173349947074
5.444579601287842 -1.5217004989138623 0.8082998434649866 5.521765279560842 -1.4586203734027308 -5.591696564351217 -0.3837455410564788 0.17932489478409203 0.5464266472183765 2.9977061740911615 0.050582281649845004 -0.032744512170800676
5.444579601287842 -1.523465422247984 0.805786434804098 5.547638106137075 -1.4586685339557093 -5.591660801564352 -0.37820637877471264 0.17315608065913862 0.5462459721740941 2.9815830034125423 0.04839873210338213 -0.011488010358874446
5.444591522216797 -1.5251637187651177 0.8039100805865687 5.573378014355459 -1.4586203734027308 -5.591648880635397 -0.37269263448674556 0.16696630849857488 0.5459591215588848 2.964822399924445 0.04622249400951068 0.010011138075770828
5.444627285003662 -1.5266635839692135 0.8025530020343226 5.599048006325521 -1.4586804548846644 -5.591684881840841 -0.3671878068604456 0.16081971066909878 0.5455631345887538 2.947488398545808 0.04412147620403344 0.032040965487056795
5.444639205932617 -1.5279798221639176 0.8017585913287562 5.624252366810598 -1.4586566130267542 -5.591672960911886 -0.36180290706846896 0.15478342855854005 0.5450884361494045 2.929734467722195 0.04189681731999751 0.054025991860272286
5.444627285003662 -1.5293002624860783 0.8014190832721155 5.648878919869222 -1.4585846106158655 -5.591696564351217 -0.35651124109754095 0.14884257488503466 0.5446474721014416 2.9118958537802246 0.039711958696782755 0.07560356719073291
5.444639205932617 -1.5304359768382092 0.8014109770404261 5.673382329731741 -1.4586084524737757 -5.591672960911886 -0.35125096212785706 0.14296506617676794 0.544195588023993 2.8936623202288025 0.037489862605737515 0.09744554295030129
5.444639205932617 -1.5312961500934144 0.8015082518206995 5.697820770531454 -1.4586446920977991 -5.591660801564352 -0.3460552531238238 0.1371704089670358 0.5437848754902488 2.875034991671626 0.03525966445411108 0.1193614348001021
5.444627285003662 -1.5319501397064705 0.8014839331256312 5.721943485527792 -1.4586566130267542 -5.591648880635397 -0.3409750051293187 0.1314993055149969 0.5435211640429456 2.8564247409520656 0.033048523155826945 0.140805650021363
5.444627285003662 -1.5323184256306668 0.8013995329486292 5.745267021446981 -1.4586203734027308 -5.591648880635397 -0.3361386035208213 0.12607317498632187 0.5433613726487034 2.8381008110357597 0.03093184265409902 0.16145491882125512
5.444639205932617 -1.5324703876725216 0.8014114538775843 5.767976867943563 -1.4586203734027308 -5.591696564351217 -0.3314698597663167 0.12084395019881695 0.5432661705844974 2.8199032361175456 0.02895153734673762 0.1816559511350166
5.4446635246276855 -1.5324336674860497 0.8014352957354944 5.790187823563375 -1.4586804548846644 -5.591696564351217 -0.32693777632283455 0.11578752986923677 0.5432620290091361 2.801856020314493 0.026979340200501387 0.20146837696741926
5.444615364074707 -1.5324213852039357 0.8014472166644495 5.8116938946540735 -1.4586566130267542 -5.591684881840841 -0.3225555072119911 0.11089473936357809 0.5434152444714591 2.784242273171508 0.024950768542530616 0.2203265305938463
5.4446024894714355 -1.5323613670519372 0.8014705816852015 5.832148778229513 -1.4586804548846644 -5.591684881840841 -0.31839619587022744 0.10625532308126691 0.5436737209903937 2.76735994522133 0.023103791019351772 0.23819987727224085
5.444603443145752 -1.5323733997396012 0.8015072981463831 5.851782190590658 -1.4586446920977991 -5.591648880635397 -0.3144050044668616 0.10177176406627075 0.544060870903712 2.751076739668464 0.021300602411043014 0.25509915625220386
5.444639205932617 -1.5324219961515446 0.8014352957354944 5.870547282486715 -1.4586446920977991 -5.591660801564352 -0.31058537292139055 0.09748089082021527 0.5445787966201276 2.7355649228615726 0.01972168589635073 0.2710206858374374
5.444603443145752 -1.5324697580984612 0.8014591375934046 5.888396847039022 -1.4586446920977991 -5.591660801564352 -0.3069485847123469 0.09342439868951323 0.5451463071605972 2.7206548418221486 0.01811095954470566 0.28609948590879963
5.4445905685424805 -1.532397535895445 0.8014591375934046 5.905485617905416 -1.4586446920977991 -5.591708485280172 -0.30350673110634036 0.08957583792150864 0.5457541665417079 2.7062285761701195 0.01666375249112677 0.30049114010817374
5.444627285003662 -1.5324095760336895 0.8014591375934046 5.921425568848409 -1.4586446920977991 -5.591708485280172 -0.3002872325189622 0.08595626631099866 0.5464227784704501 2.6927858857145406 0.015333942433427068 0.3137738689699796
5.444615364074707 -1.5323975545218964 0.8014467398272913 5.936573731690206 -1.458632771168844 -5.591636959706442 -0.29723962318635405 0.08254317149163293 0.5471266452678946 2.6799457745769186 0.013913253006497732 0.3263107974590014
5.4446635246276855 -1.532409594660141 0.8014352957354944 5.9506499646003626 -1.4586203734027308 -5.591648880635397 -0.29441353633252104 0.07935457563001486 0.5478488157032559 2.6679853979139585 0.012785124731418296 0.33785600186520204
5.444627285003662 -1.5323975955000897 0.8014710585223597 5.963933694153585 -1.4586446920977991 -5.591660801564352 -0.2917431825616499 0.0763885211100089 0.548567060661632 2.6566104470383145 0.011624548487410869 0.348751608870463
5.444699764251709 -1.5324219588986416 0.8014352957354944 5.976239669113912 -1.4586566130267542 -5.591672960911886 -0.28927845486517695 0.0736064356960554 0.5493052298591224 2.6461309630459824 0.010701291308717883 0.35872298369453576
5.444675445556641 -1.53243367121134 0.8013995329486292 5.987574565201559 -1.4586566130267542 -5.591684881840841 -0.28701214729479835 0.07107746250826046 0.5500232787893412 2.6364299244769893 0.009730326029380237 0.3678214437873099
5.444675445556641 -1.53239734963093 0.8014238516436976 5.998492705612936 -1.4586446920977991 -5.591672960911886 -0.28484969375417807 0.06865036580518044 0.5507265621915708 2.626966827786036 0.008785565884036546 0.3766285049844267
5.444675445556641 -1.5324095648578187 0.8014352957354944 6.0085112927253626 -1.4586203734027308 -5.591672960911886 -0.28286167691405134 0.06641322992926511 0.5514172141135082 2.618302300603914 0.007935579092215343 0.38460697804620536
5.4446635246276855 -1.5324457001737137 0.8014829794513147 6.017509805947103 -1.4586685339557093 -5.591660801564352 -0.2810560124219803 0.06441598537994693 0.5520588622225541 2.6105252678216084 0.007169246043712851 0.39182551074056193
5.444687366485596 -1.532409643088915 0.8014233748065394 6.025732266693868 -1.4586566130267542 -5.591672960911886 -0.2794448964163014 0.06259774839618082 0.5526740638019902 2.6034078067753796 0.006527872291921208 0.39831235739146553
5.444627285003662 -1.5323975843242188 0.8014233748065394 6.032984125405111 -1.4586203734027308 -5.591684881840841 -0.2780212621254627 0.06100815885324963 0.5532271413557233 2.597070481737533 0.005846911559929318 0.40398182762447166
5.444627285003662 -1.532421664600708 0.8014472166644495 6.039042460709371 -1.458632771168844 -5.591684881840841 -0.2768180059303136 0.05966560471044799 0.553702789072159 2.591802870322765 0.005349348195260346 0.40876181621410435
5.444639205932617 -1.5324335855296631 0.8014591375934046 6.043662297516622 -1.4586685339557093 -5.591660801564352 -0.2758982984106059 0.05864673597091957 0.5540719519249683 2.5877968011917547 0.004965571461517288 0.4124388264340611
5.4446516036987305 -1.5324096244624634 0.8014233748065394 6.046683418541708 -1.4586566130267542 -5.591648880635397 -0.2753150627157793 0.05798389002341489 0.5543196797944149 2.5851684702041346 0.004712568017075799 0.41479278129250624
5.444591522216797 -1.532421664600708 0.8014829794513147 6.047894465714254 -1.4586446920977991 -5.591648880635397 -0.2750719639739677 0.05772680553355855 0.5544092592817865 2.5840585025006533 0.004526258312513628 0.41574337306120557
5.444579601287842 -1.532421664600708 0.8014472166644495 6.047668444901266 -1.4586446920977991 -5.591696564351217 -0.27511645397841805 0.05778070483810696 0.5543982666709123 2.584280806878475 0.004593987785514419 0.4155164970659508
5.444555282592773 -1.5324093525162716 0.8014829794513147 6.047564613610067 -1.458632771168844 -5.591672960911886 -0.27514058407340464 0.05781080335131747 0.5543797417255776 2.5843240123466638 0.004531933820712516 0.41546017151844283
5.444579601287842 -1.532373284255602 0.8014949003802698 6.047564852028646 -1.4586566130267542 -5.591684881840841 -0.2751456914368773 0.05781854806277491 0.5543684274846439 2.5842943304888357 0.004584521538618653 0.4155278763368605
5.444579601287842 -1.5323733922890206 0.8014710585223597 6.0476006148155115 -1.4586446920977991 -5.591636959706442 -0.2751418855472214 0.05780910434131996 0.5543767217769853 2.5842833851929212 0.004516740581215166 0.41554201820158204
5.444543361663818 -1.5323734779706975 0.8014591375934046 6.0476006148155115 -1.4586446920977991 -5.591672960911886 -0.2751400328023894 0.057819347223357215 0.5543792536075337 2.5842864980188924 0.004517382518030835 0.4155060361475608
5.444482803344727 -1.5323975470713158 0.8014710585223597 6.047588813095846 -1.4586446920977991 -5.591660801564352 -0.2751322814051295 0.05783129428244524 0.5543812407752691 2.5843026232373942 0.0044253889541994666 0.4154694712464151
5.444421291351318 -1.5323255036822339 0.8014591375934046 6.047624575882711 -1.4586685339557093 -5.591648880635397 -0.27513539617345406 0.057865916253650396 0.5543696916278057 2.584225297531534 0.004332310640489708 0.4155517301249483
5.4442291259765625 -1.5323375698975106 0.8014829794513147 6.047588813095846 -1.4586203734027308 -5.591684881840841 -0.27513857791048507 0.05791391701422792 0.5543657481163553 2.5842008468073363 0.004112980096821949 0.41539820406343686
5.444024562835693 -1.532349520628788 0.8014829794513147 6.047612654953756 -1.458632771168844 -5.591660801564352 -0.2751160931042615 0.05796368694689842 0.5543700889828088 2.584178350346444 0.0038215566667042745 0.415354266166709
5.443795680999756 -1.5323615570417424 0.8015192190753382 6.047600734024801 -1.4586566130267542 -5.591648880635397 -0.27509576955827225 0.05802913558011366 0.554363578943919 2.5841572077210513 0.0035191163363107823 0.4153094793769925
5.443446636199951 -1.5323615570417424 0.8015196959124964 6.047588813095846 -1.4586685339557093 -5.591660801564352 -0.27507510737472324 0.05812990044695128 0.5543621868646051 2.5841366452408923 0.003089254366472455 0.4151805057427052
5.443073749542236 -1.532337599699833 0.8014829794513147 6.047624575882711 -1.4586203734027308 -5.591660801564352 -0.2750644630329637 0.05822387879156861 0.5543686857272834 2.584056652363969 0.0025859604746270785 0.4150104180367948
5.442567825317383 -1.5323376034251233 0.8015669027911585 6.047624575882711 -1.4586446920977991 -5.591636959706442 -0.2750275597510272 0.05836528559896026 0.5543503583409185 2.5839465184874304 0.0019046490845456066 0.41492489054076354
5.44185733795166 -1.5323376108757039 0.8015549818622034 6.047612654953756 -1.4586685339557093 -5.591636959706442 -0.27498317563745445 0.05856785849766029 0.5543512657675074 2.5839068659623954 0.0009982585533931504 0.4146702811029393
5.440918922424316 -1.5323734928718586 0.8015430609332483 6.047600734024801 -1.4586203734027308 -5.591696564351217 -0.2749323347231797 0.0588097267905036 0.5543622217773836 2.5838353928758377 -0.0001518462656124186 0.41420554478823157
5.439825057983398 -1.5323615831187745 0.8015192190753382 6.047636496811666 -1.4586446920977991 -5.591672960911886 -0.2748589233868784 0.05911094305161613 0.5543668306380853 2.583716995636655 -0.0015875804216950013 0.4138563325181266
5.438563346862793 -1.5323495429805298 0.8015549818622034 6.047564971237936 -1.4586685339557093 -5.591696564351217 -0.2747949593930887 0.05948038329958445 0.5543500674065731 2.5836173815487875 -0.003175248651946801 0.4133905960500235
5.4370598793029785 -1.5323615831187745 0.8015673796283167 6.047624575882711 -1.4586804548846644 -5.591684881840841 -0.274687485059667 0.05987853225644216 0.5543547602389536 2.5834165817508277 -0.005132155365479919 0.41290121403142555
5.435294151306152 -1.5323495429805298 0.8015907446490687 6.047612654953756 -1.4586446920977991 -5.591684881840841 -0.2745944561610134 0.060362722134388605 0.5543470682601002 2.583195621815559 -0.00742864651603779 0.4122319712451967
5.433277606964111 -1.5323255819133301 0.8016508261310022 6.047576892166891 -1.4586804548846644 -5.591684881840841 -0.2744757629795635 0.060936136516049774 0.5543250879646923 2.582958235642076 -0.010021584786531063 0.411565489774807
5.4310784339904785 -1.5323615831187745 0.8016389052020472 6.047612654953756 -1.4586084524737757 -5.591660801564352 -0.2743417277497219 0.06150864517717715 0.5543406099291331 2.5827037097670273 -0.012919879933594872 0.41067847737235996
5.428521633148193 -1.5323376220515748 0.8016508261310022 6.047624575882711 -1.4586446920977991 -5.591648880635397 -0.2741788086853858 0.06222036379845357 0.5543326765785119 2.5824047770309124 -0.01622438139852487 0.4098166567575074
5.4258198738098145 -1.5323376220515748 0.8016269842730921 6.047624575882711 -1.4586446920977991 -5.591672960911886 -0.2740102229100335 0.06296150524378051 0.5543377009843824 2.582128781611819 -0.019677996975468487 0.40879349632534795
5.422684192657471 -1.5323376220515748 0.8016746679889124 6.047612654953756 -1.458632771168844 -5.591672960911886 -0.27381545907691723 0.06381978757489155 0.5543269891731948 2.5817449761484523 -0.023730729057569604 0.40765240955658333
5.41928768157959 -1.5323735040477295 0.8015788237201136 6.047600734024801 -1.4586203734027308 -5.591672960911886 -0.27359521208905446 0.06474171805386125 0.554354687302896 2.5814831169726817 -0.02810643593341865 0.40627495159785443
5.415554046630859 -1.5323376220515748 0.8016627470599573 6.047576892166891 -1.4586203734027308 -5.591648880635397 -0.27336339380713487 0.06577672734241076 0.554326896071569 2.580973976641201 -0.03295838359033186 0.4049800367940933
5.411472797393799 -1.5323495429805298 0.8016508261310022 6.047600734024801 -1.4586446920977991 -5.591696564351217 -0.2730797305141125 0.06688734716681465 0.5543334289851917 2.5805057696566474 -0.03814792133518607 0.4034808419899698
5.4072136878967285 -1.5323015016368409 0.8016746679889124 6.047612654953756 -1.4586446920977991 -5.591648880635397 -0.2728016713426188 0.06806094977850013 0.5543184705125033 2.5799297867290725 -0.0437030873369705 0.4019886494563671
5.40273904800415 -1.532325518583395 0.8016026655780237 6.047636496811666 -1.4586203734027308 -5.591660801564352 -0.27249118799028194 0.06926599862863064 0.554341696351951 2.579438482974421 -0.04945648890732065 0.4002477011530738
5.398109436035156 -1.5323255260339756 0.8016145865069788 6.047588813095846 -1.458632771168844 -5.591672960911886 -0.27217328285332637 0.0705394726852052 0.5543349486888265 2.5789021797748917 -0.055394713816831156 0.3985157703961699
5.39337158203125 -1.5323255036822339 0.8016627470599573 6.047612654953756 -1.4586203734027308 -5.591696564351217 -0.2718335477763864 0.07181939271863244 0.5543270762909703 2.578233194109134 -0.0614714104313165 0.3967936863385925
5.388429164886475 -1.532313485895731 0.8016508261310022 6.047600734024801 -1.4586446920977991 -5.591660801564352 -0.2714748748719604 0.07317280104012748 0.5543252393717173 2.5776200360757704 -0.06786598917132894 0.39499195540676435
5.383307456970215 -1.5323375773480912 0.8016389052020472 6.047624575882711 -1.4586566130267542 -5.591684881840841 -0.2710837334383142 0.07455161424683839 0.5543348640045733 2.5769604209510084 -0.07441607762316314 0.39308649594301376
5.377981662750244 -1.5323014643839379 0.8016389052020472 6.047600734024801 -1.458632771168844 -5.591696564351217 -0.270701604355679 0.07600705784032785 0.554325335745491 2.5762215895952254 -0.0812567407982833 0.39108855294099476
5.372609615325928 -1.5322895360044022 0.8016865889178675 6.047576892166891 -1.4586084524737757 -5.591684881840841 -0.2703014103751365 0.07746422366140343 0.5543112636792972 2.575441148246774 -0.0881849596070158 0.3890975072402334
5.3671417236328125 -1.5323254142752667 0.8016865889178675 6.047576892166891 -1.4586446920977991 -5.591660801564352 -0.2698565155581164 0.07893572563149451 0.5543184566036798 2.574723123587949 -0.09522199966116658 0.3870851109155521
5.361603260040283 -1.532301378702261 0.8016627470599573 6.047588813095846 -1.458632771168844 -5.591672960911886 -0.26942213471515114 0.08043252317759224 0.5543193140757808 2.573912158672247 -0.10232041530782879 0.38501531225209606
5.355936527252197 -1.5322655339590092 0.8016508261310022 6.047636496811666 -1.4586446920977991 -5.591672960911886 -0.26895939089731374 0.08196013005001526 0.5543172808156164 2.5730242294743015 -0.10958876029715096 0.3829703117317199
5.3501715660095215 -1.5322895173779507 0.8016985098468226 6.047600734024801 -1.4586566130267542 -5.591696564351217 -0.2684792344693424 0.08351083321749521 0.5543094315262657 2.5721774693532855 -0.11694503564700602 0.38081606998500245
5.344217300415039 -1.532289547180273 0.8017104307757776 6.047600734024801 -1.4586446920977991 -5.591672960911886 -0.2679799075230273 0.08510575403823219 0.5543072406564898 2.57125277375121 -0.12461100389459075 0.37859870428400444
5.338310241699219 -1.5323011179319401 0.8016389052020472 6.047564852028646 -1.4586685339557093 -5.591636959706442 -0.267471564343661 0.08669777365139848 0.5543213707711584 2.5704492514784913 -0.13221023358191286 0.3763443608366231
5.332296371459961 -1.5322534006885071 0.8017104307757776 6.047600734024801 -1.4586566130267542 -5.591684881840841 -0.26695163663977617 0.08830754597361698 0.5542987153665616 2.5693471404230404 -0.13985644362434918 0.37417908449245385
