qblc7/bachelorproject/Testdaten/kurve_c2/robot_c2.csv
actual_q_0 actual_q_1 actual_q_2 actual_q_3 actual_q_4 actual_q_5 actual_TCP_pose_0 actual_TCP_pose_1 actual_TCP_pose_2 actual_TCP_pose_3 actual_TCP_pose_4 actual_TCP_pose_5
5.32252311706543 -1.3408692640117188 1.3777053991900843 4.782855260163107 -1.4584525267230433 -5.5917444864856165 -0.4551144050844122 0.3622078022779903 0.26346493738193955 2.98848987686051 -0.12939210529464126 -0.03398460826000018
5.322510719299316 -1.3408692640117188 1.3776691595660608 4.782867181092062 -1.4584649244891565 -5.591720644627706 -0.455111410552464 0.36222186903808246 0.2634804298714315 2.9885142307556647 -0.12944449378538547 -0.033990919385375636
5.322534561157227 -1.3408573430827637 1.3776939550982874 4.782831179886617 -1.458416763936178 -5.591708485280172 -0.4551339533270493 0.36220657192387706 0.2634663389367783 2.9884842040202315 -0.12942950785443583 -0.03404330603715048
5.32254695892334 -1.3408932250789185 1.3776815573321741 4.782819258957662 -1.458416763936178 -5.591708485280172 -0.4551406360634588 0.36220405896158053 0.2634928864151592 2.988532229163125 -0.129408025948864 -0.03409711317348872
5.322558879852295 -1.3408692640117188 1.3776815573321741 4.782891022949972 -1.458428684865133 -5.591720644627706 -0.4551312149539288 0.36218502205245784 0.2634742217198901 2.9884658743054713 -0.12937634420419036 -0.03399526499269713
5.322558879852295 -1.3408813041499634 1.3776815573321741 4.782819258957662 -1.4584649244891565 -5.591732565556661 -0.45513413259657154 0.3622074798967337 0.2634847206552534 2.9885551769906913 -0.12935216902135402 -0.034030427632055375
5.322534561157227 -1.3408692640117188 1.3776815573321741 4.782831179886617 -1.4584525267230433 -5.591696564351217 -0.45512694256152353 0.3622146079095686 0.2634775764945244 2.9885246190838397 -0.12944419119694986 -0.03402185005119492
5.32254695892334 -1.3408692640117188 1.3777301947223108 4.782783257752218 -1.458428684865133 -5.591732565556661 -0.455136604819309 0.3622042859132278 0.2634592005818339 2.988512652586555 -0.12937294775725527 -0.03405210044280457
5.32252311706543 -1.3408932250789185 1.3776691595660608 4.7828431008155725 -1.4584525267230433 -5.591720644627706 -0.45512159985800954 0.3622181053873667 0.26349583829800605 2.988545009844075 -0.12942421224285894 -0.03404826998808513
5.322558879852295 -1.3408692640117188 1.3777416388141077 4.782819258957662 -1.4584406057940882 -5.591708485280172 -0.455129865500239 0.3621890646671159 0.26345108179583276 2.98848156783566 -0.1293928892220975 -0.03399042726270547
5.322558879852295 -1.3408451837352295 1.3777053991900843 4.782783257752218 -1.458428684865133 -5.591696564351217 -0.4551467568436522 0.3622072268550971 0.2634571945386066 2.988511177565612 -0.12940890572120387 -0.03404735420744348
5.322558879852295 -1.3409171861461182 1.3776815573321741 4.782855260163107 -1.4584525267230433 -5.591720644627706 -0.4551288695156152 0.36219368637254007 0.2635026565612928 2.9885464866317744 -0.12937082496675464 -0.034043712801542246
5.322534561157227 -1.3408692640117188 1.3776691595660608 4.782795178681173 -1.458428684865133 -5.5917444864856165 -0.45514101889147573 0.36222270311306876 0.26348651067247664 2.988551494905136 -0.12937142482710645 -0.03409987765188569
5.32254695892334 -1.3408451837352295 1.3777168432818812 4.782795178681173 -1.458428684865133 -5.5917444864856165 -0.45513834849980445 0.36220679721927557 0.2634511028237213 2.988495729105921 -0.12935630670603923 -0.034032674735913225
5.32252311706543 -1.3408573430827637 1.3776691595660608 4.782831179886617 -1.458428684865133 -5.591696564351217 -0.4551314049510142 0.3622200992378273 0.2634773904238728 2.9885095835943543 -0.12946259807921254 -0.034051848959671
5.32254695892334 -1.3408813041499634 1.3777416388141077 4.782831179886617 -1.458428684865133 -5.591720644627706 -0.4551256639584384 0.36218863455796724 0.2634573554956333 2.9884745209316383 -0.12939324619721662 -0.03400739695590099
5.32252311706543 -1.3408573430827637 1.3777168432818812 4.782819258957662 -1.458404843007223 -5.591720644627706 -0.45513059165656655 0.3622068655949722 0.26345698436996823 2.988468471911931 -0.12942955233635453 -0.034050039455244326
5.322558879852295 -1.3408692640117188 1.3776691595660608 4.782831179886617 -1.458428684865133 -5.591732565556661 -0.45514367124155575 0.36220283533652997 0.26348404036509465 2.9885236039205973 -0.12935478743361378 -0.03406280983667836
5.322510719299316 -1.3408451837352295 1.3776815573321741 4.782831179886617 -1.458416763936178 -5.591720644627706 -0.45512824130831175 0.3622216163695501 0.2634652693841535 2.9884840007180085 -0.12944698426002416 -0.03404757435811424
5.322558879852295 -1.3408813041499634 1.3777301947223108 4.782819258957662 -1.4584406057940882 -5.591780487691061 -0.45513122337556294 0.36219100978114793 0.2634630718103794 2.988505419870448 -0.12928420926433754 -0.034020069796205435
5.322558879852295 -1.3408932250789185 1.3776815573321741 4.782819258957662 -1.4584525267230433 -5.591696564351217 -0.455136407768379 0.36220446962773006 0.263491760718112 2.9885541699052958 -0.12940605293554555 -0.0340520143567551
5.32254695892334 -1.3408932250789185 1.3776815573321741 4.782807338028707 -1.458404843007223 -5.591720644627706 -0.4551455232390576 0.3622050272068163 0.26349407975341366 2.988535124436046 -0.1293898855839518 -0.034123543950906644
5.32259464263916 -1.3408813041499634 1.3776815573321741 4.782819258957662 -1.4584525267230433 -5.591720644627706 -0.45515004842522533 0.3621891794027679 0.26348511081053805 2.988548548357646 -0.12931720255972542 -0.03403976514009109
5.32257080078125 -1.3408813041499634 1.3777053991900843 4.782807338028707 -1.4584649244891565 -5.591732565556661 -0.45513621418858946 0.3621988399373304 0.2634745511105774 2.9885464545738336 -0.12933484363522285 -0.034018148573106935
5.32257080078125 -1.3409171861461182 1.3776815573321741 4.782819258957662 -1.4584649244891565 -5.5917444864856165 -0.45513638096020265 0.3621990832864497 0.2635047368322599 2.98858493601898 -0.1293148065050851 -0.034063339467024174
5.32252311706543 -1.3408573430827637 1.3777053991900843 4.782807338028707 -1.4584406057940882 -5.591720644627706 -0.45512613564369114 0.3622185570543981 0.2634619501912928 2.988509033727761 -0.12942641880584943 -0.034029039789162926
5.322558879852295 -1.3408573430827637 1.3776939550982874 4.782807338028707 -1.458428684865133 -5.591732565556661 -0.455143989940476 0.3622032763562535 0.26346759932658487 2.9885134860412577 -0.12935527211222062 -0.0340509874761366
5.32257080078125 -1.3408813041499634 1.3777301947223108 4.782855260163107 -1.458416763936178 -5.591732565556661 -0.45513508185725043 0.36217289391933716 0.2634613527875511 2.9884593746790484 -0.12934119232095878 -0.03400862103913592
5.322558879852295 -1.3408813041499634 1.3777168432818812 4.782855260163107 -1.458416763936178 -5.591708485280172 -0.4551331583418242 0.36218175137968633 0.2634675054865514 2.9884674250672223 -0.12939435181378964 -0.03401949366595476
5.32254695892334 -1.3408573430827637 1.3776815573321741 4.782831179886617 -1.4584525267230433 -5.591720644627706 -0.45513212054128555 0.3622099521715211 0.26347092660052274 2.9885177227154336 -0.12939026516228733 -0.03401223111905148
5.32254695892334 -1.3408813041499634 1.3777168432818812 4.782819258957662 -1.458428684865133 -5.591732565556661 -0.4551321483137981 0.36219792178991694 0.26346959988238094 2.988504295438867 -0.12937363975417487 -0.034042397147914336
5.322558879852295 -1.3409171861461182 1.3777416388141077 4.7828431008155725 -1.458428684865133 -5.591756645833151 -0.4551258741631057 0.3621773251426935 0.2634765530635249 2.9884967010064782 -0.12932054324944667 -0.034032095615376706
5.32254695892334 -1.3408451837352295 1.3776691595660608 4.782819258957662 -1.4584406057940882 -5.591696564351217 -0.45513993170019673 0.36221511365907694 0.2634710500922067 2.9885180975785572 -0.12942626539360066 -0.03403479734488899
5.322558879852295 -1.3408573430827637 1.3776939550982874 4.782819258957662 -1.4584406057940882 -5.591720644627706 -0.45513910271273306 0.36220230812684556 0.2634664062444625 2.9885106084864623 -0.1293730555576753 -0.034024583561183215
5.322534561157227 -1.3408813041499634 1.3776939550982874 4.782819258957662 -1.4584649244891565 -5.591720644627706 -0.45512310129258726 0.3622153614601462 0.263479007164503 2.988543206082882 -0.12940691032062343 -0.03402045537286789
5.322534561157227 -1.3408932250789185 1.3777301947223108 4.782807338028707 -1.458404843007223 -5.591684881840841 -0.45513231262350157 0.36219816869304067 0.26347166520222154 2.9884935166501045 -0.12946413202466878 -0.034076316876468234
5.32254695892334 -1.3408692640117188 1.3777416388141077 4.782795178681173 -1.4584525267230433 -5.591720644627706 -0.45512681689792983 0.3622023213567304 0.2634523584527274 2.988508166781945 -0.12939061558182618 -0.034001064920357184
5.322558879852295 -1.3408451837352295 1.3777301947223108 4.782831179886617 -1.458428684865133 -5.591720644627706 -0.45513411583674956 0.3621891401213888 0.2634424806437487 2.988455768314653 -0.1293766369459011 -0.03398341825876383
5.322558879852295 -1.3408573430827637 1.3776815573321741 4.782819258957662 -1.4584525267230433 -5.5917444864856165 -0.45513847691988213 0.36220744023365536 0.26347174445294197 2.988529536022026 -0.12933620114571243 -0.03402449632727221
5.322510719299316 -1.3408451837352295 1.3776691595660608 4.782795178681173 -1.458428684865133 -5.591720644627706 -0.4551337711767811 0.36223554800871854 0.2634730775178392 2.988529473092389 -0.12944384236182302 -0.03407779108094964
5.32254695892334 -1.3408932250789185 1.3776939550982874 4.7828431008155725 -1.4584406057940882 -5.591720644627706 -0.45512863891372357 0.3621989359196853 0.2634847865412483 2.9885194152636174 -0.12939039818766723 -0.034036989998746756
5.322498798370361 -1.3408692640117188 1.3776691595660608 4.782795178681173 -1.458428684865133 -5.591720644627706 -0.455128064507098 0.3622389799927326 0.26348651067247664 2.9885477584969267 -0.12946049576416294 -0.03410121929373628
5.32254695892334 -1.3408692640117188 1.3777168432818812 4.782819258957662 -1.4584525267230433 -5.591732565556661 -0.4551271450409057 0.36220280925583764 0.2634621331740038 2.9885096139229503 -0.12937291280868346 -0.03400307676201233
5.322558879852295 -1.3408692640117188 1.377657715474264 4.782867181092062 -1.4584525267230433 -5.591684881840841 -0.45513386931270117 0.36220086832404985 0.2634860938972442 2.9885154998003487 -0.12942607361185757 -0.03400666941188281
5.32257080078125 -1.3408692640117188 1.3776815573321741 4.782855260163107 -1.458428684865133 -5.591732565556661 -0.4551416482362598 0.36218833747437734 0.2634766748956884 2.9884955559775643 -0.12933882733559063 -0.03402803488015107
5.322534561157227 -1.3408573430827637 1.3777053991900843 4.782819258957662 -1.458428684865133 -5.5917444864856165 -0.45513109116302625 0.36220848941010203 0.26346150761094317 2.9884946684331233 -0.12937498313746976 -0.03403365107469535
5.32252311706543 -1.3409171861461182 1.3776939550982874 4.7828431008155725 -1.458428684865133 -5.591732565556661 -0.4551214702634357 0.36220585763736646 0.2634985277814378 2.988530454248588 -0.1294077219118134 -0.0340771314434272
5.322558879852295 -1.3408692640117188 1.3776939550982874 4.782783257752218 -1.4584649244891565 -5.591732565556661 -0.4551387603625517 0.3622140893684049 0.2634747609556968 2.988564284254482 -0.12935143230648471 -0.034041005548608595
5.32254695892334 -1.3408813041499634 1.3776691595660608 4.782783257752218 -1.4584406057940882 -5.591732565556661 -0.4551440050173064 0.3622209225782299 0.2634936701047904 2.9885775215174193 -0.12936883449338898 -0.03410496921247272
5.322534561157227 -1.3408573430827637 1.3776815573321741 4.782807338028707 -1.458416763936178 -5.5917444864856165 -0.4551402530571351 0.36221558606617066 0.2634736880420169 2.9885154079324656 -0.12937388360397312 -0.0340805731272328
5.322558879852295 -1.3408932250789185 1.3776691595660608 4.782819258957662 -1.458416763936178 -5.591720644627706 -0.45514717658320997 0.36220181965100096 0.2634986000022327 2.9885435406996192 -0.1293714592820589 -0.034108507922282885
5.32252311706543 -1.3408692640117188 1.3776939550982874 4.782819258957662 -1.458416763936178 -5.591720644627706 -0.45513115928400255 0.3622137074235148 0.26347380663784337 2.988503242903211 -0.12942724219996538 -0.03406782060370999
5.322558879852295 -1.3408573430827637 1.3776815573321741 4.7828431008155725 -1.4584525267230433 -5.591672960911886 -0.45513439985092286 0.36220161285445884 0.2634701087904942 2.9885054279936307 -0.1294443079821451 -0.03399459778200369
5.322558879852295 -1.3408692640117188 1.3777301947223108 4.782795178681173 -1.4584406057940882 -5.591732565556661 -0.4551360353705353 0.36219789200714997 0.2634580075005647 2.9885113170783733 -0.1293551053571905 -0.034025696546011217
5.322558879852295 -1.3408813041499634 1.377657715474264 4.782807338028707 -1.458428684865133 -5.591732565556661 -0.4551491056760692 0.36221060710000297 0.2634976669193687 2.9885608326173068 -0.12935240422629124 -0.0341061939222507
5.322534561157227 -1.3408813041499634 1.3776939550982874 4.782819258957662 -1.458416763936178 -5.591720644627706 -0.45513461021698365 0.3622075020839556 0.26348052301363767 2.9885133361067124 -0.1294095541634627 -0.03407757555838419
5.322558879852295 -1.3408573430827637 1.377657715474264 4.782819258957662 -1.4584406057940882 -5.591708485280172 -0.4551456003255211 0.36221162278095376 0.2634831070834033 2.9885382034724706 -0.12938951197417242 -0.0340564435952804
5.322558879852295 -1.3408692640117188 1.3777053991900843 4.782831179886617 -1.458428684865133 -5.5917444864856165 -0.45513717362401634 0.3621935206757562 0.2634673396482738 2.9884959907438238 -0.12933868788508887 -0.03403092371162587
5.32254695892334 -1.3408932250789185 1.3777053991900843 4.782831179886617 -1.458428684865133 -5.591708485280172 -0.45513147431236417 0.36219696274964475 0.26348070571463444 2.9885114906576695 -0.1294091255177198 -0.0340501900037384
5.32254695892334 -1.3408692640117188 1.3777053991900843 4.782807338028707 -1.4584525267230433 -5.591708485280172 -0.45513123545380496 0.3622086645642855 0.2634682248913433 2.9885261947166892 -0.12940771522128822 -0.03402178248545937
5.322558879852295 -1.3408451837352295 1.3777053991900843 4.7828431008155725 -1.4584525267230433 -5.591684881840841 -0.4551308259600286 0.3621964909856003 0.2634523389261627 2.9884780045060744 -0.12942821119326833 -0.033962926135174286
5.322558879852295 -1.3408573430827637 1.3776815573321741 4.782831179886617 -1.4584406057940882 -5.591708485280172 -0.4551392870901978 0.3622025810930763 0.2634713017901943 2.988510070971697 -0.12939126557384645 -0.034023658894358245
5.32257080078125 -1.3408813041499634 1.3777416388141077 4.782831179886617 -1.458428684865133 -5.591720644627706 -0.4551342990790334 0.36217778341367 0.2634573554956333 2.9884758229072768 -0.1293576103940865 -0.034004712372156055
5.32257080078125 -1.3408451837352295 1.3776691595660608 4.782831179886617 -1.4584406057940882 -5.591720644627706 -0.4551465288884253 0.3622013485171865 0.26347023223850663 2.9885118205518126 -0.1293552877660203 -0.03402390064101617
5.322558879852295 -1.3408692640117188 1.377657715474264 4.782855260163107 -1.4584525267230433 -5.591696564351217 -0.4551359078441774 0.36220378201003783 0.2634869117488163 2.9885257533022163 -0.12940799191019361 -0.03401890810592734
5.322558879852295 -1.3408813041499634 1.3776939550982874 4.782831179886617 -1.4584525267230433 -5.591696564351217 -0.45513283388266096 0.3621993563879449 0.26347857942577535 2.9885256643565086 -0.12940784364836214 -0.03401878843250668
5.32257080078125 -1.3409171861461182 1.3776691595660608 4.782783257752218 -1.458428684865133 -5.591732565556661 -0.45515341992175157 0.36220515425020644 0.2635140620443289 2.988599644786757 -0.12933211446576065 -0.03414933792362032
5.322558879852295 -1.3408932250789185 1.3776815573321741 4.782831179886617 -1.458416763936178 -5.591708485280172 -0.4551429153329132 0.3621957195865499 0.26349206843384465 2.9885235004101927 -0.12939083819474817 -0.03408484762245622
5.32252311706543 -1.3408573430827637 1.3776939550982874 4.782831179886617 -1.4584406057940882 -5.591708485280172 -0.45512411062692143 0.3622156711750276 0.26346558843569645 2.9884983658106306 -0.12944530382971367 -0.034016317460373126
5.32254695892334 -1.3408692640117188 1.3777053991900843 4.782819258957662 -1.4584406057940882 -5.591768566762106 -0.4551320456817762 0.36220380543331887 0.26346778222860473 2.9885139134765946 -0.12931924908187512 -0.034031761171097526
5.322534561157227 -1.3408932250789185 1.3777416388141077 4.782819258957662 -1.4584406057940882 -5.591684881840841 -0.4551196760519655 0.36219814946838946 0.26346444767435473 2.988497316732042 -0.12946333791158257 -0.03401248505648746
5.32252311706543 -1.3408932250789185 1.3777416388141077 4.7828431008155725 -1.4584406057940882 -5.591720644627706 -0.4551114541151531 0.36219753032620816 0.2634628121831478 2.9884806065608323 -0.12942828061548367 -0.03399595350912843
5.32254695892334 -1.3408932250789185 1.3777416388141077 4.782831179886617 -1.458416763936178 -5.591732565556661 -0.4551278254163122 0.36218570244205384 0.2634643804078527 2.9884773934938615 -0.12937551672023537 -0.03403381145262786
5.32254695892334 -1.3408813041499634 1.3777053991900843 4.782795178681173 -1.458416763936178 -5.591672960911886 -0.45514116663980714 0.3622048035631747 0.26347690125789747 2.988520391219016 -0.12946152014949636 -0.03408238471794916
5.32254695892334 -1.3408813041499634 1.3776815573321741 4.782807338028707 -1.4584525267230433 -5.591720644627706 -0.4551348158622852 0.36221379592223085 0.263485928790553 2.9885553252634605 -0.12938784571158277 -0.03405605543074557
5.322582721710205 -1.3408692640117188 1.3777168432818812 4.782819258957662 -1.4584525267230433 -5.5917444864856165 -0.45514009813171624 0.3621865324090796 0.2634621331740038 2.988512457290918 -0.12930165075462507 -0.034000392760339816
5.322558879852295 -1.3408813041499634 1.3776815573321741 4.782819258957662 -1.458416763936178 -5.591708485280172 -0.45514564131912044 0.36219962022532964 0.2634862365062294 2.9885235056986454 -0.1293907846759163 -0.034084837045477885
5.32252311706543 -1.3408692640117188 1.3776815573321741 4.782783257752218 -1.4584525267230433 -5.5917444864856165 -0.4551309917376796 0.3622315296282208 0.26348086468897886 2.9885652856719567 -0.12938717600240482 -0.03407244367860541
5.32257080078125 -1.3408573430827637 1.3777168432818812 4.782819258957662 -1.458428684865133 -5.5917444864856165 -0.45514216514671335 0.3621890537983767 0.26345623378793637 2.988487645207987 -0.12932135582100365 -0.034019077991399166
5.32257080078125 -1.3408813041499634 1.3776939550982874 4.782831179886617 -1.4584406057940882 -5.591696564351217 -0.45514000027948126 0.3621919852634258 0.2634789546158999 2.9885189217142067 -0.12939067999838694 -0.03403158493812323
5.32257080078125 -1.3408692640117188 1.3777053991900843 4.782807338028707 -1.4584649244891565 -5.591732565556661 -0.45513690842752474 0.36219983660625554 0.2634678347369943 2.9885369862501445 -0.12933542612193025 -0.03400710517045221
5.32254695892334 -1.3408932250789185 1.3776815573321741 4.782831179886617 -1.4584406057940882 -5.5917444864856165 -0.4551329001595937 0.36220503613282945 0.26349131792912905 2.9885403294793926 -0.12935356803093853 -0.034061964595721674
5.322558879852295 -1.3408573430827637 1.3777053991900843 4.782819258957662 -1.4584406057940882 -5.591708485280172 -0.45513705076295535 0.3621993665540353 0.26346113238083135 2.9885006978649904 -0.12939175859441748 -0.034012721519903796
5.322534561157227 -1.3408932250789185 1.3776691595660608 4.782819258957662 -1.4584649244891565 -5.591732565556661 -0.4551268592804342 0.3622207475510766 0.2634970841475903 2.9885729754527013 -0.12938735803518508 -0.034055466062196775
5.32254695892334 -1.3408692640117188 1.3777301947223108 4.782867181092062 -1.4584525267230433 -5.591708485280172 -0.4551165562349222 0.36218766406681496 0.26345269339893984 2.988459603825684 -0.12941204613760363 -0.033944212876085844
5.322558879852295 -1.3408813041499634 1.3777053991900843 4.782831179886617 -1.4584406057940882 -5.591732565556661 -0.4551336306994492 0.3621944694524257 0.26347368070702815 2.9885119613593045 -0.12935525802248918 -0.034026486307889625
5.322558879852295 -1.3408692640117188 1.3776691595660608 4.782879102021017 -1.4584525267230433 -5.591720644627706 -0.45512977894209083 0.36219501322340963 0.2634800022564181 2.988499792709079 -0.12937381971865922 -0.03398927875555052
5.322558879852295 -1.3409171861461182 1.3777053991900843 4.782807338028707 -1.458416763936178 -5.591720644627706 -0.45514133590177985 0.36219343516778524 0.2634960830017697 2.988543258873961 -0.12937137715443706 -0.03410818034793729
5.322558879852295 -1.3408451837352295 1.3777053991900843 4.782819258957662 -1.458428684865133 -5.591756645833151 -0.4551406004758944 0.3621984275237157 0.2634547247509855 2.9884873428094463 -0.12932105919691694 -0.034021129740105106
5.322498798370361 -1.3408692640117188 1.3777053991900843 4.782795178681173 -1.458404843007223 -5.591756645833151 -0.4551272651217975 0.36222577446250176 0.2634705601520053 2.9885071605898963 -0.12940973224966573 -0.034100321776962955
5.32254695892334 -1.3408932250789185 1.3777053991900843 4.782819258957662 -1.4584525267230433 -5.591732565556661 -0.45512781535972247 0.36220376729485815 0.26348077318867313 2.988537458487125 -0.1293712144951898 -0.03403554684664076
5.32254695892334 -1.3408692640117188 1.3777053991900843 4.782819258957662 -1.4584525267230433 -5.591708485280172 -0.4551291969566314 0.3622057508545358 0.2634674070389243 2.988516814851239 -0.12940834533581885 -0.03401085903946745
5.322558879852295 -1.3409171861461182 1.3777530829059046 4.782819258957662 -1.4584406057940882 -5.591732565556661 -0.4551250506106832 0.3621821564393987 0.26347253958772077 2.988512052648213 -0.129355138314226 -0.034026599588435257
5.322534561157227 -1.3408813041499634 1.3776939550982874 4.782795178681173 -1.4584525267230433 -5.591696564351217 -0.4551301816512573 0.3622192239493764 0.2634810495935603 2.9885526628293992 -0.12944229013754857 -0.034054514960961096
5.322558879852295 -1.3408573430827637 1.3777053991900843 4.782867181092062 -1.4584406057940882 -5.591708485280172 -0.4551288557977351 0.3621876534401164 0.2634578452105091 2.9884629906446065 -0.12939429219809806 -0.03396880972795498
5.32254695892334 -1.3408451837352295 1.3777168432818812 4.782807338028707 -1.4584525267230433 -5.591696564351217 -0.45513057176759897 0.36220771604901786 0.26344951828010765 2.988497365023366 -0.12942722658864664 -0.03398786068210046
5.32254695892334 -1.3408692640117188 1.3777053991900843 4.7828431008155725 -1.4584406057940882 -5.591756645833151 -0.45512796867630934 0.36219797799715897 0.2634661466500723 2.98849426234975 -0.12933831765899995 -0.03400857308731929
5.322498798370361 -1.3408573430827637 1.3776691595660608 4.782819258957662 -1.4584525267230433 -5.591720644627706 -0.45511893681567034 0.362237971701429 0.26347745789923993 2.9885342234619956 -0.12946103678124182 -0.03403994277803213
5.322534561157227 -1.3408451837352295 1.3777168432818812 4.782831179886617 -1.4584763685809534 -5.591696564351217 -0.455116306682666 0.3622114218587399 0.26344713261713637 2.988492714030553 -0.12944570738446176 -0.03393913287681439
5.322534561157227 -1.3408573430827637 1.3777053991900843 4.782795178681173 -1.4584406057940882 -5.591720644627706 -0.4551323601039732 0.3622163205310831 0.26346278440163423 2.9885192263348825 -0.1294086706017214 -0.03403889324911107
5.322534561157227 -1.3408692640117188 1.3777168432818812 4.7828431008155725 -1.4584525267230433 -5.591684881840841 -0.4551185775509395 0.3622026242783169 0.26346049767772906 2.9884866106533012 -0.12946393424716862 -0.03397725769237743
5.322534561157227 -1.3408692640117188 1.3777053991900843 4.782855260163107 -1.458416763936178 -5.591708485280172 -0.45512709646212784 0.3621967577783801 0.2634660630697043 2.9884656298349173 -0.12943074358029394 -0.034021681886098935
5.322534561157227 -1.3408813041499634 1.3776939550982874 4.782819258957662 -1.4584763685809534 -5.591708485280172 -0.455120366495887 0.362217229049532 0.2634786470608492 2.9885493943855 -0.12942444616505713 -0.03400551363739553
5.32254695892334 -1.3408932250789185 1.3777053991900843 4.782807338028707 -1.458428684865133 -5.591708485280172 -0.4551355512792069 0.36220279012994216 0.2634823415492256 2.9885302500749154 -0.12940786485280012 -0.03407203714546948
5.32252311706543 -1.3408692640117188 1.3776939550982874 4.782855260163107 -1.4584525267230433 -5.591732565556661 -0.4551164569116401 0.36221074389926233 0.2634702111650041 2.988497987211546 -0.12940937387636675 -0.03399375879148618
5.32254695892334 -1.3408451837352295 1.3777301947223108 4.782855260163107 -1.458416763936178 -5.591708485280172 -0.45512852908704754 0.3621867345492398 0.2634412044144375 2.988427867048345 -0.1294145467496344 -0.033975465063865715
5.32257080078125 -1.3408932250789185 1.3776691595660608 4.782867181092062 -1.4584525267230433 -5.5917444864856165 -0.45513475335944975 0.36219051751531056 0.2634941861042489 2.9885304486523614 -0.12931859646679214 -0.034023521246623854
5.322558879852295 -1.3408451837352295 1.3777168432818812 4.782819258957662 -1.4584406057940882 -5.591732565556661 -0.45513569974878126 0.3621974312905203 0.2634490757423604 2.988483934637515 -0.12935691479045483 -0.033993787043235864
5.322534561157227 -1.3408692640117188 1.3777053991900843 4.782819258957662 -1.458416763936178 -5.591756645833151 -0.45513325262376564 0.36220555727290143 0.26346853273061616 2.9884975588999283 -0.12935689716669846 -0.03406009235348268
5.32254695892334 -1.3408573430827637 1.3777416388141077 4.7828431008155725 -1.4584649244891565 -5.591720644627706 -0.4551163465365716 0.36219361792015864 0.2634420315092738 2.988468773035578 -0.12939304385640402 -0.03393151618081343
5.322534561157227 -1.3409171861461182 1.3777053991900843 4.782819258957662 -1.4584525267230433 -5.591720644627706 -0.4551219430513433 0.3622074259959722 0.26349413928049714 2.9885547328774473 -0.1294063943754944 -0.034057577874795734
5.32257080078125 -1.3408813041499634 1.3776939550982874 4.782795178681173 -1.4584406057940882 -5.591708485280172 -0.45514615670935404 0.36220078446089693 0.26348142478499303 2.988548139692681 -0.12937096859106983 -0.03406591655069973
5.322534561157227 -1.3408813041499634 1.3776939550982874 4.782807338028707 -1.458404843007223 -5.591732565556661 -0.4551394973972041 0.36220847041355625 0.2634817162645079 2.988516213844001 -0.12939177029941495 -0.03410397946730994
5.32254695892334 -1.3408573430827637 1.3776815573321741 4.782795178681173 -1.458416763936178 -5.591720644627706 -0.4551468229339604 0.3622129152718041 0.26347452233971924 2.9885238688287963 -0.12939032507086318 -0.03408763560548358
5.322534561157227 -1.3408692640117188 1.3776815573321741 4.782855260163107 -1.4584763685809534 -5.591708485280172 -0.45511712735737464 0.362212612938244 0.26347517422046185 2.9885213500066836 -0.1294263467223821 -0.03397284943287153
5.322582721710205 -1.3408692640117188 1.3777168432818812 4.782831179886617 -1.4584406057940882 -5.591708485280172 -0.45514090818015396 0.3621816732406895 0.2634616905934973 2.9884929931407402 -0.1293567152787592 -0.03399955464805465
5.322534561157227 -1.3408813041499634 1.3776939550982874 4.782831179886617 -1.4584763685809534 -5.5917444864856165 -0.4551183280351029 0.3622143153146147 0.2634778291681771 2.9885427064205903 -0.12937129618061202 -0.033998642246354176
5.32252311706543 -1.3408692640117188 1.377657715474264 4.782807338028707 -1.458428684865133 -5.591708485280172 -0.45513684607515914 0.3622278811989844 0.2634909503644808 2.9885476108412785 -0.12944241409186885 -0.03409646511973917
5.322558879852295 -1.3408813041499634 1.3777053991900843 4.782783257752218 -1.4584525267230433 -5.591684881840841 -0.45513897686187405 0.3622081278740081 0.2634765935430724 2.9885534956400965 -0.12942330136391905 -0.034050893591086304
5.322510719299316 -1.3408813041499634 1.3776939550982874 4.7828431008155725 -1.458416763936178 -5.591756645833151 -0.45512189762618566 0.36221252569839646 0.2634788872663518 2.9884959673681744 -0.1293926720920594 -0.0340624662302538
5.32254695892334 -1.3408573430827637 1.3777301947223108 4.782783257752218 -1.458416763936178 -5.591696564351217 -0.45514014077925424 0.3622033271719062 0.26345292596961745 2.9884931918285154 -0.1294279583459198 -0.03405125188786353
5.32254695892334 -1.3408692640117188 1.3776691595660608 4.782831179886617 -1.4584406057940882 -5.591756645833151 -0.455136504696046 0.36221020646858343 0.2634836651336315 2.988532147269217 -0.12933597932487856 -0.034052723575985926
5.322558879852295 -1.3408932250789185 1.3777053991900843 4.782795178681173 -1.458428684865133 -5.591708485280172 -0.45514194832074667 0.3622003363923404 0.2634831758901568 2.9885404681697225 -0.12938940360071052 -0.03408183755132022
5.322558879852295 -1.3408813041499634 1.3776815573321741 4.782819258957662 -1.458416763936178 -5.5917444864856165 -0.45514564131912044 0.36219962022532964 0.2634862365062294 2.988526198049974 -0.12933700517177307 -0.034088889499136854
5.32254695892334 -1.3408692640117188 1.3776815573321741 4.782783257752218 -1.4584649244891565 -5.591684881840841 -0.4551366652191382 0.3622227016209427 0.26348047453280876 2.9885698185374086 -0.12943989902181832 -0.03404834892108496
5.32254695892334 -1.3408813041499634 1.3776815573321741 4.782819258957662 -1.4585006872760218 -5.591708485280172 -0.45512126855164386 0.36221874184569197 0.2634835954550732 2.9885749059117286 -0.12940399649614492 -0.03398664288317933
5.32254695892334 -1.3408573430827637 1.3777053991900843 4.782831179886617 -1.4584525267230433 -5.591732565556661 -0.4551278457417294 0.36220382387648187 0.2634599394239659 2.988499860780719 -0.12937358058677473 -0.033991712762317244
5.32257080078125 -1.3408813041499634 1.3777053991900843 4.782807338028707 -1.458428684865133 -5.591756645833151 -0.45514487415618005 0.36219292562720234 0.26347569168742535 2.988525778114743 -0.12930086185478015 -0.03406384042190506
5.322582721710205 -1.3408813041499634 1.3776815573321741 4.782831179886617 -1.458416763936178 -5.591732565556661 -0.45515223811948347 0.3621858549950376 0.26348541856730495 2.988517228007887 -0.1293198072522259 -0.034073940187019355
5.32252311706543 -1.3408573430827637 1.3776691595660608 4.782831179886617 -1.458404843007223 -5.591684881840841 -0.4551371024831789 0.36221620855489084 0.26347814100854516 2.988493921900484 -0.1294813582554123 -0.0340788106172907
5.32257080078125 -1.3408573430827637 1.3777053991900843 4.782819258957662 -1.4584406057940882 -5.591720644627706 -0.45514136848348846 0.362193940871875 0.26346113238083135 2.9885022579465375 -0.12935577672752704 -0.03401274836127664
5.32257080078125 -1.3408573430827637 1.3777301947223108 4.782807338028707 -1.458404843007223 -5.591696564351217 -0.4551475070239604 0.3621846446216418 0.263451649350944 2.988468153241522 -0.12939425071671568 -0.03404064000911895
5.32257080078125 -1.3408692640117188 1.3776939550982874 4.782855260163107 -1.4583929220782679 -5.591756645833151 -0.45514797135819046 0.36217931449943774 0.2634720875178001 2.988465423792869 -0.12930540568326215 -0.03406179394009722
5.322558879852295 -1.3408813041499634 1.3776815573321741 4.782855260163107 -1.458404843007223 -5.5917444864856165 -0.4551423336930762 0.362188875516903 0.26348414177233226 2.988490477622632 -0.1293395645268814 -0.034070039312813105
5.322534561157227 -1.3408813041499634 1.3777301947223108 4.782831179886617 -1.458428684865133 -5.591696564351217 -0.45512322551175116 0.3621972187516233 0.26346262927495157 2.9884810441551597 -0.12944720882632912 -0.034016574540233366
5.322534561157227 -1.3408932250789185 1.3776939550982874 4.78284319022254 -1.4584525267230433 -5.591732565556661 -0.45512128438571686 0.36220650200657656 0.2634844052170635 2.988526952832842 -0.12939047148534116 -0.034025506832744155
5.322510719299316 -1.3408573430827637 1.3777053991900843 4.782795238285818 -1.458416763936178 -5.591696564351217 -0.4551294114549549 0.3622232664350238 0.26346353081511376 2.9885012882168907 -0.12948159038351864 -0.03406708895226805
5.322558879852295 -1.3409171861461182 1.3776939550982874 4.782831224590101 -1.4584649244891565 -5.5917444864856165 -0.4551277943055301 0.3621983979498147 0.26349820211392144 2.9885651190466485 -0.1293338417908269 -0.03404234864154035
5.322534561157227 -1.3408451837352295 1.3777053991900843 4.782843130617895 -1.4584525267230433 -5.591720644627706 -0.455122012583144 0.36220755178193564 0.2634523368820107 2.988479326449567 -0.12941113874999557 -0.033969663749500736
5.322582721710205 -1.3408813041499634 1.3776939550982874 4.782819288759985 -1.458416763936178 -5.591708485280172 -0.4551520487063011 0.3621855748453425 0.2634805209688478 2.9885150324360956 -0.12935573430947864 -0.03407075795123235
5.322558879852295 -1.3408573430827637 1.3777053991900843 4.782855289965429 -1.4584525267230433 -5.591696564351217 -0.4551280405456645 0.36219250531801345 0.2634582856184878 2.988478849234231 -0.12941081598466828 -0.03396422501719174
5.32254695892334 -1.3408692640117188 1.3777053991900843 4.782831202238359 -1.458416763936178 -5.591696564351217 -0.4551357008116809 0.36219699543975764 0.26346771338593133 2.988484345045599 -0.1294287483251491 -0.0340409883232739
5.32254695892334 -1.3408813041499634 1.377646271382467 4.782831202238359 -1.458416763936178 -5.591684881840841 -0.45514560741285454 0.3622111959436365 0.2635016786505496 2.988539445278546 -0.12944283108581306 -0.03410493286697911
5.32254695892334 -1.3408813041499634 1.3776815573321741 4.782831179886617 -1.4584525267230433 -5.591720644627706 -0.45513073889614153 0.3622079685427348 0.26348429287291336 2.9885365656497895 -0.1293891060873996 -0.034034208400277065
5.322558879852295 -1.3408932250789185 1.3777168432818812 4.782831179886617 -1.4584525267230433 -5.591732565556661 -0.45512804272282315 0.36219248656703873 0.2634746813832778 2.988519727955634 -0.1293545656964408 -0.03401278855798017
5.322558879852295 -1.3409531873515625 1.3776939550982874 4.782855260163107 -1.458416763936178 -5.591684881840841 -0.45513311630291303 0.3621816823555809 0.2635181507826733 2.988540189162652 -0.12942505351730768 -0.034103756860788946
5.32257080078125 -1.340941147213318 1.3776691595660608 4.7828431008155725 -1.458416763936178 -5.591684881840841 -0.4551446529720901 0.3621865981281372 0.26352369632838357 2.9885604412578446 -0.12940600620736173 -0.034125250378089333
5.322558879852295 -1.3408451837352295 1.3776815573321741 4.782855260163107 -1.458428684865133 -5.591720644627706 -0.4551387190198502 0.3621957564899343 0.26346324226618134 2.9884750773012043 -0.12937561830189248 -0.03400594839738131
5.32254695892334 -1.3408573430827637 1.3777168432818812 4.782831179886617 -1.4584525267230433 -5.5917444864856165 -0.4551257937846285 0.3622008822186367 0.2634546656424964 2.988491750292567 -0.12935631210330684 -0.033982562072234074
5.322558879852295 -1.3409292262843628 1.3776815573321741 4.7828431008155725 -1.458416763936178 -5.5917444864856165 -0.45513880039160454 0.3621898248766665 0.263511332876806 2.988545123680289 -0.12933594636104512 -0.034110997586551395
5.32254695892334 -1.3409171861461182 1.377646271382467 4.782819258957662 -1.458416763936178 -5.591768566762106 -0.45514557994802696 0.36221114353040434 0.26352251482803735 2.988583318983718 -0.12931545036053113 -0.03415820719861664
5.322606563568115 -1.3409294050982972 1.3776691595660608 4.782855260163107 -1.458416763936178 -5.591720644627706 -0.45515620349719293 0.3621683212964308 0.26351631183264185 2.9885462669233545 -0.12930033892822398 -0.034103337040172106
5.322558879852295 -1.3408813041499634 1.3777168432818812 4.782867181092062 -1.4584406057940882 -5.5917444864856165 -0.45512542237476455 0.3621827285353531 0.26346593730252554 2.988475523472661 -0.12933989350055236 -0.03398434747828677
5.32257080078125 -1.3408690851977845 1.377669636403219 4.782867181092062 -1.458416763936178 -5.591696564351217 -0.4551446060460156 0.362186557114456 0.2634816262244525 2.9884853265274915 -0.12939333834310388 -0.034037962772335006
5.322558879852295 -1.3408450943282624 1.3777053991900843 4.7828431008155725 -1.4584525267230433 -5.5917444864856165 -0.45513083111419433 0.3621964983853215 0.2634522890527798 2.9884823901774045 -0.12933917784636706 -0.033969555365360574
5.32257080078125 -1.340869204407074 1.3777530829059046 4.782855260163107 -1.458416763936178 -5.591732565556661 -0.45513167526726395 0.36216801200211585 0.2634440561624706 2.9884318563812147 -0.12934285707182264 -0.0339765375784891
5.322558879852295 -1.3408931654742737 1.3777535597430628 4.782867181092062 -1.4584406057940882 -5.591684881840841 -0.45511815506573206 0.3621723090386575 0.26345563386928356 2.988451515161385 -0.1294300866625842 -0.033954849856793354
5.322630882263184 -1.3408812594464798 1.3777535597430628 4.782807338028707 -1.4584406057940882 -5.591708485280172 -0.45515515221260266 0.3621551499853395 0.26345309726043264 2.988494935192162 -0.12928461950942496 -0.03399331597823807
5.322582721710205 -1.3407715421966095 1.3778379599200647 4.782819258957662 -1.4584406057940882 -5.591696564351217 -0.45512685711157796 0.36216153463680745 0.26335218731488064 2.9883293646956517 -0.12938432663353044 -0.0338084573703299
5.32259464263916 -1.340638430123665 1.3779471556292933 4.782819258957662 -1.4584406057940882 -5.591672960911886 -0.45511924613361726 0.362139026938182 0.2632276295069367 2.988137668738484 -0.12941334764532206 -0.03358226438264994
5.322606563568115 -1.3404205304435273 1.3781402746783655 4.782783257752218 -1.4584406057940882 -5.591732565556661 -0.455107579146473 0.3621106906137154 0.263019599184457 2.9878477809604154 -0.1293242399095226 -0.033243799443413144
5.32257080078125 -1.3400836449912568 1.3782828489886683 4.782819258957662 -1.4584525267230433 -5.591720644627706 -0.45507932858397515 0.36211113006175577 0.26276321797409785 2.9874467750596367 -0.129419715390573 -0.032759885790561
5.32261848449707 -1.3396359545043488 1.378425423298971 4.782855260163107 -1.4584649244891565 -5.591720644627706 -0.4550874376813692 0.36208265559904296 0.2624450605768647 2.986964275786785 -0.129378010565038 -0.032165863981004225
5.322582721710205 -1.3389604997685929 1.3784845511065882 4.782807338028707 -1.458416763936178 -5.591696564351217 -0.45512203346036684 0.36214277746924683 0.26204589197227274 2.9863902910771554 -0.12950297151183532 -0.0315951221342499
5.322582721710205 -1.3380557608655472 1.3785317579852503 4.782819258957662 -1.4584525267230433 -5.591732565556661 -0.45515423412401124 0.3622071453162375 0.26151757528457864 2.9856563027592506 -0.1294936790301693 -0.03067406931380373
5.322606563568115 -1.3367770177176972 1.3785317579852503 4.782819258957662 -1.458428684865133 -5.5917444864856165 -0.4552406126513888 0.3622958345057521 0.2608048972217757 2.984636714917187 -0.12950330589706466 -0.02953039625489013
5.32259464263916 -1.3350794178298493 1.3785794417010706 4.782795178681173 -1.4584406057940882 -5.591720644627706 -0.45532376736457403 0.3624328785160801 0.2598368896343487 2.9832854964992994 -0.129638612638027 -0.027940364511627392
5.32261848449707 -1.3329344403794785 1.3786161581622522 4.782819258957662 -1.4584525267230433 -5.5917444864856165 -0.45543724766144955 0.3625786214884438 0.25862069906164975 2.9815568018286975 -0.12967275998201144 -0.025910312330023454
5.32259464263916 -1.330370010142662 1.3787115255938929 4.782783257752218 -1.458416763936178 -5.591708485280172 -0.455565631808607 0.3627681308768107 0.25714847150329684 2.9794603943069173 -0.1298895702119965 -0.023555904695001684
5.32259464263916 -1.327215240602829 1.3786633650409144 4.782831179886617 -1.458404843007223 -5.591708485280172 -0.45573796994949417 0.3630096016930636 0.2554051815982605 2.976961490946637 -0.13004128344952298 -0.02069402317165369
5.32259464263916 -1.3234352481416245 1.378674332295553 4.782819258957662 -1.4584525267230433 -5.591720644627706 -0.4559247892522698 0.363302031456347 0.25328635964593105 2.974003364884065 -0.1301997406805048 -0.01719919817169074
5.322606563568115 -1.3190472286990662 1.3786996046649378 4.782819258957662 -1.458416763936178 -5.5917444864856165 -0.45615732828980854 0.36360625798206675 0.25082141220690607 2.970489228240081 -0.13035816332161893 -0.013233494996516396
5.322558879852295 -1.314137266283371 1.378784481679098 4.782795178681173 -1.4584406057940882 -5.591720644627706 -0.4563662357308039 0.3639651201184462 0.2480352061646792 2.9665570830473285 -0.13069670496466745 -0.008702207880023644
5.322582721710205 -1.3087044221213837 1.3788073698626917 4.782795178681173 -1.458428684865133 -5.591732565556661 -0.4566339366617085 0.36432035813343344 0.24498173688303312 2.9622179648584392 -0.13090031164622112 -0.0037809778041149426
5.322582721710205 -1.3027900618365784 1.3788321653949183 4.782831179886617 -1.458416763936178 -5.591696564351217 -0.4568986326123479 0.36469474624064346 0.2416529418430569 2.9574527440849905 -0.13123312081729888 0.0015989747955697693
5.32257080078125 -1.2964982253364106 1.3788068930255335 4.782795178681173 -1.4584406057940882 -5.591756645833151 -0.45717737144634524 0.36511909052067415 0.23813488737073382 2.952501569705639 -0.1314482376501355 0.007221038044046862
5.322582721710205 -1.2896862787059327 1.3788545767413538 4.782831179886617 -1.4583810011493128 -5.591720644627706 -0.457467020118443 0.3654936831628105 0.23428777257079755 2.9469535177750132 -0.13180636477417335 0.013340319317093275
5.322558879852295 -1.2824383539012452 1.3788545767413538 4.7828431008155725 -1.458428684865133 -5.591720644627706 -0.45773303897461703 0.3659238861085069 0.23021144540916777 2.9411657332031997 -0.13216828936538366 0.019881275957024193
5.322534561157227 -1.2749093633941193 1.378878418599264 4.782783257752218 -1.458428684865133 -5.591684881840841 -0.4580112942442711 0.36634808620664155 0.22596792650275857 2.9351463278295196 -0.1325952693006286 0.02655658448879993
5.32257080078125 -1.2670965653708954 1.378878418599264 4.782819258957662 -1.458416763936178 -5.591720644627706 -0.4582939246779879 0.36671316751857325 0.22156713401824868 2.928827738049331 -0.132843365314809 0.03350821956644231
5.322582721710205 -1.2587818664363404 1.3787944952594202 4.782795178681173 -1.4584649244891565 -5.5917444864856165 -0.45857634429203 0.3671323483341572 0.21691705008928053 2.9222378135320644 -0.13315084172123587 0.040819043753108214
5.322510719299316 -1.2503459614566346 1.3789036909686487 4.782819258957662 -1.4584525267230433 -5.591732565556661 -0.45877641548888165 0.3674856964801568 0.21211102625686665 2.91529301306767 -0.13365234924650052 0.04834155714522596
5.32254695892334 -1.2417206925204773 1.3788188139544886 4.782771336823263 -1.458416763936178 -5.591708485280172 -0.4590555104803544 0.36783391478175015 0.20728172573675682 2.9083869984973547 -0.13400978604126393 0.055759293153250365
5.322546482086182 -1.233115778570511 1.3788192907916468 4.782807338028707 -1.4584649244891565 -5.591732565556661 -0.45924446086483467 0.36813167957614173 0.2024180291303668 2.901390740367024 -0.13434319883006868 0.06336161951773123
5.322510719299316 -1.224314199095108 1.3787825743304651 4.782771336823263 -1.458428684865133 -5.591720644627706 -0.4594409928007789 0.36843254980729145 0.19746103914478363 2.894250996284975 -0.13479093287795435 0.0709106534820669
5.322510242462158 -1.2156273883632203 1.378819767628805 4.782856213837423 -1.4584887663470667 -5.591732565556661 -0.4595637032098616 0.3686416207514735 0.19252831651331637 2.887087338131535 -0.13513971749359246 0.07861238352634228
5.322498798370361 -1.2069935959628602 1.3787577787982386 4.7827950147684 -1.4584649244891565 -5.5917444864856165 -0.4597238836305697 0.3688727600450287 0.18767178636134638 2.8801004278374123 -0.13549961114777317 0.08592573646773696
5.322498798370361 -1.1985683900168915 1.3787468115436 4.782795178681173 -1.458404843007223 -5.591732565556661 -0.4598490441592113 0.36902412203844304 0.1829093302377738 2.873154942742372 -0.1358761104373245 0.09309171942425654
5.322463035583496 -1.1901738804629822 1.3787830511676233 4.782807338028707 -1.4584525267230433 -5.591720644627706 -0.4598993764832676 0.3691581658989052 0.17813989532082333 2.8662275145293825 -0.13628484693972667 0.10037232795464256
5.322498798370361 -1.1819851261428376 1.378794018422262 4.782855558186331 -1.4584525267230433 -5.591732565556661 -0.45996259813973683 0.3692158578059353 0.17349715697535395 2.8594252089498853 -0.13655336098473922 0.10741223734263872
5.322486877441406 -1.1741491121104737 1.3787577787982386 4.782795126527109 -1.458416763936178 -5.591696564351217 -0.46002328067617354 0.36929887317053156 0.16907578968281553 2.8530018104224757 -0.13694069825204777 0.11395247361715806
5.322474956512451 -1.166497365837433 1.3787468115436 4.782807338028707 -1.4584525267230433 -5.591756645833151 -0.460028318109444 0.3693383509672667 0.16474451198789322 2.8466799963384353 -0.13717255689477634 0.12045904581335432
5.322474956512451 -1.1592933994582673 1.3787582556353968 4.7828431008155725 -1.4584406057940882 -5.591684881840841 -0.46002177295708707 0.36932524337531425 0.1606590134917165 2.8406487085370276 -0.13756510375888065 0.1265786585521908
5.322498798370361 -1.152499483232834 1.3787830511676233 4.782795178681173 -1.4584406057940882 -5.591768566762106 -0.4600173662121737 0.3692975030047756 0.15680141525226002 2.8350200904335527 -0.13767910469761085 0.1322600831627657
5.322486877441406 -1.1462614697268982 1.3787949720965784 4.78280724862174 -1.4584406057940882 -5.5917444864856165 -0.4599802101798399 0.36925809998587394 0.15326335283786288 2.829798325077932 -0.1379752339643218 0.1375129331910163
5.322463035583496 -1.1405233305743714 1.37877065340151 4.782783302455702 -1.4584406057940882 -5.591720644627706 -0.4599443058307568 0.3692321245689612 0.1500232020904561 2.825044618717901 -0.13826361105746932 0.14227012788203566
5.322463035583496 -1.1352896851352234 1.378735367451803 4.782819258957662 -1.458416763936178 -5.591696564351217 -0.4599089844508108 0.3691712356625702 0.14707355479525483 2.8206543741292274 -0.1385045416422725 0.14661311642754998
5.322474956512451 -1.130674884920456 1.378735367451803 4.782807338028707 -1.458416763936178 -5.591720644627706 -0.4598703115829676 0.36910559263853204 0.1444605948469594 2.8168029278563798 -0.1386303869222047 0.15044006516143174
5.322401523590088 -1.1271023911288758 1.3787348906146448 4.782795178681173 -1.458416763936178 -5.591732565556661 -0.45980574532271107 0.36908689295403063 0.1424382344913307 2.8138116322047177 -0.1388526977904197 0.15337662863766552
5.322144031524658 -1.124631868009903 1.378674332295553 4.7828192738588235 -1.458404843007223 -5.591720644627706 -0.45969353688385656 0.3691755166027535 0.14106312933308618 2.811734390603796 -0.1393261618383321 0.15532443274001284
5.32157564163208 -1.1233250361732026 1.3786628882037562 4.782831194787779 -1.4584525267230433 -5.591732565556661 -0.45945603780639555 0.3694217350976423 0.14032627480413323 2.8105996560810396 -0.14014665790827263 0.15632761352122498
5.320843696594238 -1.123232827787735 1.3786514441119593 4.782795201032915 -1.458404843007223 -5.591720644627706 -0.45920487345933564 0.36976161026338866 0.1402799645507178 2.810453097252833 -0.14120180448014505 0.15614260970404573
5.320114612579346 -1.1239186388305207 1.37852651277651 4.782795201032915 -1.458416763936178 -5.591696564351217 -0.4589699226818553 0.37015218724515536 0.14071558473023923 2.8110570802614046 -0.14222638492051198 0.15532211799923987
5.31954288482666 -1.125102238064148 1.3782637755023401 4.782795178681173 -1.458428684865133 -5.591732565556661 -0.4588306858978641 0.3705246816318072 0.14148589824564128 2.812214134156603 -0.14292275188880782 0.15399859390936596
5.3191022872924805 -1.126723275785782 1.3780730406390589 4.782807338028707 -1.4584649244891565 -5.591732565556661 -0.45871968805970825 0.3708201590715011 0.1424758963256556 2.813694477562048 -0.14346832409074828 0.15244921360832334
5.3188910484313965 -1.1287602347186585 1.3779080549823206 4.782807338028707 -1.4584406057940882 -5.591708485280172 -0.4587081467559644 0.3710004548208175 0.14369378600369703 2.8155039693352615 -0.14372347173722883 0.1505541642979174
5.318808555603027 -1.1313412350467225 1.3778474966632288 4.782795178681173 -1.4584763685809534 -5.591720644627706 -0.45871193896645285 0.3711052611622169 0.1451782789679141 2.817739730004486 -0.14371777823569148 0.14837322738727707
5.3188090324401855 -1.1345082086375733 1.3777888456927698 4.782819258957662 -1.4584406057940882 -5.591696564351217 -0.4587602863856702 0.37115536817769257 0.14699626773971272 2.8204018307921648 -0.14364050037513984 0.1456789148187819
5.318785190582275 -1.1380146902850647 1.377800766621725 4.782819258957662 -1.458416763936178 -5.5917444864856165 -0.45878422085386406 0.3712003460081282 0.14897932893392044 2.823312943438579 -0.1434817857670489 0.14272877600154368
5.318713188171387 -1.1420491200736542 1.3778002897845667 4.782831179886617 -1.4584406057940882 -5.5917444864856165 -0.45877898889940627 0.37127520237325756 0.15126501670307377 2.826682504552659 -0.14342932659564336 0.1393886047500319
5.318761348724365 -1.1466404658607026 1.3777754942523401 4.782795178681173 -1.4584525267230433 -5.591708485280172 -0.45883275837434534 0.3713094584011785 0.15387684953471326 2.8305792496591464 -0.14323624578380836 0.13553720010797554
5.318713188171387 -1.1519105297378083 1.377596680318014 4.782819258957662 -1.4584763685809534 -5.591768566762106 -0.4588674836651038 0.371417964458896 0.15693339337717951 2.835114843365933 -0.14301130349916744 0.13100179423051964
5.31865119934082 -1.1579389435103913 1.377608601246969 4.782819258957662 -1.4584406057940882 -5.5917444864856165 -0.458864943812187 0.3714558650332872 0.16034729190530286 2.8400989598577335 -0.14291247291252332 0.1259042221342226
5.318458080291748 -1.1648269456676026 1.377585236226217 4.782831179886617 -1.4584406057940882 -5.591696564351217 -0.4587984621042077 0.3715498894550511 0.16426133121575268 2.8458138346725192 -0.14299246040351915 0.12006751202939102
5.31826639175415 -1.1724488300136109 1.3775728384601038 4.782819258957662 -1.4584525267230433 -5.591732565556661 -0.458713641019648 0.3716218480779407 0.16858705213491235 2.85214777505218 -0.14291895348027042 0.11357849358152304
5.318125247955322 -1.1808054012111207 1.3774398008929651 4.782831179886617 -1.458404843007223 -5.591720644627706 -0.45866107106299214 0.3716596156211255 0.17337920895888081 2.8591266594899465 -0.1428181994029365 0.10631280687136589
5.31810188293457 -1.1897574228099366 1.3774054686175745 4.782795178681173 -1.4584525267230433 -5.591756645833151 -0.45858790019441026 0.3715986175193346 0.17846677635763844 2.8666065800474336 -0.142440308018548 0.09868008518214434
5.31801700592041 -1.1993911427310486 1.3773697058307093 4.7828431008155725 -1.4584525267230433 -5.591756645833151 -0.458455053193159 0.3714881975119162 0.18393964235368582 2.87452654133729 -0.14218315554702793 0.09044189892771165
5.317933082580566 -1.209595875149109 1.3773329893695276 4.782831187337198 -1.4584525267230433 -5.591732565556661 -0.458294399885308 0.37133642384472226 0.1897360372596082 2.8829427240761576 -0.14193011040680867 0.08162857519308554
5.317788124084473 -1.220414475803711 1.3773348967181605 4.782831179886617 -1.458428684865133 -5.591720644627706 -0.45806155816977995 0.37112863855119416 0.19586157891929842 2.8917765804315056 -0.14172407038968676 0.07224542160376637
5.31766939163208 -1.231702820663788 1.377286736165182 4.782807338028707 -1.458428684865133 -5.5917444864856165 -0.4577989708850571 0.3708636410648681 0.20227026968305845 2.9010445501906026 -0.14139810630248295 0.062370257625904216
5.317561626434326 -1.2433547538569947 1.3772628943072718 4.782807338028707 -1.4584525267230433 -5.591756645833151 -0.45747493363488473 0.37051076320610915 0.20886786340925134 2.910552885306006 -0.14105194130844356 0.0522005570155352
5.317429542541504 -1.255398617391922 1.3773472944842737 4.782795178681173 -1.458428684865133 -5.591756645833151 -0.4570784516083253 0.370052634360961 0.21563583096754124 2.9202377804532285 -0.1407465748226188 0.04165881388672271
5.317236423492432 -1.2678403717330475 1.377298657094137 4.782831179886617 -1.458416763936178 -5.591732565556661 -0.45661493397237485 0.3695637866986982 0.22267531864843676 2.9302783734710265 -0.14053834989575992 0.030641727497668973
5.316994667053223 -1.2804719370654603 1.3772147337542933 4.782783257752218 -1.458428684865133 -5.5917444864856165 -0.4560920344078026 0.3690487868834096 0.2298316004520602 2.9405427701582867 -0.14032711137331308 0.019304187709794526
5.316622257232666 -1.2933974427035828 1.377286736165182 4.782819363265791 -1.458428684865133 -5.591720644627706 -0.45541613720490776 0.3684345691913138 0.23706980869954397 2.9507922424993187 -0.14035483921280675 0.007827185469103897
5.316165924072266 -1.3064232927611847 1.3772133032428187 4.782843123167314 -1.458416763936178 -5.591684881840841 -0.4546845158615087 0.3678152560448983 0.2444175010938343 2.961194388873091 -0.14051011698447816 -0.003968875190050557
5.315795421600342 -1.3196087342551728 1.377190415059225 4.782843130617895 -1.458428684865133 -5.591768566762106 -0.4539115730408632 0.36706181988341835 0.2518189040934058 2.9716901388482917 -0.14034911106101158 -0.015926369371999843
5.315387725830078 -1.3327113848975678 1.377153221760885 4.782843108266153 -1.4584525267230433 -5.591732565556661 -0.45307448942601686 0.366256572748137 0.2591649102542486 2.982085566796381 -0.1404189359731381 -0.027864354789972262
5.315018653869629 -1.3458738189986725 1.3771541754352015 4.7828431008155725 -1.4584406057940882 -5.591720644627706 -0.45219599100652075 0.36533317228483525 0.2665114525552246 2.9924377204313477 -0.14039200087670467 -0.03993051042710624
5.314706802368164 -1.3590189528516312 1.3771427313434046 4.7828555954392336 -1.4584406057940882 -5.5917444864856165 -0.4512826246118341 0.3643073399898091 0.2738348457789207 3.00274644072648 -0.14022075957482974 -0.05203260145637424
5.314395427703857 -1.3720051658204575 1.3770816961871546 4.7828552080090425 -1.458428684865133 -5.591708485280172 -0.4503396646107091 0.3632304368978948 0.28107559462711595 3.012923238053979 -0.14013786009551765 -0.06412267256664324
5.314083099365234 -1.3849683564952393 1.3771193663226526 4.782903688936987 -1.458416763936178 -5.591708485280172 -0.44932085818831774 0.3620423792041972 0.2882332846904133 3.022926512438828 -0.14000466135111128 -0.07612619111261437
5.313685894012451 -1.3978389662555237 1.3770340124713343 4.782843130617895 -1.4584406057940882 -5.591708485280172 -0.44825635813728265 0.36088705315755265 0.2953851919297582 3.0330135595697807 -0.13998717202388689 -0.08829129022564874
5.313157081604004 -1.4107522529414673 1.3770960013019007 4.7828910676534555 -1.458428684865133 -5.591756645833151 -0.4470571378359472 0.3596424685818349 0.3024600889441268 3.0428692910045023 -0.14010307032877495 -0.10037912109124474
5.3125810623168945 -1.423477978711464 1.3770588080035608 4.782915386348524 -1.458428684865133 -5.591720644627706 -0.44582306143395656 0.3583956829034334 0.30945807897009703 3.0526308732383614 -0.1404186206359835 -0.11245192801993842
5.311931610107422 -1.4362851840308686 1.3770583311664026 4.782891045301714 -1.4584525267230433 -5.591720644627706 -0.4445037358645359 0.357103750744346 0.3164628528370882 3.062438857006814 -0.14078466117523486 -0.12465466089311218
5.31113862991333 -1.4489466485432168 1.377131764088766 4.78292782136754 -1.4584525267230433 -5.591732565556661 -0.4430827550949459 0.3557847799385942 0.3233215526228564 3.0719731260953322 -0.1413646046751711 -0.13668798425112755
5.310128688812256 -1.4615078058889885 1.3770344893084925 4.782939265459337 -1.4584406057940882 -5.591756645833151 -0.4415796118447161 0.35454241625816596 0.33018696495582794 3.081528430974229 -0.14225447958369833 -0.14889583353553676
5.308963775634766 -1.4739993301085015 1.3770960013019007 4.782951342850485 -1.4584525267230433 -5.591756645833151 -0.43995480977101975 0.3532749251082321 0.33690892268526984 3.0908816960750376 -0.143434502294058 -0.16091412680570796
5.30764102935791 -1.4864162442139168 1.3770950476275843 4.78291533419446 -1.458428684865133 -5.591768566762106 -0.43826351702489896 0.35203353711132057 0.34360092734486464 3.1001998997231763 -0.14483991259643736 -0.17306754618831163
5.305996417999268 -1.498669521217682 1.3770702520953577 4.782915177732267 -1.4584406057940882 -5.591708485280172 -0.4364229910446792 0.35088757243302027 0.35018449588993106 3.109360041363629 -0.14687335786271963 -0.18506194220936228
5.304184436798096 -1.5107701283744355 1.377131764088766 4.782987947552957 -1.458428684865133 -5.591732565556661 -0.43448351481234376 0.3497294089486833 0.3566070436454969 3.118247456426584 -0.1490590933718087 -0.19682810895489158
5.302252292633057 -1.5227043640664597 1.3770468870746058 4.782975348621168 -1.458416763936178 -5.591720644627706 -0.4325150271809449 0.34862830402359585 0.3629971309658985 3.127146366941466 -0.15149383910398184 -0.20869846275626044
5.300091743469238 -1.534645703887083 1.3771312872516077 4.7829752443130396 -1.458428684865133 -5.591732565556661 -0.4304016234422834 0.34752441108931914 0.36927387374348086 -3.124286342082848 0.1536990384937146 0.21958937247924756
5.29763126373291 -1.546448753481247 1.3771427313434046 4.782939265459337 -1.4584525267230433 -5.591720644627706 -0.4281775135827811 0.34652730894856026 0.37548983931325264 -3.113717183146595 0.15602347702156222 0.2298210116879925
5.294920444488525 -1.5580611576190968 1.3770950476275843 4.782951313048162 -1.458428684865133 -5.591732565556661 -0.42586791339922747 0.34559317510747906 0.3816024021605603 -3.1032401404704255 0.15869738657509302 0.23984574976148806
5.291994094848633 -1.5694781411769618 1.3771312872516077 4.782987344055929 -1.4584406057940882 -5.591696564351217 -0.42345597249566996 0.3447038848124475 0.3875358750322356 -3.0929255712866506 0.16179523461330614 0.2494519700949108
5.288851737976074 -1.5807510815062464 1.3771427313434046 4.782999264984884 -1.4584406057940882 -5.5917444864856165 -0.4209691153676689 0.34387351864421484 0.39338167274880453 -3.082617138613349 0.16508019151287517 0.25887499497822725
5.285567760467529 -1.5918146572508753 1.3771188894854944 4.782999264984884 -1.458404843007223 -5.591708485280172 -0.41844827288547576 0.34307926264808214 0.3991114206594104 -3.0723960772064456 0.16870150431507328 0.26809686364470914
5.2821784019470215 -1.6025625667967738 1.3771541754352015 4.783023769944467 -1.458416763936178 -5.591696564351217 -0.41588722955378205 0.342319974805178 0.4046143274038767 -3.062437127681508 0.17247353378037528 0.27681240008924124
5.278836727142334 -1.6130906544127406 1.3771188894854944 4.7829874260123155 -1.458416763936178 -5.591696564351217 -0.4133684347608912 0.3415464138747991 0.4100234041290328 -3.0525251346386626 0.1761348390974601 0.28537056388964116
5.275495529174805 -1.6233459911742152 1.3771064917193812 4.782999250083723 -1.4584406057940882 -5.591756645833151 -0.4108511917946922 0.34075932018084265 0.41524687829700824 -3.042862626218195 0.17972332694742735 0.2935138944301581
5.272141933441162 -1.633340974847311 1.3771665732013147 4.783035631268778 -1.458416763936178 -5.591696564351217 -0.40834848890992237 0.3399525252682835 0.4202714828208183 -3.033496761470511 0.18352888289397395 0.3013422821312255
5.26865291595459 -1.6429978809752406 1.377178970967428 4.783071222692289 -1.4584406057940882 -5.591732565556661 -0.40582308538858564 0.3392352386491659 0.4251241331501725 -3.024302539711251 0.18740898191280575 0.30876959627087797
5.264998435974121 -1.6522680721678675 1.377178970967428 4.783083225577631 -1.458416763936178 -5.591732565556661 -0.4032972338640634 0.3386189719527375 0.42977051052945736 -3.015374719792025 0.19160636498496111 0.3158801016511733
5.2613301277160645 -1.6611105404295863 1.377167050038473 4.783059443324365 -1.4584525267230433 -5.591720644627706 -0.40080614080157123 0.33807575755383823 0.4341912480499992 -3.0067204761313753 0.1958735064767007 0.322530432964609
5.257387161254883 -1.6696959934630335 1.377190415059225 4.78308333733634 -1.458404843007223 -5.591732565556661 -0.3982594397415881 0.3376274052120454 0.43843950010922467 -2.998321080410295 0.20052306923906937 0.3289126274821236
5.253349304199219 -1.677897115746969 1.3771312872516077 4.783071140735903 -1.4584525267230433 -5.591720644627706 -0.3957147949192814 0.3372959589477628 0.44252515506586576 -2.9900640473378117 0.2053701985287698 0.33488162222671747
5.249204635620117 -1.685594221154684 1.3771665732013147 4.783107417612829 -1.458404843007223 -5.591732565556661 -0.3932094783336254 0.3370487787399411 0.44628872631064953 -2.9823781001050564 0.2103904171480222 0.3403849927978482
5.245083808898926 -1.6927734814085902 1.3771665732013147 4.7830953923757455 -1.4583929220782679 -5.591732565556661 -0.390781891623306 0.33690108824851905 0.4498082124274604 -2.9750423650366833 0.21543250913994097 0.3454471134474582
5.240878582000732 -1.699519773522848 1.3772271315204065 4.783119770675459 -1.458416763936178 -5.5917444864856165 -0.3883669796814936 0.33684939247500706 0.45306210065673613 -2.9681238671645223 0.22063811628198668 0.34998802433318926
5.2367329597473145 -1.7057534656920375 1.3772380987750452 4.783131564944544 -1.458404843007223 -5.5917444864856165 -0.3860575131890402 0.33687477767848595 0.456084101218702 -2.961615576399938 0.2258093627887061 0.3541874355970479
5.232475757598877 -1.7114817104735316 1.3772266546832483 4.783131482988157 -1.458428684865133 -5.591720644627706 -0.3837760418550168 0.3370538598165878 0.45886347147419965 -2.9554700091841566 0.23123271776291815 0.35792654468865664
5.2281694412231445 -1.7165585956969203 1.377190415059225 4.78317957648591 -1.4583929220782679 -5.591696564351217 -0.38158180862507785 0.33737705539245616 0.4613262640242736 -2.9499291732567796 0.23679934056903246 0.361187211449675
5.223658084869385 -1.7211681805052699 1.3772266546832483 4.783203694015302 -1.458428684865133 -5.591720644627706 -0.37936629433960944 0.3378855594476706 0.46351933858323247 -2.944759226102369 0.2426650345428387 0.36390157519205973
5.218942642211914 -1.725145002404684 1.3772266546832483 4.783239382296362 -1.458404843007223 -5.591720644627706 -0.37718845793018685 0.33860924557667654 0.46542223643303504 -2.9401002379730437 0.2489301063248933 0.3661841754311605
5.214033603668213 -1.7286507091917933 1.3772385756122034 4.783251809864797 -1.458416763936178 -5.591720644627706 -0.37500509061005277 0.33952092898551817 0.4670915346448071 -2.935778712467392 0.25553741711524075 0.3680268256826896
5.208911895751953 -1.7315393886961878 1.3772266546832483 4.783287386387148 -1.458416763936178 -5.5917444864856165 -0.37283808025756354 0.34065517003890733 0.46847186252829776 -2.9319535861791386 0.26249906134302414 0.3693756491898414
5.203533172607422 -1.7338983021178187 1.3772266546832483 4.783264058619299 -1.458416763936178 -5.591684881840841 -0.3706625347192237 0.3420231541201383 0.46960111383658143 -2.9284837524609753 0.27001994406884294 0.3703273836971779
5.197810649871826 -1.7357703648009242 1.3772266546832483 4.7833356512482545 -1.4584525267230433 -5.591720644627706 -0.3684136158618062 0.343618806892828 0.47047897635489394 -2.9254265124509335 0.2779880146840604 0.3707321455263628
5.191761493682861 -1.7371851406493128 1.3772152105914515 4.7834085551793954 -1.458416763936178 -5.591732565556661 -0.36612859099185013 0.3454340594455717 0.47114644043358245 -2.922702119220531 0.2865146122837618 0.3708482461475874
5.185391902923584 -1.7380982838072718 1.3772266546832483 4.783480326622286 -1.458416763936178 -5.591720644627706 -0.36378387276706814 0.34749106089368287 0.47156149420763016 -2.9203336169340095 0.29562463433219943 0.37049055474307685
5.178913593292236 -1.738556524316305 1.3772504965411585 4.783504488855161 -1.458428684865133 -5.591732565556661 -0.361454547102302 0.34970786480780164 0.47176154386231983 -2.918289594432352 0.3049216455690852 0.36979278016904327
5.172202110290527 -1.7385269604124964 1.3772266546832483 4.7835759846265695 -1.458404843007223 -5.591720644627706 -0.35910277006537805 0.3521172430447158 0.4717484626333487 -2.916616247076464 0.314663757483167 0.3687624059321373
5.165158271789551 -1.738406320611471 1.3772757689105433 4.783625322371282 -1.458416763936178 -5.591660801564352 -0.356619140555363 0.3546571931366668 0.4716551483374792 -2.914936334330868 0.3249813179769295 0.3675420120810673
5.157680034637451 -1.7382756672301234 1.3773592154132288 4.78373350480155 -1.458404843007223 -5.591708485280172 -0.3539618755562874 0.35731639512852514 0.47152854430343705 -2.91321533436535 0.33577644054883454 0.36619746086086724
5.149917125701904 -1.7383009395995082 1.3773821035968226 4.7838045609887025 -1.458428684865133 -5.591732565556661 -0.35115940456070516 0.3600311314598601 0.47151464496260637 -2.911129670368566 0.3469662845202561 0.3649395028267216
5.141833782196045 -1.7383133373656214 1.3773344198810022 4.78387555012063 -1.458404843007223 -5.591708485280172 -0.3482371214177729 0.3628400820706693 0.4715346169943515 -2.9088759295005326 0.3586589127096014 0.3637368819295147
5.1334123611450195 -1.738384862939352 1.3773344198810022 4.78388753065423 -1.4583929220782679 -5.591720644627706 -0.3451620426210128 0.36573543102395617 0.47156681807502954 -2.906414002704511 0.37076060374231207 0.36250429012871116
5.124765872955322 -1.7383486233153285 1.3773468176471155 4.78389989116744 -1.4584406057940882 -5.591684881840841 -0.34197709228914586 0.3687182849543418 0.4715391830532749 -2.903921613729062 0.38327660605282765 0.36108076521998356
5.1160078048706055 -1.7383367023863734 1.377310578023092 4.783888007491388 -1.458428208027975 -5.591684881840841 -0.3387421822708178 0.3717074432785528 0.47155580355549304 -2.90128356393722 0.3958564525787215 0.35977184497178843
5.106990814208984 -1.7383128605284632 1.3773468176471155 4.7839956162269495 -1.458404843007223 -5.591720644627706 -0.33537393240744584 0.3747223316408551 0.4715061860086719 -2.8987107541108696 0.4087822411991589 0.3582917774722655
5.097766876220703 -1.7383367023863734 1.377322022114889 4.7839835090334795 -1.458404843007223 -5.5917444864856165 -0.33190269030458547 0.37779832159055543 0.47153321112466745 -2.895799365541315 0.42196125899598763 0.3568954657146174
5.088411808013916 -1.7383367023863734 1.377286736165182 4.783971223026075 -1.4584525267230433 -5.591708485280172 -0.32834376359102385 0.3808986679365505 0.4715532273161113 -2.892777147832242 0.4354083237853739 0.35541026312404045
5.078925609588623 -1.7383128605284632 1.3773344198810022 4.784043597965994 -1.458428684865133 -5.591708485280172 -0.3247164281920093 0.383978692218564 0.47150366805450594 -2.889862526780611 0.4490042376346765 0.35386310511328367
5.069321632385254 -1.7383009395995082 1.3773697058307093 4.784007194429197 -1.458404843007223 -5.591720644627706 -0.32102327231100614 0.3870851572570804 0.4714859600347323 -2.8867286831522994 0.46270227525435714 0.35237487893509845
5.059512615203857 -1.7382646999754847 1.377310578023092 4.784019554942407 -1.4584525267230433 -5.5917444864856165 -0.317203103995971 0.39023431279768345 0.4714973765468411 -2.8834201324377764 0.4766627802126289 0.35076541892309504
5.04965877532959 -1.7382646999754847 1.3773468176471155 4.784055772214689 -1.458404843007223 -5.591684881840841 -0.3133510337052971 0.39332371938465294 0.4714725695020703 -2.8801336806257916 0.4907936549868371 0.3492289208685845
5.039682388305664 -1.7383128605284632 1.3772991339312952 4.784031580179491 -1.458416763936178 -5.591696564351217 -0.30940716739583163 0.3964280233422576 0.4715254388555722 -2.876551149653293 0.504936537760319 0.3476952430615621
5.02969217300415 -1.7383128605284632 1.3773344198810022 4.784055362432756 -1.458416763936178 -5.591720644627706 -0.30542833690902454 0.3994899053613232 0.4715019287703206 -2.8730705078818284 0.5191014138375929 0.34605576183572995
5.01973819732666 -1.7383009395995082 1.3773344198810022 4.78410359004096 -1.458416763936178 -5.5917444864856165 -0.3014342372329724 0.4025023728078295 0.47148765756893585 -2.869539456713641 0.5331945316716159 0.3444152541536331
5.0096049308776855 -1.7382885418333949 1.377322022114889 4.784079487412729 -1.458404843007223 -5.591720644627706 -0.29734670896857995 0.40554575772050877 0.4714931995697914 -2.865796287898049 0.5475652885231714 0.3428130292865434
4.999413967132568 -1.7382646999754847 1.3773697058307093 4.784091281681814 -1.4584525267230433 -5.591732565556661 -0.29318509999120723 0.40855841280227223 0.47145229328763927 -2.862048765986332 0.5619795509960219 0.34104598977386913
4.9894022941589355 -1.7382646999754847 1.3772991339312952 4.7840913263852975 -1.4584525267230433 -5.591696564351217 -0.28908223309389336 0.41148066763369 0.47149081342159127 -2.8581692241113688 0.5761394389929465 0.33946256154752896
4.979490756988525 -1.7382766209044398 1.3773697058307093 4.784079390555181 -1.458416763936178 -5.591720644627706 -0.2849973634275958 0.4143143812625525 0.4714611605339676 -2.8543962192616377 0.5900744276482612 0.33785821996099696
4.969602584838867 -1.7383247814574183 1.377310578023092 4.784127282887258 -1.458428684865133 -5.591732565556661 -0.28087821116200146 0.4170935939017557 0.4715074095703873 -2.850452475802052 0.603949603964594 0.3362504776421635
4.959896087646484 -1.7383128605284632 1.377322022114889 4.784091281681814 -1.458404843007223 -5.591720644627706 -0.27682595120196957 0.41980936277448083 0.47150264654335455 -2.846569709117012 0.6175885845988253 0.3346906441233465
4.950186729431152 -1.7383367023863734 1.3772380987750452 4.784055273025789 -1.4583929220782679 -5.591708485280172 -0.27274275638324375 0.42248698079106084 0.47156657968774907 -2.8425002171319367 0.6311734802229586 0.333180888061088
4.940598487854004 -1.7383371792235316 1.3772624174701136 4.784127267986097 -1.4584649244891565 -5.591708485280172 -0.26865453790995647 0.4250678082930178 0.4715384980494025 -2.8386154807695596 0.6446297749693775 0.33143709663024873
4.931253433227539 -1.738396783868307 1.3772266546832483 4.784091274231233 -1.458428684865133 -5.591696564351217 -0.26467955162345974 0.4275518153549259 0.4715938582863515 -2.8345993097111495 0.65765924445225 0.3299994907197844
4.922244071960449 -1.738396783868307 1.3771660963641565 4.784115138440885 -1.458416763936178 -5.591696564351217 -0.26082038059080936 0.42991894488228133 0.4716230210328187 -2.830752341650937 0.6702134157994315 0.3285254966714023
4.913564682006836 -1.7384940586485804 1.3771780172931116 4.784115212946691 -1.458428684865133 -5.591708485280172 -0.2570695555649705 0.4321365137535107 0.4716623438487415 -2.8269469010793626 0.6822592198000853 0.32709303822741065
4.905368804931641 -1.7386390171446742 1.3771174589740198 4.784103321820059 -1.4584525267230433 -5.591720644627706 -0.2535057548127129 0.434195908999507 0.47176566081492655 -2.8231802101491312 0.6935741990214511 0.32578982174170995
4.897882461547852 -1.7389408550658167 1.3770697752581995 4.7841752646263025 -1.458428684865133 -5.591732565556661 -0.25023535885023246 0.4359759105940415 0.4719229057400537 -2.8196452496428726 0.7038615353000546 0.32469630384007103
4.891063690185547 -1.7392779789366664 1.3770111242877405 4.784127402096548 -1.4584406057940882 -5.591696564351217 -0.2472381288143773 0.4375881719851113 0.47212319287054916 -2.816196441782896 0.7132282883478903 0.3237557775970688
4.884929180145264 -1.7397834263243617 1.3770106474505823 4.784151229053297 -1.4584525267230433 -5.591696564351217 -0.24451791990179433 0.4389373351171623 0.4723587538030222 -2.8130008938196256 0.7215699358244203 0.3229391770994037
4.879550933837891 -1.740458150903219 1.3769848982440394 4.784199106484213 -1.4584525267230433 -5.591720644627706 -0.24211746587444055 0.44003089749970337 0.4726843926748906 -2.809979033847991 0.7287631897763813 0.32234514194276304
4.874965667724609 -1.7414208851256312 1.376913849507467 4.78419907668189 -1.4584763685809534 -5.5917444864856165 -0.24004351373771995 0.440850569394652 0.4731790448465706 -2.806944146567205 0.7347309612384925 0.3220420915301735
4.871095657348633 -1.7426234684386195 1.376767937337057 4.784175465791979 -1.4584887663470667 -5.591708485280172 -0.2382765700178233 0.44142908263333963 0.47383254670704744 -2.8039013097054517 0.7396761348678684 0.32205159486573354
4.868009090423584 -1.7441379032530726 1.3764541784869593 4.7842121971543214 -1.4584649244891565 -5.591696564351217 -0.2368504994732252 0.44171913052370837 0.4747152414846564 -2.8008437187425455 0.743357190840719 0.322444854597005
4.865674018859863 -1.7460242710509242 1.3761408964740198 4.784248026996412 -1.4584525267230433 -5.591708485280172 -0.2357358025962382 0.4417116108915275 0.47577269714945425 -2.7977892425748077 0.745842154737301 0.3231280214134575
4.8640546798706055 -1.7483307323851527 1.3755624930011194 4.784308525710859 -1.4584525267230433 -5.591708485280172 -0.23491791363112877 0.44142237286444014 0.4771676684241979 -2.79444933416496 0.7471392520892963 0.3242437359403852
4.863071918487549 -1.7509566746153773 1.3747924009906214 4.784332315414705 -1.4584525267230433 -5.591708485280172 -0.2343708712006637 0.4409069987114052 0.4788234023638356 -2.790899616238246 0.7473775617249454 0.32573681849741376
4.862735271453857 -1.7539574108519496 1.373758618031637 4.784367862134733 -1.458428684865133 -5.591732565556661 -0.2341011354807166 0.4401383002166956 0.4807967567398229 -2.7870866697787133 0.7464835577377656 0.3276772081413933
4.862809658050537 -1.7573911152281703 1.372568432484762 4.784428427904405 -1.4584525267230433 -5.591732565556661 -0.23397832910796026 0.43913972683381686 0.4830508990799307 -2.7829223543009345 0.7448818194841516 0.32990479429000047
4.862832546234131 -1.7613970241942347 1.3711426893817347 4.784475992410936 -1.4584406057940882 -5.591732565556661 -0.23381753183396844 0.4379832854303447 0.4857028210567184 -2.7779891784337067 0.7430754093116656 0.3325666535522413
4.862820625305176 -1.765994211236471 1.369437042866842 4.784559632628717 -1.4584525267230433 -5.591708485280172 -0.23360610945972357 0.43664772346324204 0.4887731514175422 -2.7722551718346784 0.7410800421907603 0.33559273300022685
4.862796783447266 -1.7710806332030238 1.3676040808307093 4.784499335079946 -1.4584525267230433 -5.591696564351217 -0.23337271181546293 0.4351806148678449 0.492163307061957 -2.765819844298374 0.738831522700196 0.3389869504329719
4.862808704376221 -1.7766834698119105 1.3656018416034144 4.784559155791559 -1.458428684865133 -5.591720644627706 -0.23313006710190348 0.4334952679325851 0.49585762446443793 -2.7588932870503617 0.7362951372548162 0.3426709671835186
4.862844467163086 -1.7827516994872035 1.3635433355914515 4.784499208420076 -1.458416763936178 -5.591708485280172 -0.23287143233070895 0.43165384366861387 0.49981216399106193 -2.751368122513595 0.7335689978904849 0.34664146419504904
4.862808704376221 -1.78922762493276 1.3615720907794397 4.784523281245985 -1.4584406057940882 -5.591696564351217 -0.23254203928472988 0.4296345000852728 0.5038787479073429 -2.7435753522511543 0.7308691741944893 0.3506415320601606
4.862820625305176 -1.7962285480894984 1.3600214163409632 4.784547078400411 -1.4584406057940882 -5.591684881840841 -0.23220331605409947 0.42735964461312115 0.5079417093896286 -2.7357096382122297 0.7280669159165186 0.3547111865010809
4.862832546234131 -1.8034869633116664 1.358577076588766 4.784535157471456 -1.458416763936178 -5.591684881840841 -0.2318527724400012 0.42496068192207054 0.51205548929589 -2.7276759327386118 0.7251836198949871 0.35887564602887745
4.862868309020996 -1.8109923801817835 1.357507054005758 4.784523236542501 -1.4584406057940882 -5.591732565556661 -0.23147687682078433 0.4224140036260301 0.5160555112844861 -2.7197625714975158 0.7222546102031172 0.36288832083718997
4.862808704376221 -1.8186165295042933 1.3568437735186976 4.784511077194967 -1.458428684865133 -5.591720644627706 -0.23105609531794588 0.41978866682786115 0.5198657888483835 -2.7120612090740486 0.7196238915390929 0.36678250338409113
4.862844467163086 -1.8264414272704066 1.3565762678729456 4.784475075989523 -1.4584525267230433 -5.5917444864856165 -0.23064753530917487 0.41702546688042286 0.5235300016081713 -2.7045548042832506 0.7168811636260175 0.37054277985063544
4.862868309020996 -1.8344408474364222 1.3564947287188929 4.784511077194967 -1.4584406057940882 -5.591720644627706 -0.2302263254048887 0.41414601613397195 0.5271329641964575 -2.697113578103218 0.7142415063287901 0.3743003225544027
4.862832546234131 -1.8424140415587367 1.3565300146686 4.784535157471456 -1.458416763936178 -5.591720644627706 -0.22978064237819826 0.4112582640054975 0.5306388963067662 -2.6897716346276446 0.7116891237117458 0.37797290912574133
4.862820625305176 -1.8501140079894007 1.3564708868609827 4.784547078400411 -1.458428684865133 -5.591696564351217 -0.22934667070377157 0.40844621831598266 0.5340555345422662 -2.682573002343928 0.7092017768699889 0.3815153569652387
4.862832546234131 -1.8577119312682093 1.3565548102008265 4.784584592073717 -1.458428684865133 -5.5917444864856165 -0.22892604714829323 0.40562937401685517 0.5373211036655545 -2.675653827867022 0.7066718408105431 0.3849196762227777
4.862844467163086 -1.8651639423766078 1.3565300146686 4.784595551877775 -1.458416763936178 -5.591732565556661 -0.22851465790833797 0.4028512630084495 0.5405681984131019 -2.6687286158676664 0.7042255766322469 0.38833325980751526
4.862856388092041 -1.8725997410216273 1.3565548102008265 4.784680630057611 -1.4584763685809534 -5.591696564351217 -0.22807757127972997 0.40004219741618996 0.5437417699931617 -2.6619011063799056 0.7018761618967693 0.3915813324464347
4.862868309020996 -1.8798548183836878 1.3565433661090296 4.784703615098753 -1.458416763936178 -5.591696564351217 -0.2276832910772849 0.39728603443540284 0.5468537885896152 -2.6551919202621708 0.6994770828276222 0.39492106796542464
4.862856388092041 -1.8870579204955042 1.356518570576803 4.7847531763608835 -1.4584406057940882 -5.591708485280172 -0.22725464089254674 0.3945323009911527 0.5499227318179896 -2.6485059449915926 0.6971356336942147 0.39809859296419164
4.862856388092041 -1.8942181072630824 1.356518570576803 4.784874419658937 -1.458416763936178 -5.591672960911886 -0.22684111375607627 0.3917524136688102 0.5529251667576075 -2.641954183288345 0.6948776358550888 0.40127692625049244
4.8628926277160645 -1.9012905559935511 1.3565300146686 4.7850548950727365 -1.458428684865133 -5.591696564351217 -0.22643159719116313 0.38896698468493507 0.5558500307961215 -2.6355660618527126 0.692555083412457 0.40431848336222864
4.862880229949951 -1.9081326923766078 1.3565433661090296 4.785356166749754 -1.458416763936178 -5.591660801564352 -0.22601663104027525 0.3862361758683907 0.5586316720678745 -2.629474339538315 0.6904856746648034 0.40722456932982
4.862856388092041 -1.914927145043844 1.3565548102008265 4.78568213710145 -1.458428684865133 -5.591720644627706 -0.22558986645249413 0.38350475210110874 0.5613690981576658 -2.623455909608252 0.688332873857468 0.41002565791016665
4.8629045486450195 -1.9217239818968714 1.3565071264850062 4.786153647094526 -1.458416763936178 -5.591696564351217 -0.225189975277824 0.38070694184866605 0.5640890499282207 -2.6175319587117905 0.6862226113829404 0.4128542557575279
4.862880229949951 -1.9286180935301722 1.3565433661090296 4.786682034819879 -1.458428684865133 -5.591660801564352 -0.224745412461955 0.37785912793399723 0.5667685732425204 -2.6116032835173297 0.6842422991318597 0.4156041794771396
4.8628926277160645 -1.9353181324400843 1.3565071264850062 4.787343705981531 -1.4584406057940882 -5.591756645833151 -0.2243197021531116 0.3750361438201732 0.5693589475566694 -2.6059572195545515 0.6821242629962374 0.4182036169527714
4.8628926277160645 -1.9420300922789515 1.3565433661090296 4.788053910225191 -1.4584525267230433 -5.591720644627706 -0.2238847702773653 0.3721859533022782 0.5718827143868574 -2.60037363407715 0.6802340921027422 0.42078166019951607
4.8628926277160645 -1.9487058124937953 1.3565071264850062 4.788910555630483 -1.4583929220782679 -5.591684881840841 -0.22346533369658905 0.36930025782478076 0.5743803676587909 -2.5949123857366994 0.6783602705423856 0.4233929135282358
4.862880229949951 -1.9555002651610316 1.3565433661090296 4.790179315000334 -1.458404843007223 -5.591708485280172 -0.22299912969736413 0.36627707493742134 0.5767671016116247 -2.5897770437517327 0.6765649302373533 0.42572577641968923
4.862916469573975 -1.962240835229391 1.3565300146686 4.79194966980771 -1.4584406057940882 -5.591708485280172 -0.22252981792160598 0.3631522237047005 0.5790209939799525 -2.585121117817109 0.6749134364787484 0.4278278706409374
4.8628926277160645 -1.9689041576781214 1.3565300146686 4.794276568084516 -1.458428684865133 -5.591696564351217 -0.2220384428996558 0.35994792207780857 0.5810860717460802 -2.5810536470311183 0.6735528497485269 0.4296933989342684
4.8629045486450195 -1.9753691158690394 1.3565300146686 4.79720468351201 -1.458428684865133 -5.591732565556661 -0.22154945944964305 0.3566900133885178 0.5829101814010362 -2.577755916966461 0.6723500355124434 0.43119634726348505
4.862916469573975 -1.9817577801146449 1.3565190474139612 4.801076027541914 -1.458428684865133 -5.5917444864856165 -0.22103574533122852 0.353270446875051 0.5844670497830783 -2.5753950286193645 0.6715106577178325 0.4322779223432237
4.862868309020996 -1.9879809818663539 1.3565662542926233 4.805540258973398 -1.458416763936178 -5.5917444864856165 -0.22049640107564789 0.34981171556466495 0.5857664381794857 -2.5737719639020824 0.6710267415467056 0.43301254973970665
4.862880229949951 -1.9939032993712367 1.3565786520587366 4.81062017658309 -1.4584406057940882 -5.591672960911886 -0.2199678290426233 0.346341065366771 0.5868033124677999 -2.5729730003368854 0.6708608766416143 0.433372417165053
4.862880229949951 -1.9994265041747035 1.3565548102008265 4.816366794496336 -1.458416763936178 -5.591720644627706 -0.2194533017856047 0.3429019022881684 0.5875349158272041 -2.573173850515737 0.6708762645145977 0.43331497927947915
4.86292839050293 -2.00461544613027 1.3565548102008265 4.822853731900015 -1.458416763936178 -5.591720644627706 -0.21894722934189387 0.3394467208779095 0.5879371634988781 -2.5744054660014304 0.6712606758516789 0.4327951079226492
4.8629045486450195 -2.009167810479635 1.3565433661090296 4.8306821686919115 -1.458428684865133 -5.591696564351217 -0.21841325241765464 0.33600920003709417 0.5877829754108833 -2.5774354540418565 0.6724155962808867 0.4314125159228602
4.8628926277160645 -2.013334890405172 1.35659104982485 4.8397656855876825 -1.4584649244891565 -5.591732565556661 -0.21786310720278856 0.33248270643653255 0.5871537879938795 -2.582065368958894 0.6740411980617449 0.42925998048916875
4.8629045486450195 -2.016966005364889 1.3566139380084437 4.850164282112875 -1.4584406057940882 -5.591696564351217 -0.21733117130786728 0.3289025979635375 0.5860377683472813 -2.5884126047627674 0.6763136062423271 0.42642875296535615
4.8629045486450195 -2.0201779804625453 1.3565786520587366 4.862003731518545 -1.458416763936178 -5.591684881840841 -0.2167756943944915 0.3251973131337 0.5844748667568829 -2.5964394172581535 0.6791626272201197 0.4228003296268221
4.86292839050293 -2.0229197941222132 1.3565300146686 4.875326710730352 -1.458428684865133 -5.591720644627706 -0.21619896829409704 0.3213652634916785 0.5824244118706078 -2.6062825545344057 0.6825679382970792 0.41826107375626603
4.86292839050293 -2.025369783441061 1.3565786520587366 4.890102284937658 -1.458428684865133 -5.591720644627706 -0.21558761018027034 0.3173374287809008 0.5799126307262459 -2.6178194286333523 0.6866559149613721 0.41290746369529907
4.86292839050293 -2.0273801289000453 1.3566039244281214 4.906047645002165 -1.458428684865133 -5.591708485280172 -0.2149613721086303 0.31321061131002514 0.5770313001476056 -2.630819383732362 0.6912857271509639 0.40681638410028
4.8628926277160645 -2.0288521252074183 1.3565433661090296 4.923158216267385 -1.458416763936178 -5.591732565556661 -0.21431647791999406 0.3090172406138245 0.5737974092556859 -2.645306176174342 0.6964475418910521 0.3999454514996841
4.862940311431885 -2.0297051868834437 1.3565548102008265 4.941201019078054 -1.4584525267230433 -5.591720644627706 -0.21368370540900783 0.3048065182620372 0.57016836231555 -2.661296883916226 0.7021011964103566 0.3922456711228595
4.862940311431885 -2.029776712457174 1.3566139380084437 4.960001426726141 -1.4584406057940882 -5.591708485280172 -0.2130627496090829 0.30068717531945366 0.5661629449041539 -2.678730067854447 0.7083346296504396 0.38378363715558644
4.862880229949951 -2.029581209222311 1.3566024939166468 4.978904354363241 -1.4584763685809534 -5.591720644627706 -0.21241192197299064 0.29659104453615237 0.5621627886040175 -2.696376956418712 0.7147311749583172 0.37499446100394807
4.8629045486450195 -2.0293694935240687 1.3565786520587366 4.998392897635259 -1.4583929220782679 -5.591720644627706 -0.21179001122423285 0.29226892771611346 0.5581313114562199 -2.7146118809455 0.7212117756669537 0.3660010061143605
4.8628926277160645 -2.0292846165099085 1.3565662542926233 5.017761993199148 -1.4584525267230433 -5.591720644627706 -0.21110221799448342 0.2878637272172536 0.5542426307413364 -2.7325381023614903 0.7277005278029645 0.35680307756204444
4.8628926277160645 -2.0292631588377894 1.356602970753805 5.037167089968481 -1.4584525267230433 -5.591720644627706 -0.2104191407139756 0.28334642582803865 0.5504324047911509 -2.750477036189016 0.7341768613176556 0.34755895194122705
4.862916469573975 -2.0291782818236292 1.3565781752215784 5.056166010885992 -1.458428684865133 -5.591720644627706 -0.209757180453633 0.27887149946016326 0.5468003743664663 -2.7680308456816185 0.7404905050265775 0.3384284482620708
4.8629045486450195 -2.0291911564269007 1.3565285841571253 5.074375378876486 -1.458416763936178 -5.591696564351217 -0.2090952120292136 0.2744914878993363 0.5434424679328331 -2.7846893334401805 0.7465931165803369 0.3296115446553046
4.862916469573975 -2.029215475121969 1.3565548102008265 5.092365163355627 -1.4584525267230433 -5.591720644627706 -0.20842492614757363 0.27009840690369574 0.5401696093260062 -2.8011865709377344 0.7525567581190497 0.32069681132512795
4.862916469573975 -2.029250761071676 1.3564217726336878 5.109255331545629 -1.458428684865133 -5.591708485280172 -0.20780067335168673 0.2659173376963989 0.5372513476815514 -2.816496072912134 0.7581629251626882 0.3123992926656638
4.862916469573975 -2.0292636356749476 1.3564594427691858 5.125652748137274 -1.4584406057940882 -5.591732565556661 -0.20717887524102233 0.26181994314110874 0.5343982680741806 -2.8315060655790973 0.7636266430607116 0.30410701097746423
4.8628926277160645 -2.0292631588377894 1.356434170399801 5.140867578774252 -1.4584406057940882 -5.591696564351217 -0.20659374894446836 0.25798683040232223 0.5318375288076217 -2.845342390087959 0.7688018157078579 0.29637816672277517
4.86292839050293 -2.0292636356749476 1.3563979307757776 5.15514503696517 -1.4584406057940882 -5.591684881840841 -0.20605454324240927 0.2543429882820489 0.5294945104994717 -2.858327802523977 0.7735451519488575 0.2890670780411058
4.8628926277160645 -2.0292870006956996 1.3563864866839808 5.168103265553274 -1.4584649244891565 -5.591696564351217 -0.20553544055175293 0.25101406210640875 0.5274090229066988 -2.870062300580515 0.7779191549037033 0.2823275585669087
4.8628926277160645 -2.0292870006956996 1.356325928364889 5.180225360184469 -1.4584406057940882 -5.591672960911886 -0.20506958994762908 0.24787547902760804 0.525516111934169 -2.8810191921982766 0.7820044032768784 0.27606039338104066
4.86292839050293 -2.029311319390768 1.3563497702227991 5.190912294178762 -1.4584406057940882 -5.591732565556661 -0.20465728984542744 0.24507323821118832 0.5238493412280906 -2.890750219626331 0.7854592372736613 0.27043097832357743
4.8628926277160645 -2.0293590031065882 1.3562787214862269 5.200344341784277 -1.4584406057940882 -5.591732565556661 -0.2042736655090855 0.24259198873449653 0.5224527345922918 -2.8991737528538652 0.7886439528090895 0.26549206109643647
4.862940311431885 -2.029347082177633 1.3562305609332483 5.208570706635275 -1.458416763936178 -5.5917444864856165 -0.2039662752329632 0.24041866222733643 0.5212335475122498 -2.906622783629451 0.7913139902804345 0.26116411105416787
4.8629045486450195 -2.0293590031065882 1.3562310377704065 5.215021598130026 -1.4584406057940882 -5.591684881840841 -0.20369321178441593 0.2387160243901213 0.5202769605172856 -2.912404602394414 0.7936231205866358 0.2576843753176974
4.862916469573975 -2.029322763482565 1.3562315146075647 5.21980499008254 -1.458428684865133 -5.591732565556661 -0.20351022368007962 0.23745621671857325 0.519563722410294 -2.916787025865677 0.7951588108408724 0.2551070783130027
4.86292839050293 -2.029322763482565 1.3562315146075647 5.2230297205741785 -1.4584406057940882 -5.591696564351217 -0.20338049139165532 0.2365965893141445 0.5190923980812837 -2.919691207806578 0.7962821070040321 0.25335664409757946
4.8628926277160645 -2.029322763482565 1.3562915960894983 5.224780130177297 -1.458416763936178 -5.591708485280172 -0.2033084339302337 0.23613496614717147 0.518811500077236 -2.9213213292089018 0.7969249763214654 0.25240873079630244
4.8629045486450195 -2.0292378864684046 1.356279198323385 5.225190925389089 -1.4584525267230433 -5.591696564351217 -0.20328913266425364 0.23605498304231456 0.5187339800826106 -2.9217483060692264 0.7970895268334179 0.2520990091300488
4.8628926277160645 -2.0292631588377894 1.3562315146075647 5.225179362088003 -1.458416763936178 -5.591720644627706 -0.20329580967633448 0.23605106107089105 0.5187650233839625 -2.9216854385645457 0.7970414668096564 0.25219233817396935
4.86292839050293 -2.0292755566039027 1.356279198323385 5.225191521435537 -1.458416763936178 -5.591696564351217 -0.20330293168921681 0.23603498530072156 0.5187449646358089 -2.921737379559195 0.7970414162278879 0.25217163120885006
4.86292839050293 -2.029299398461813 1.3562315146075647 5.225227820664205 -1.458416763936178 -5.591696564351217 -0.2033003738229673 0.23601811164271685 0.518767565143851 -2.921705519154542 0.7970298409439502 0.2521909023836688
4.862916469573975 -2.0292750797667445 1.356279198323385 5.225276100426473 -1.458428684865133 -5.591732565556661 -0.20329334770854812 0.23601560671613714 0.5187322009309012 -2.9218165039534005 0.7970344077626438 0.252104813987289
4.8629045486450195 -2.029250284234518 1.3563149611102503 5.225300240307607 -1.4584525267230433 -5.591720644627706 -0.20328395672429084 0.23602057702487755 0.5187052295909141 -2.9218759926773776 0.7970984639325498 0.25202520859734434
4.8628926277160645 -2.0292750797667445 1.3562915960894983 5.225300001889028 -1.4584406057940882 -5.591732565556661 -0.20328331580289646 0.23601434571162447 0.518722753535662 -2.9218342717510706 0.7970814006810557 0.2520663286239784
4.8628926277160645 -2.0292870006956996 1.356314484273092 5.225324141770162 -1.458428684865133 -5.591708485280172 -0.20328503096934786 0.23600256154150537 0.5187124236556065 -2.9218619390231884 0.7971283700782157 0.2520661703905463
4.862880229949951 -2.029250761071676 1.3563268820392054 5.225359844952383 -1.4584525267230433 -5.591696564351217 -0.20327575711651194 0.2360091624362346 0.518691324206069 -2.9219208647725536 0.7971930633126848 0.2519867598786981
4.8629045486450195 -2.029250761071676 1.3563512007342737 5.225335943489828 -1.458428684865133 -5.591708485280172 -0.20328917119619885 0.2360088271098749 0.5186845385424479 -2.9219441605983176 0.7971394747400844 0.2520211379899044
4.8629045486450195 -2.029238840142721 1.3563759962665003 5.225359844952383 -1.458416763936178 -5.591696564351217 -0.20329215981846832 0.23600545144641902 0.5186670871461656 -2.921998830683261 0.7971769502437555 0.2520060858237349
4.8629045486450195 -2.0292989216246546 1.3564108053790491 5.225407767086782 -1.458428684865133 -5.5917444864856165 -0.20328350733366224 0.2359712206056369 0.5186598854117227 -2.922031095194346 0.7971141094383583 0.2519730609903718
4.862880229949951 -2.0292631588377894 1.356386963521139 5.22546939828948 -1.458428684865133 -5.591732565556661 -0.2032772872596876 0.23597292440866696 0.5186522971682858 -2.922082168565978 0.7971915922364594 0.2519322441960735
4.8629045486450195 -2.029299398461813 1.3563507238971155 5.225628006249227 -1.4584525267230433 -5.591684881840841 -0.20326805522819535 0.23591499947024971 0.5186545226310679 -2.922148351000863 0.7972574119207999 0.2518583481004872
4.8629045486450195 -2.0292989216246546 1.3563984076129358 5.226055252342977 -1.458416763936178 -5.591732565556661 -0.20326096226141135 0.2357983064454759 0.5185720921462399 -2.9226045771412257 0.797345450689745 0.25164769635081624
4.862880229949951 -2.029250284234518 1.3563874403582972 5.227039384632864 -1.4584406057940882 -5.591696564351217 -0.2032115408195065 0.2355592562830973 0.5184211644661284 -2.923496611852626 0.797779103323041 0.251062359942782
4.8628926277160645 -2.029250284234518 1.3564112822162073 5.228769707470693 -1.4584406057940882 -5.591684881840841 -0.20314484247296244 0.23509418582367142 0.5181608324838799 -2.9250825568791403 0.7983698565339964 0.25011481085371245
4.862916469573975 -2.0292989216246546 1.3564470450030726 5.231501805573263 -1.458428684865133 -5.591720644627706 -0.20304119816463773 0.23434050234659212 0.5177654556687814 -2.927563906111567 0.7991988998601905 0.24865678258967533
4.8629045486450195 -2.0292874775328578 1.3564108053790491 5.235536682396688 -1.458416763936178 -5.591696564351217 -0.20287993514220726 0.23326693440384644 0.5172033058319585 -2.9311726139030623 0.8006041047295078 0.24649630695122618
4.862916469573975 -2.0292750797667445 1.3564346472369593 5.2415029285247705 -1.4584649244891565 -5.591756645833151 -0.2026284544920002 0.2316687833126678 0.5163444833619475 -2.9365959225877423 0.8025237474521442 0.24315306311493784
4.862916469573975 -2.0292989216246546 1.3564470450030726 5.2495871661003015 -1.4584525267230433 -5.591732565556661 -0.20230287289716847 0.22948126948274708 0.5152181996682281 -2.9438660610989666 0.8052838168671008 0.23875262799126143
4.8628926277160645 -2.0292989216246546 1.3564232031451624 5.259955394058981 -1.458416763936178 -5.591732565556661 -0.20188546853066125 0.2266783864011898 0.5138102141969201 -2.953176878130544 0.8088115192517839 0.2331047850818069
4.8628926277160645 -2.0292870006956996 1.3564232031451624 5.272695231228628 -1.4584525267230433 -5.591708485280172 -0.20135421177600055 0.22321578138730835 0.5121020132366038 -2.9646188933878617 0.8131575766063183 0.2259789652604885
4.8629045486450195 -2.0292750797667445 1.3564108053790491 5.287516701012411 -1.458428684865133 -5.591708485280172 -0.2007535573245656 0.21915499414239498 0.5101791773486882 -2.9779308422919386 0.8181536984129019 0.2177151790517975
4.862868309020996 -2.0292750797667445 1.3564232031451624 5.304300892144003 -1.4584406057940882 -5.591684881840841 -0.20004579201818068 0.21452915638194855 0.5080661400776421 -2.992943130770255 0.8239302915599055 0.20819589692549267
4.862880229949951 -2.0292750797667445 1.3564470450030726 5.32301555851058 -1.4584649244891565 -5.591756645833151 -0.19925893629657057 0.20932037318179686 0.5057986886087489 -3.0097086817178744 0.8301549369734005 0.1974365751341822
4.8629045486450195 -2.0292870006956996 1.3564346472369593 5.3432214734847925 -1.4584406057940882 -5.591708485280172 -0.19841904300481433 0.2036435553820501 0.5034822951511743 3.017752466238941 -0.8342935991420819 -0.1851668242633614
4.8629045486450195 -2.0292631588377894 1.3564823309527796 5.364481258183279 -1.458404843007223 -5.5917444864856165 -0.19752737973659285 0.19763614098155785 0.501137341667869 2.9992616094476783 -0.831099780174315 -0.17060257446385482
4.8628926277160645 -2.0292631588377894 1.3564346472369593 5.386811363487997 -1.458416763936178 -5.591720644627706 -0.1965664314305014 0.1912754520546267 0.49885871225416967 2.979872446450319 -0.8278374424499252 -0.15549224858763194
4.862880229949951 -2.0292989216246546 1.3564346472369593 5.409577357559957 -1.4584525267230433 -5.5917444864856165 -0.19557077523195415 0.18472708819039893 0.4966708922886114 2.9600614200244015 -0.8243956024971231 -0.14022710064771815
4.862880229949951 -2.0292631588377894 1.3564470450030726 5.433103310852804 -1.458428684865133 -5.591720644627706 -0.19455817024349747 0.1779283022482811 0.4945504597720367 2.939402093676241 -0.820824007003421 -0.12466496848102898
4.862868309020996 -2.0292989216246546 1.3564470450030726 5.456580686360159 -1.4584525267230433 -5.591684881840841 -0.19352186375735736 0.17107787898615254 0.49261455039255075 2.9188044026044198 -0.8172649462050272 -0.10931202182648131
4.862880229949951 -2.029250761071676 1.3565195242511194 5.480397927552023 -1.4584406057940882 -5.591696564351217 -0.19248240332203376 0.16410167077745005 0.4907741019958563 2.897718208935925 -0.8134748167951525 -0.09387535539210104
4.8629045486450195 -2.029250761071676 1.3564708868609827 5.50411610582427 -1.4584406057940882 -5.591708485280172 -0.19143860024636855 0.1571029786467865 0.48916414195496183 2.8768136630351937 -0.8096646146984563 -0.07878130858911081
4.862916469573975 -2.0292631588377894 1.3565295378314417 5.527676033764639 -1.458428684865133 -5.591720644627706 -0.19039656539110864 0.15010716116435419 0.4876942833583008 2.8558929617634043 -0.8058376520123489 -0.06392676590617988
4.8629045486450195 -2.0292631588377894 1.3565295378314417 5.550547349243917 -1.4584649244891565 -5.591660801564352 -0.18936460580696873 0.14329853137430404 0.48644442771550267 2.8355479110156936 -0.8022237583706346 -0.04963471387973684
4.862880229949951 -2.0292631588377894 1.3565681616412562 5.573156583100118 -1.4584649244891565 -5.591720644627706 -0.18834933113669214 0.1365405550425094 0.48535159281033835 2.815375426216777 -0.7984538777497729 -0.03571373223004714
4.862868309020996 -2.0292021236815394 1.3566139380084437 5.594966399460592 -1.4584406057940882 -5.591708485280172 -0.1873787672380545 0.13001596658587372 0.48443284033636874 2.7957685381448956 -0.7948516022778865 -0.02241559586297998
4.862868309020996 -2.0291530094542445 1.3566272894488733 5.6154464958007715 -1.4584406057940882 -5.591732565556661 -0.18646008353329924 0.12387069040433189 0.4837134816907669 2.7773753122289846 -0.7913772303499933 -0.010060410411621298
4.862844467163086 -2.028984685937399 1.3566630522357386 5.635131227761068 -1.4584525267230433 -5.591708485280172 -0.1855748757499056 0.1179934871885162 0.4831176270157293 2.7595047151331413 -0.7880815780400428 0.0017987804687553954
4.862868309020996 -2.02879061321401 1.3567107359515589 5.653616237431326 -1.4584649244891565 -5.591696564351217 -0.18474921588202906 0.11246735083510254 0.48265826067902573 2.7426663525994326 -0.7848729403743342 0.012864606905534703
4.862856388092041 -2.028501649896139 1.3568075338946741 5.670661437302389 -1.4584406057940882 -5.591708485280172 -0.18399835668512374 0.10740211062831508 0.48229893163499493 2.7269433363569435 -0.7818817874016409 0.023012401880185676
4.862844467163086 -2.028152128259176 1.3568552176104944 5.686701166420736 -1.4584406057940882 -5.591696564351217 -0.18328895504585357 0.10265974107631484 0.4820486055212365 2.7120916932831416 -0.7790722382711279 0.032533710003574474
4.862820625305176 -2.027768751183981 1.3569625059710901 5.701252746372976 -1.458428684865133 -5.591708485280172 -0.18265002272615444 0.09837407387372855 0.4818650158242417 2.698477094380228 -0.7764719459680625 0.04115417955542073
4.862832546234131 -2.0273362598814906 1.357142750416891 5.714522111206808 -1.4584406057940882 -5.591708485280172 -0.18206737640833015 0.09448068198429574 0.4817217341916972 2.685913807109496 -0.7740246888300174 0.04909189366517289
