qblc7/bachelorproject/Testdaten/Hindernis_o2/robot_o2.csv
actual_q_0 actual_q_1 actual_q_2 actual_q_3 actual_q_4 actual_q_5 actual_TCP_pose_0 actual_TCP_pose_1 actual_TCP_pose_2 actual_TCP_pose_3 actual_TCP_pose_4 actual_TCP_pose_5
5.096238136291504 -1.187895492916443 1.1639936606036585 4.96570514419631 -1.458069149647848 -5.594006840382711 -0.3717531256972633 0.47857508417524447 0.26156256454745874 2.8535189301497987 -0.4577040379086015 0.032808927305020684
5.0962138175964355 -1.1879194539836426 1.163922135029928 4.965729224472799 -1.458092991505758 -5.5940426031695765 -0.37173929772933645 0.4785971657211371 0.26160537540841267 2.8535950503726935 -0.4576897915990088 0.03277503778851712
5.0962138175964355 -1.187907413845398 1.1639583746539515 4.96570514419631 -1.458092991505758 -5.594030682240621 -0.37173848264864484 0.47859513114025665 0.2615837462748877 2.8535714883448273 -0.4577052890009218 0.03279510906987097
5.096238136291504 -1.1879194539836426 1.1639698187457483 4.965741145401754 -1.458081070576803 -5.594018999730245 -0.3717475442609844 0.4785704703510376 0.2615851387641598 2.853537889834769 -0.45768647552859876 0.03281285728887017
5.096238136291504 -1.187907413845398 1.1639936606036585 4.965741145401754 -1.458092991505758 -5.594030682240621 -0.3717421251812214 0.4785662486940484 0.2615676354854559 2.853515465335958 -0.457666658483974 0.03285212482509507
5.096238136291504 -1.1879194539836426 1.1639698187457483 4.965729224472799 -1.458081070576803 -5.594030682240621 -0.3717489017573008 0.478573835905215 0.2615855173211611 2.8535507987977935 -0.4576704218194185 0.03280193797076763
5.096225738525391 -1.1879435342601319 1.1639583746539515 4.965741145401754 -1.458081070576803 -5.594018999730245 -0.3717419860408484 0.47857600559321545 0.26160403571913504 2.8535657207861562 -0.4577061916895535 0.03278436220561479
5.096225738525391 -1.1879435342601319 1.1639936606036585 4.965692984848776 -1.4580567518817347 -5.594030682240621 -0.3717501642493947 0.47857745301446386 0.26159135029925584 2.8535670478982467 -0.45769214040580536 0.03274235590209561
5.096225738525391 -1.1879314941218873 1.1639698187457483 4.965692984848776 -1.4581049124347132 -5.5940545240985315 -0.37174018976553375 0.47858999332278596 0.26159295200368804 2.8536071628013127 -0.4576545486843096 0.03278954873343918
5.096238136291504 -1.1878834527781983 1.1639459768878382 4.965717303543844 -1.458092991505758 -5.5940426031695765 -0.37175098983382826 0.47858825925816056 0.2615746456631099 2.853559326400943 -0.45765231012555496 0.032814879159169114
5.0962018966674805 -1.187907413845398 1.1639459768878382 4.965692984848776 -1.458081070576803 -5.594006840382711 -0.3717387612836155 0.47860518421949505 0.2615897605605185 2.853578603304781 -0.4577587512438713 0.03276426168807734
5.096225738525391 -1.187955455189087 1.1639936606036585 4.965741145401754 -1.458092991505758 -5.594030682240621 -0.3717344193932492 0.47856644442829577 0.2615956506086468 2.8535541421723036 -0.457687076993278 0.032814381823131296
5.096238136291504 -1.1879194539836426 1.1639936606036585 4.965717303543844 -1.4580448309527796 -5.5940426031695765 -0.37175744731263527 0.4785669787541841 0.2615769043634932 2.8535245517841976 -0.4576558295380131 0.03276323343969868
5.096250057220459 -1.187907413845398 1.1639812628375452 4.96570514419631 -1.458081070576803 -5.594006840382711 -0.3717565295092391 0.47857416982075435 0.2615744063110644 2.8535489412347648 -0.457687402154209 0.03280806498860897
5.096238136291504 -1.187907413845398 1.1639097372638147 4.965729224472799 -1.458081070576803 -5.594018999730245 -0.3717559802886689 0.4785914199816995 0.2616039819518542 2.853589861281709 -0.4576899268425687 0.03276861905547532
5.0962138175964355 -1.1879194539836426 1.1639936606036585 4.96570514419631 -1.458081070576803 -5.5940545240985315 -0.3717373727365891 0.47858313543267944 0.2615761687054899 2.853550481158185 -0.45767091541665883 0.03279299034355888
5.0962138175964355 -1.187895492916443 1.1639812628375452 4.96570514419631 -1.458092991505758 -5.594018999730245 -0.3717363951469389 0.4785899483693279 0.26156708552897695 2.8535387591784986 -0.45771995565682894 0.03282293970873833
5.0962138175964355 -1.1879435342601319 1.1639812628375452 4.965717303543844 -1.4581049124347132 -5.594018999730245 -0.3717300074852205 0.47858331412585914 0.2615943462579341 2.8535759385618102 -0.4577210093107824 0.03281133627804079
5.096225738525391 -1.1879194539836426 1.1639936606036585 4.965729224472799 -1.4580567518817347 -5.593982998524801 -0.37174692612402366 0.47856943374111294 0.2615761567981361 2.8535042651333673 -0.4577569466528689 0.03279555816342415
5.096225738525391 -1.187895492916443 1.1639698187457483 4.965692984848776 -1.458081070576803 -5.5940426031695765 -0.371747979221213 0.4785908770159666 0.2615726950176147 2.8535611464595805 -0.45767161653707267 0.03278848437606302
5.0962018966674805 -1.1879194539836426 1.1639583746539515 4.965692984848776 -1.458081070576803 -5.594030682240621 -0.3717369481588962 0.4786006778122495 0.2615915229498893 2.853583531605694 -0.45772466360074826 0.03276016503961258
5.096238136291504 -1.187907413845398 1.1639812628375452 4.965717303543844 -1.4581049124347132 -5.594018999730245 -0.3717429787215922 0.4785775920153217 0.2615732823654504 2.853550428823422 -0.45768428097128233 0.03284245392728442
5.096238136291504 -1.187895492916443 1.1639459768878382 4.965717303543844 -1.4581049124347132 -5.594018999730245 -0.3717473150543891 0.47858836503299645 0.26158129824037146 2.853570675558965 -0.457685659970735 0.03282521402965644
5.096189975738525 -1.1879194539836426 1.1639812628375452 4.96570514419631 -1.4580448309527796 -5.5940545240985315 -0.37173715218004955 0.47859171562100655 0.26158254946241954 2.8535370016029886 -0.45770881452228585 0.03273414485258419
5.0962018966674805 -1.1879194539836426 1.163922135029928 4.965717303543844 -1.458092991505758 -5.5940545240985315 -0.3717349497478242 0.47860496275150144 0.2616057541807244 2.853605174826777 -0.4576903884544743 0.032761897881721416
5.096250057220459 -1.1879194539836426 1.1639459768878382 4.965729224472799 -1.458069149647848 -5.5940426031695765 -0.37176047003391455 0.47857473148909474 0.26159599971816777 2.853570812242176 -0.45763884699410046 0.032769426831433
5.096189975738525 -1.1879194539836426 1.1639812628375452 4.965692984848776 -1.458081070576803 -5.594066683446066 -0.371728715675693 0.47859883160093586 0.26158181388903695 2.853568770817064 -0.45768889923323886 0.03276830283930335
5.096225738525391 -1.187907413845398 1.1640175024615687 4.965729224472799 -1.458069149647848 -5.593994919453756 -0.37174137775369065 0.47856526015806256 0.2615586387958797 2.853482138132671 -0.45773674723434615 0.03283537882736739
5.096225738525391 -1.187895492916443 1.1639812628375452 4.965729224472799 -1.458069149647848 -5.594018999730245 -0.3717458193916369 0.47857629512512967 0.26156705886517284 2.853508501539645 -0.4577037897676943 0.03281303484929194
5.0962018966674805 -1.1878834527781983 1.1639936606036585 4.965741145401754 -1.458081070576803 -5.5940545240985315 -0.37172889632463374 0.4785807091925055 0.26155403151945855 2.8534852135955155 -0.4576839391077138 0.032843925705880433
5.096238136291504 -1.187907413845398 1.1639698187457483 4.96570514419631 -1.458081070576803 -5.594030682240621 -0.3717520881652352 0.47858174030665296 0.2615792607390285 2.8535612581538357 -0.4576710093044743 0.032793084311665485
5.096238136291504 -1.187907413845398 1.1639698187457483 4.965741145401754 -1.4581049124347132 -5.594018999730245 -0.3717415274563304 0.47857399973450554 0.2615773796832189 2.8535396601503655 -0.4576836854610714 0.03285157688633124
5.0962138175964355 -1.1878714126399537 1.1639812628375452 4.96570514419631 -1.4581049124347132 -5.5940545240985315 -0.37173405286254857 0.4785933714975013 0.2615526738568736 2.8535317987848146 -0.45766678999798927 0.032849145534109246
5.0962018966674805 -1.187907413845398 1.1639583746539515 4.96570514419631 -1.458069149647848 -5.5940426031695765 -0.37173923846645845 0.47859713939461845 0.26158448417658453 2.8535590671719255 -0.45770735458681117 0.032760924759851276
5.0962138175964355 -1.1878834527781983 1.1639583746539515 4.96570514419631 -1.4581168333636683 -5.594030682240621 -0.37173290555945027 0.47859975534935406 0.2615690351361291 2.8535629289111784 -0.4577018172056359 0.03284263246185276
5.096225738525391 -1.1879194539836426 1.1639812628375452 4.965729224472799 -1.4581049124347132 -5.594066683446066 -0.3717352437124523 0.47857772924818753 0.26157992512055395 2.8535580424575575 -0.4576339042823295 0.03283136980175444
5.096238136291504 -1.1878834527781983 1.1639812628375452 4.965717303543844 -1.4580567518817347 -5.594018999730245 -0.37175691407930067 0.47857489747568566 0.2615607997613836 2.8535050165961366 -0.4576871553734521 0.03279989677992308
5.096189975738525 -1.1879314941218873 1.1639459768878382 4.965717303543844 -1.458081070576803 -5.5940545240985315 -0.37172939833531427 0.4786005374948852 0.2616030308591869 2.853586009389506 -0.45770772618155275 0.03275351079962206
5.096238136291504 -1.187907413845398 1.1639698187457483 4.965729224472799 -1.4581049124347132 -5.594006840382711 -0.37174288495772684 0.4785773653013342 0.2615777581945361 2.853547331680074 -0.45770168396929944 0.03284501377103633
5.096225738525391 -1.1879435342601319 1.1640060583697718 4.965741145401754 -1.458081070576803 -5.594030682240621 -0.37173672085880527 0.4785629275434538 0.26158380904342465 2.8535269683462796 -0.45768672175821223 0.03281742140372257
5.096225738525391 -1.1878834527781983 1.163933579121725 4.965729224472799 -1.4580567518817347 -5.594006840382711 -0.3717548887637509 0.478589219481094 0.26158064769078926 2.8535303705961907 -0.4577243442636975 0.032773443898150074
5.096189975738525 -1.187907413845398 1.1639698187457483 4.965741145401754 -1.4581049124347132 -5.594066683446066 -0.37171847863669405 0.4785919024569998 0.2615773796832189 2.85353867207697 -0.457684224821066 0.03283406479644452
5.096225738525391 -1.1879435342601319 1.1639459768878382 4.965729224472799 -1.458081070576803 -5.594006840382711 -0.3717447123767804 0.478582771293822 0.26160967349584374 2.853584134610773 -0.45772491416772665 0.03276864798505286
5.096250057220459 -1.1879194539836426 1.1639812628375452 4.96570514419631 -1.458069149647848 -5.594030682240621 -0.37175931576184285 0.47857185214873815 0.2615817966395238 2.853558509612226 -0.4576550890749774 0.03277990315609897
5.0962018966674805 -1.1879194539836426 1.1639812628375452 4.965717303543844 -1.458092991505758 -5.594030682240621 -0.37172842137804185 0.4785887459851473 0.26158067256616785 2.8535487009535156 -0.45772098737897793 0.03280989268958624
5.0962138175964355 -1.1878834527781983 1.1639936606036585 4.965741145401754 -1.458092991505758 -5.594006840382711 -0.3717313708542195 0.4785774894053217 0.26155366259669294 2.8534836771629593 -0.4577340000066341 0.032869732295590426
5.096238136291504 -1.187895492916443 1.1639936606036585 4.965729224472799 -1.4580448309527796 -5.5940426031695765 -0.37175697384255774 0.4785658139541888 0.2615625528912071 2.8534934472777476 -0.4576538285803551 0.032789713108206345
5.0962138175964355 -1.1879435342601319 1.1639812628375452 4.965692984848776 -1.458081070576803 -5.5940545240985315 -0.37173923771414 0.4785877566148205 0.26159585665210083 2.8535926390283297 -0.4576736607261661 0.03275709714903688
5.0962138175964355 -1.1878714126399537 1.1639698187457483 4.96570514419631 -1.458081070576803 -5.594030682240621 -0.3717417777142817 0.47859408728988395 0.2615582659745434 2.8535242755220036 -0.4577036117400789 0.032815227500462875
5.096225738525391 -1.1879194539836426 1.1639936606036585 4.965681063919821 -1.458092991505758 -5.5940426031695765 -0.37174258937731747 0.4785867140565964 0.2615765645934459 2.853577693033342 -0.45767117611731895 0.032794515665379644
5.096225738525391 -1.187907413845398 1.1640060583697718 4.96570514419631 -1.458081070576803 -5.594018999730245 -0.3717421530288547 0.47857640928937883 0.26156388851665247 2.853524338575995 -0.45770324919251665 0.03281970087649993
5.096250057220459 -1.1878834527781983 1.1639698187457483 4.96570514419631 -1.4581049124347132 -5.594030682240621 -0.3717522163141507 0.4785819329254269 0.2615645496011365 2.8535555362762137 -0.45765054671688143 0.032842785686671504
5.096225738525391 -1.1879314941218873 1.1639812628375452 4.965692984848776 -1.458081070576803 -5.593994919453756 -0.3717453871980593 0.47858443121116473 0.26158883527774457 2.853571948327667 -0.4577411117542956 0.03277905537801209
5.0962018966674805 -1.1878714126399537 1.1639698187457483 4.965681063919821 -1.458069149647848 -5.593994919453756 -0.3717420448747997 0.47860410570900425 0.26155939958479396 2.853528371053823 -0.45777400710499727 0.03278692475152903
5.0962018966674805 -1.187907413845398 1.1639936606036585 4.96570514419631 -1.458069149647848 -5.594030682240621 -0.37173534231503835 0.47858746117896 0.2615695163590148 2.853525871932613 -0.45772232010264097 0.0327891455946631
5.096250057220459 -1.1879194539836426 1.1639936606036585 4.965692984848776 -1.458069149647848 -5.594030682240621 -0.3717593313653009 0.4785718846032974 0.26157692384901476 2.853558316115594 -0.45765500955273464 0.03278009309057512
5.096238136291504 -1.187895492916443 1.1640060583697718 4.965741145401754 -1.458092991505758 -5.594066683446066 -0.37174119584915893 0.47856394293225457 0.26155542511275015 2.8535023001734454 -0.45761383490624874 0.03286349914484399
5.0962138175964355 -1.1879314941218873 1.1639698187457483 4.965717303543844 -1.458081070576803 -5.5940545240985315 -0.3717381764958012 0.47858513571497424 0.26159291726173506 2.853571024006893 -0.4576723516978145 0.03277546282197059
5.0962138175964355 -1.1878714126399537 1.1639459768878382 4.965741145401754 -1.4580567518817347 -5.593994919453756 -0.37174690135264016 0.47858799102536975 0.2615679888605599 2.853493396017697 -0.45775631650184684 0.03280027092649216
5.096225738525391 -1.187907413845398 1.1639812628375452 4.965692984848776 -1.458081070576803 -5.594030682240621 -0.37174627570231644 0.47858664319067024 0.26157479248597904 2.853558940410712 -0.45768865613996945 0.032790305284860544
5.096238136291504 -1.187895492916443 1.1640060583697718 4.96570514419631 -1.458081070576803 -5.594030682240621 -0.3717485260502549 0.4785728952776738 0.26155693674982505 2.853519526341484 -0.4576682116257209 0.032828635021239436
5.096225738525391 -1.187895492916443 1.1639459768878382 4.965753304749288 -1.458081070576803 -5.594090525303976 -0.3717437431761025 0.4785803864616239 0.26158089282046854 2.8535399986845498 -0.4576013679600462 0.032806581393562274
5.096238136291504 -1.1879314941218873 1.1639812628375452 4.965753304749288 -1.458069149647848 -5.594006840382711 -0.37174768215791726 0.4785615809954517 0.2615872885142705 2.8535190836638247 -0.4577042685235769 0.03280868058092635
5.096238136291504 -1.187907413845398 1.1639812628375452 4.965717303543844 -1.4580567518817347 -5.594030682240621 -0.3717560300721151 0.47857269676910175 0.2615747729181802 2.853528344942403 -0.4576718400597236 0.032780066817683355
5.096225738525391 -1.1879194539836426 1.1640060583697718 4.965717303543844 -1.458081070576803 -5.594006840382711 -0.3717403242358521 0.4785718705738895 0.26157052370418077 2.8535215504730562 -0.4577206597668915 0.03282199150967442
5.096238136291504 -1.1879194539836426 1.1639936606036585 4.965717303543844 -1.4580567518817347 -5.594030682240621 -0.3717542167820232 0.4785681904225896 0.2615765353139066 2.8535280346493637 -0.4576718047538327 0.03278032560481401
5.096250057220459 -1.1879194539836426 1.1639698187457483 4.965741145401754 -1.4580448309527796 -5.594030682240621 -0.3717630700107086 0.47856235512067846 0.26158626055083406 2.8535247442331357 -0.4576559931580832 0.032767562605015156
5.0962138175964355 -1.187907413845398 1.1639812628375452 4.965692984848776 -1.458069149647848 -5.594018999730245 -0.3717438010364223 0.47858986309792073 0.2615751614559243 2.8535474349269965 -0.45772338298555276 0.03277534760798703
5.096225738525391 -1.1879194539836426 1.1639459768878382 4.965729224472799 -1.4580567518817347 -5.594006840382711 -0.3717521913742337 0.47858251196013246 0.261596383490429 2.853550822001437 -0.45772567916932755 0.03275600707722353
5.096225738525391 -1.187907413845398 1.1639812628375452 4.965729224472799 -1.458092991505758 -5.594030682240621 -0.3717389184903708 0.47857762351152916 0.26157327273924147 2.8535336002912723 -0.4576856848157015 0.032831924739704164
5.0962138175964355 -1.187895492916443 1.1639698187457483 4.965729224472799 -1.4581049124347132 -5.5940426031695765 -0.37173168627764447 0.4785875004230009 0.2615708063894177 2.853539070173425 -0.4576845854384238 0.0328428396539952
5.096238136291504 -1.1879194539836426 1.1639812628375452 4.965717303543844 -1.458092991505758 -5.594006840382711 -0.37174576501011336 0.4785752743726562 0.26158067256616785 2.853552088786232 -0.4577033868590595 0.03282086979245911
5.096238136291504 -1.187895492916443 1.1639583746539515 4.965729224472799 -1.458069149647848 -5.593994919453756 -0.3717542801283089 0.47857796400822594 0.2615767675133055 2.853525995101111 -0.45772184797864984 0.032802807159970894
5.096250057220459 -1.1879435342601319 1.1639459768878382 4.96570514419631 -1.4581049124347132 -5.5940545240985315 -0.3717526319664936 0.47858295269059903 0.2616097008342921 2.853633492690473 -0.4576213225703136 0.03277646278661736
5.096250057220459 -1.187895492916443 1.163933579121725 4.965717303543844 -1.458092991505758 -5.5940545240985315 -0.37175761980067823 0.47858612195134376 0.2615869261342463 2.853585957487705 -0.45761970524937023 0.03279683726936671
5.096189975738525 -1.187895492916443 1.1639812628375452 4.965729224472799 -1.458069149647848 -5.5940426031695765 -0.3717287039318417 0.4785895894855502 0.26156705886517284 2.8535051749630918 -0.4577210509254405 0.032802186714360915
5.0962138175964355 -1.1879314941218873 1.1639812628375452 4.965717303543844 -1.458069149647848 -5.593994919453756 -0.3717401434412334 0.47858078533250586 0.26158843176464636 2.853541910466424 -0.45775786383559663 0.032779884892252295
5.0962138175964355 -1.187895492916443 1.1639936606036585 4.965717303543844 -1.4580567518817347 -5.594018999730245 -0.37174346248763074 0.47857943162570704 0.26156256227349983 2.8534989182059425 -0.4577217810629206 0.032795711650096045
5.096189975738525 -1.1879314941218873 1.1639936606036585 4.965717303543844 -1.4580567518817347 -5.594030682240621 -0.3717307240376109 0.47858498777026187 0.2615835565714638 2.8535270048704997 -0.45774113627814556 0.03276263423850062
5.0962138175964355 -1.187907413845398 1.1639936606036585 4.965729224472799 -1.458092991505758 -5.5940426031695765 -0.37173184438587664 0.47857865443990244 0.2615680139112456 2.853522638632129 -0.457684925686404 0.0328367183872899
5.096225738525391 -1.1879194539836426 1.1640060583697718 4.96565722206191 -1.4580567518817347 -5.594018999730245 -0.3717537561030166 0.4785863612412061 0.26157318459022705 2.8535639007166704 -0.4577086200944152 0.03274506955457333
5.0962018966674805 -1.187895492916443 1.1640060583697718 4.965717303543844 -1.4581049124347132 -5.594030682240621 -0.37172333681308894 0.4785853572131163 0.26155581294637886 2.8535125537030765 -0.4577171171556328 0.03286080123815015
5.096250057220459 -1.1879314941218873 1.1639698187457483 4.965729224472799 -1.4581049124347132 -5.594030682240621 -0.37174770143327107 0.4785707217226912 0.2615918007979674 2.853576271574941 -0.4576520183391802 0.032825052475033235
5.096250057220459 -1.1878714126399537 1.1639583746539515 4.965692984848776 -1.4580567518817347 -5.5940426031695765 -0.37176836029247096 0.478584715051702 0.2615642591845699 2.85354353791226 -0.4576383892129042 0.03277183959119109
5.096238136291504 -1.187907413845398 1.1639583746539515 4.965692984848776 -1.458081070576803 -5.594030682240621 -0.37175473651705554 0.47858831194423485 0.2615845014653527 2.8535817240251635 -0.4576723217854797 0.032775677105459824
5.096225738525391 -1.1879314941218873 1.1639583746539515 4.96570514419631 -1.458092991505758 -5.594030682240621 -0.37174329933591305 0.4785884874587901 0.2615977891383966 2.85359519082725 -0.45768967528124394 0.03277950360339455
5.0962138175964355 -1.187895492916443 1.1639097372638147 4.965717303543844 -1.4581049124347132 -5.594066683446066 -0.3717396776828949 0.4786073445758478 0.2615966708384971 2.8536067653042205 -0.45765433358980145 0.0327853134276096
5.096238136291504 -1.1879194539836426 1.1639583746539515 4.96570514419631 -1.458092991505758 -5.594018999730245 -0.37174967705744094 0.47858498475893335 0.26159076771381784 2.8535851423927134 -0.45768800143323085 0.032792794345633085
5.096250057220459 -1.1879194539836426 1.1639812628375452 4.965692984848776 -1.458081070576803 -5.5940426031695765 -0.37175746993175035 0.4785764967250492 0.26158181388903695 2.8535777792905024 -0.45763765673038953 0.03278367866106362
5.096238136291504 -1.1878714126399537 1.163933579121725 4.965729224472799 -1.4581168333636683 -5.5940545240985315 -0.3717449845318382 0.47859182341156387 0.26157176680557703 2.8535641150974933 -0.45763258613825036 0.0328510553573423
5.096225738525391 -1.187907413845398 1.1639459768878382 4.965753304749288 -1.458069149647848 -5.5940545240985315 -0.371746533858348 0.4785780797451083 0.2615882135921884 2.8535363190073464 -0.4576545186247389 0.03278944221925965
5.09617805480957 -1.1878834527781983 1.1639812628375452 4.965692984848776 -1.458081070576803 -5.594030682240621 -0.371724338365135 0.4786065696504593 0.2615608191560127 2.853526828710044 -0.45775524917481725 0.032799287814762317
5.096189975738525 -1.1879194539836426 1.1639936606036585 4.96570514419631 -1.458092991505758 -5.5940426031695765 -0.37172273173055204 0.47859320975485087 0.2615757997766118 2.853548289041159 -0.4577208728130294 0.0328057266121096
5.096250057220459 -1.1879194539836426 1.1639583746539515 4.965692984848776 -1.4581168333636683 -5.594030682240621 -0.3717503058690471 0.4785864095083904 0.2615904162713688 2.853613298406676 -0.4576528684751578 0.032813705694348244
5.0962138175964355 -1.1879314941218873 1.1639698187457483 4.965729224472799 -1.458069149647848 -5.594030682240621 -0.3717400496428018 0.47858055851723325 0.261592907587746 2.853549342020386 -0.457706822433402 0.032773689115562304
5.0962138175964355 -1.1879194539836426 1.1639812628375452 4.96570514419631 -1.458092991505758 -5.594078604375021 -0.3717355111370255 0.4785877475016793 0.26158105873962656 2.853572615223867 -0.4576361960760789 0.03279435517084157
5.0962138175964355 -1.1879194539836426 1.1639459768878382 4.965692984848776 -1.4581049124347132 -5.594006840382711 -0.3717375612799939 0.4786020698938501 0.26159604426136696 2.8536040766215365 -0.45774034903052485 0.0327873761218335
5.096225738525391 -1.187895492916443 1.1639812628375452 4.965692984848776 -1.4581049124347132 -5.5940426031695765 -0.37174025441649894 0.4785901614532727 0.2615671027699153 2.853563432641944 -0.45766884720967216 0.03282675917547353
5.096225738525391 -1.187895492916443 1.163933579121725 4.965692984848776 -1.4581049124347132 -5.594030682240621 -0.37174551976000153 0.4786032399040126 0.26158732980892235 2.8536021330398875 -0.4576886583910713 0.032793743458130506
5.096225738525391 -1.187895492916443 1.1639583746539515 4.965741145401754 -1.4580567518817347 -5.5940545240985315 -0.37175034911759247 0.47857794722321306 0.2615767727687162 2.8535194505896153 -0.45765485031603537 0.032782924824465313
5.096225738525391 -1.187907413845398 1.1639583746539515 4.965681063919821 -1.4580567518817347 -5.5940545240985315 -0.37175675080921317 0.478593814593616 0.2615856329421139 2.853581906488765 -0.4576587142552897 0.032729846731220036
5.096238136291504 -1.1879194539836426 1.1639698187457483 4.965729224472799 -1.4580567518817347 -5.594030682240621 -0.37175549203864805 0.47857136406155537 0.26158627006025004 2.8535383514854322 -0.45767256489138075 0.03277151340211457
5.0962138175964355 -1.187895492916443 1.1640060583697718 4.965729224472799 -1.458081070576803 -5.594018999730245 -0.3717341456821686 0.47857513705937543 0.26155617237403606 2.853490279525105 -0.4577182815398041 0.032844070683476355
5.0962138175964355 -1.1879194539836426 1.1639936606036585 4.96570514419631 -1.4581168333636683 -5.594018999730245 -0.3717276810532078 0.47858677034066766 0.2615750620389781 2.8535609810386453 -0.45771850141299636 0.03284422346413093
5.0962018966674805 -1.1878834527781983 1.1639583746539515 4.96570514419631 -1.4580567518817347 -5.594030682240621 -0.3717434822774474 0.4785980803204832 0.2615708945411189 2.853529340443812 -0.4577241025936602 0.03276528687989044
5.0962018966674805 -1.1879194539836426 1.1639698187457483 4.96570514419631 -1.458092991505758 -5.593982998524801 -0.3717310694971912 0.4785953177324727 0.2615859132073611 2.853558690005623 -0.45779040479506067 0.032801197484348496
5.096225738525391 -1.187895492916443 1.1639459768878382 4.965741145401754 -1.458092991505758 -5.594006840382711 -0.3717418972334667 0.4785850310079429 0.2615809099757568 2.8535382667604905 -0.45772048369083096 0.03282782599461627
5.096225738525391 -1.1879435342601319 1.1639812628375452 4.96570514419631 -1.4581168333636683 -5.594030682240621 -0.3717338666764651 0.4785835272999899 0.26159436366759015 2.853597993331419 -0.4576869268697036 0.03281733372196169
5.096238136291504 -1.1879194539836426 1.1639698187457483 4.965729224472799 -1.458092991505758 -5.593994919453756 -0.37174567122618435 0.47857504760903175 0.2615851483922737 2.8535490438360873 -0.4577204493381194 0.032823386044907574
5.096225738525391 -1.187895492916443 1.1639812628375452 4.965717303543844 -1.4581049124347132 -5.5940545240985315 -0.3717374851999783 0.47858329566768093 0.2615663305574075 2.853544952033274 -0.4576505320986725 0.03284250142008918
5.0962018966674805 -1.1879194539836426 1.1639583746539515 4.965753304749288 -1.458069149647848 -5.5940545240985315 -0.3717333104370833 0.4785824363293943 0.2615899759881149 2.853530334565238 -0.4576884650744002 0.03278534462846391
5.096238136291504 -1.1879314941218873 1.1639583746539515 4.965717303543844 -1.458081070576803 -5.594066683446066 -0.37175107862022144 0.4785792340669778 0.2615977717675381 2.853589398894609 -0.45762099111944515 0.03276923785057301
5.0962138175964355 -1.1879194539836426 1.1639583746539515 4.965717303543844 -1.458069149647848 -5.594030682240621 -0.37174311493956397 0.478588168937632 0.26159111935738105 2.85355916849132 -0.4577074337858372 0.0327653494817374
5.096250057220459 -1.1879314941218873 1.1640060583697718 4.965741145401754 -1.4580567518817347 -5.593982998524801 -0.371755393309091 0.478552521315101 0.2615775406667744 2.853499400959639 -0.4577216185997337 0.03280904583281222
5.096238136291504 -1.1879314941218873 1.1639936606036585 4.965681063919821 -1.4580448309527796 -5.5940545240985315 -0.3717611298171878 0.4785761040048845 0.26158507671154263 2.8535690443260915 -0.4576414108848897 0.032725457836454086
5.0962138175964355 -1.187895492916443 1.1639698187457483 4.965729224472799 -1.4581049124347132 -5.594030682240621 -0.37173168627764447 0.4785875004230009 0.2615708063894177 2.8535364514361223 -0.4577016113842471 0.032845017774127926
5.096238136291504 -1.1879314941218873 1.1639698187457483 4.965753304749288 -1.458081070576803 -5.5940545240985315 -0.37174571531813194 0.4785659314251346 0.26159177388894195 2.8535455766465447 -0.45763578241081204 0.03280643531490122
5.0962138175964355 -1.1879435342601319 1.1639459768878382 4.965729224472799 -1.458081070576803 -5.594018999730245 -0.37173900719902964 0.4785872028021314 0.26160967349584374 2.853583968852964 -0.45772453865345414 0.03276424899944027
5.0962138175964355 -1.1878714126399537 1.1639583746539515 4.96570514419631 -1.4580567518817347 -5.594018999730245 -0.3717496317585411 0.4785947545928069 0.2615638730561233 2.8535191783796177 -0.45772310852830184 0.032778491187681516
5.096225738525391 -1.1879435342601319 1.1639698187457483 4.96570514419631 -1.4580329100238245 -5.5940426031695765 -0.3717578733000993 0.4785781358448779 0.2616018157905342 2.8535675732785726 -0.4576779620015808 0.03270171317748687
5.096250057220459 -1.1878834527781983 1.1639698187457483 4.965753304749288 -1.4581049124347132 -5.594006840382711 -0.371746731835938 0.47856833607536947 0.26156302067932746 2.853508514937036 -0.4576820455765639 0.0328826323394459
5.0962138175964355 -1.187907413845398 1.1639698187457483 4.96570514419631 -1.4581287542926233 -5.594018999730245 -0.37172752733243786 0.47859562727147786 0.26157778525983977 2.85357730928562 -0.45771815498908736 0.03285043263097553
5.0962138175964355 -1.1879194539836426 1.1639583746539515 4.965717303543844 -1.458069149647848 -5.5940426031695765 -0.37174311493956397 0.478588168937632 0.26159111935738105 2.8535617875273314 -0.4576904077468705 0.03276317154722415
5.096261978149414 -1.1878834527781983 1.1639583746539515 4.965692984848776 -1.458092991505758 -5.594030682240621 -0.3717638004922935 0.47858286117139914 0.26157015904345626 2.8535727377910924 -0.45763591891247773 0.03281264246362995
5.096250057220459 -1.1878834527781983 1.1639459768878382 4.965717303543844 -1.458081070576803 -5.5940426031695765 -0.3717599255407529 0.4785826158646687 0.26157501459190563 2.85355606190008 -0.4576363697244615 0.032802143081360424
5.0962018966674805 -1.187907413845398 1.1639459768878382 4.965717303543844 -1.4581049124347132 -5.5940426031695765 -0.37172953110728196 0.4786007416190906 0.26158825017278486 2.85357756485143 -0.4577042831872122 0.03280547785397117
5.0962018966674805 -1.187895492916443 1.1639583746539515 4.965729224472799 -1.4580448309527796 -5.594018999730245 -0.37174352677190764 0.47858896435446635 0.26157752033183673 2.8535102126220453 -0.4577412508535183 0.03276136098271903
5.096225738525391 -1.187907413845398 1.1639459768878382 4.96570514419631 -1.4581049124347132 -5.594018999730245 -0.37174232633465576 0.4785953116385201 0.2615886364312754 2.8535886035122546 -0.4577046573824445 0.03280518493190117
5.0962018966674805 -1.1878714126399537 1.1639459768878382 4.965692984848776 -1.4580567518817347 -5.594006840382711 -0.3717466798953858 0.4786060195711042 0.2615695181499117 2.8535349615326138 -0.4577588340333428 0.03276042390279979
5.0962138175964355 -1.187895492916443 1.1639698187457483 4.965729224472799 -1.458081070576803 -5.594030682240621 -0.3717381474061351 0.47858507717857435 0.26157154420301687 2.8535242487796864 -0.45770371280100874 0.03281518951524993
5.096225738525391 -1.187907413845398 1.1639459768878382 4.965789305954733 -1.458081070576803 -5.594018999730245 -0.3717392037892265 0.4785691273432114 0.2615867016486676 2.853503381730188 -0.45770229700131443 0.032837376809027694
5.096225738525391 -1.1878834527781983 1.1639812628375452 4.965729224472799 -1.458092991505758 -5.594030682240621 -0.37173980245675275 0.47857982419566275 0.2615592996756865 2.8535128380738137 -0.4576843141317493 0.03284961938980662
5.0962138175964355 -1.1878714126399537 1.163933579121725 4.965729224472799 -1.458069149647848 -5.594030682240621 -0.3717462679436443 0.4785960171177466 0.2615732424367432 2.8535286845312866 -0.4577055023352773 0.032791311574304996
5.096238136291504 -1.187895492916443 1.1639698187457483 4.965729224472799 -1.458069149647848 -5.594030682240621 -0.3717530163945734 0.4785748251651651 0.2615719131698775 2.853523935269885 -0.4576701022547335 0.03280471911075083
5.096238136291504 -1.1878834527781983 1.1639698187457483 4.96570514419631 -1.458081070576803 -5.5940426031695765 -0.3717529722125967 0.47858394111291064 0.26156528741667834 2.853543114855643 -0.45765261306925703 0.03280860138509927
5.096238136291504 -1.187907413845398 1.1639812628375452 4.965717303543844 -1.458069149647848 -5.594006840382711 -0.37175267031958664 0.47857395691533156 0.26157438914907344 2.853529452915177 -0.45770479919401247 0.03279993366510886
5.096238136291504 -1.1878594917109986 1.1639459768878382 4.965717303543844 -1.458069149647848 -5.594030682240621 -0.3717583349079799 0.4785880365810402 0.26156141009927947 2.853523742718327 -0.4576700671677729 0.03280492421959294
5.096238136291504 -1.187907413845398 1.1639459768878382 4.96570514419631 -1.458081070576803 -5.594030682240621 -0.3717547208716287 0.4785882793843319 0.26158937425499 2.8535819175211947 -0.4576724013109242 0.0327754871707363
5.096273899078369 -1.1879194539836426 1.1639936606036585 4.965692984848776 -1.458069149647848 -5.594006840382711 -0.37177074130255017 0.4785630210341587 0.26157692384901476 2.853558752632208 -0.4576550795614721 0.03278880511113952
5.096297740936279 -1.1879314941218873 1.163933579121725 4.96570514419631 -1.4581049124347132 -5.594006840382711 -0.37177726572932435 0.4785697318710478 0.2616079385618558 2.8536346760604268 -0.45762149789183526 0.032793623595129114
5.096250057220459 -1.1879435342601319 1.163933579121725 4.965729224472799 -1.458081070576803 -5.593994919453756 -0.3717577197199873 0.47857713085432785 0.26161493263207436 2.85359804625033 -0.45770800224492214 0.032766117240608045
5.096273899078369 -1.187919483785965 1.163933579121725 4.965753304749288 -1.4581049124347132 -5.594030682240621 -0.3717608141784158 0.47856610246169773 0.26159940444866225 2.8535820491403268 -0.45761818909363017 0.03282927572774905
5.096273899078369 -1.187919483785965 1.1639097372638147 4.965681063919821 -1.4581168333636683 -5.594018999730245 -0.37176844359330996 0.4785942477683237 0.26161144485483967 2.8536689191428652 -0.45763904532458455 0.032775487492871194
5.096310138702393 -1.1878955227187653 1.1639583746539515 4.96570514419631 -1.4580448309527796 -5.594018999730245 -0.371798069557926 0.47855551872974483 0.26157830244315217 2.8535568895950427 -0.45758825056334995 0.032763371063927876
5.096358299255371 -1.1879317325404664 1.163922135029928 4.965729224472799 -1.4581049124347132 -5.594030682240621 -0.3718047586601541 0.47854353519889803 0.26161216701855916 2.8536435529131294 -0.45750053407244595 0.03280945386258845
5.096381664276123 -1.1879317623427887 1.1638858954059046 4.965765225678243 -1.458069149647848 -5.594078604375021 -0.3718255313243373 0.47853098297866736 0.2616275201523639 2.8536415207831944 -0.457402145185915 0.0327599871568434
5.096357822418213 -1.1880156856826325 1.163922135029928 4.96570514419631 -1.458081070576803 -5.594018999730245 -0.37181063370439416 0.4785403705018396 0.2616626294034705 2.8537223015165294 -0.45752607114692595 0.03270191601797319
5.096394062042236 -1.188040093784668 1.1638615767108362 4.965729224472799 -1.458092991505758 -5.594018999730245 -0.3718277881114187 0.4785356699286727 0.2617014198907923 2.8537897536103007 -0.45747701696009724 0.03267846119418149
5.096393585205078 -1.1880521339229126 1.1638253370868128 4.96570514419631 -1.4580567518817347 -5.594030682240621 -0.3718436799484418 0.4785477874637767 0.2617257050724813 2.8538363747511317 -0.45746827139543444 0.032577504258464195
5.096405506134033 -1.188124106531479 1.1638858954059046 4.965729224472799 -1.4580448309527796 -5.5940426031695765 -0.3718405237382147 0.4785121223480371 0.26174158697931277 2.853824722251426 -0.4574346051093855 0.03257188247719236
5.096393585205078 -1.1881245535663147 1.1637776533709925 4.965717303543844 -1.4580567518817347 -5.5940545240985315 -0.3718448817323568 0.4785507622749433 0.2617877842124262 2.8539351219842843 -0.457440484245987 0.032493414117803564
5.0964179039001465 -1.188221053486206 1.1637771765338343 4.96570514419631 -1.458069149647848 -5.594018999730245 -0.3718510269464001 0.478537658784813 0.2618442689149943 2.8540340158819872 -0.4574616500283003 0.032439236881517515
5.096429824829102 -1.1883416038802643 1.1637285391436976 4.965741145401754 -1.458069149647848 -5.5940426031695765 -0.3718535348520053 0.47852528398428723 0.2619340623997428 2.8541573837886434 -0.4574187463719486 0.032338669193208575
5.0964179039001465 -1.1884863835624238 1.1636808554278772 4.965729224472799 -1.4580567518817347 -5.594018999730245 -0.37185244323803934 0.4785315311887311 0.26203949829656475 2.8543200932562223 -0.45748221198780964 0.032174309298452525
5.096369743347168 -1.1886915129474183 1.1636336485492151 4.965717303543844 -1.458081070576803 -5.594006840382711 -0.37182175966722764 0.47854926403302434 0.262178794312808 2.8545473633925043 -0.4575812053765923 0.03200294436999507
5.096393585205078 -1.1889083844474335 1.1635740439044397 4.96570514419631 -1.4581049124347132 -5.593994919453756 -0.37182660620535984 0.47854251849961094 0.2623302287444508 2.854812666117018 -0.4575786506252082 0.03182601332933174
5.096393585205078 -1.1892582339099427 1.1635378042804163 4.965741145401754 -1.4581049124347132 -5.594018999730245 -0.3718134734581645 0.4785098604923735 0.2625484777184849 2.8551211679879387 -0.4575644048611394 0.031562818914653644
5.096381664276123 -1.1896316868117829 1.1634295622455042 4.965717303543844 -1.458069149647848 -5.594030682240621 -0.37181815826099673 0.4785123002257814 0.2628141145759354 2.8555404722965982 -0.4575966544104101 0.031140106135818763
5.096381664276123 -1.1901018184474488 1.163405720387594 4.965729224472799 -1.4580567518817347 -5.594006840382711 -0.37180518848895183 0.4784704074593937 0.2630983892016313 2.8559463327575756 -0.4576593312163953 0.030772420425930876
5.096357822418213 -1.190777764921524 1.1633461157428187 4.965729224472799 -1.4581049124347132 -5.594018999730245 -0.3717619000206708 0.4784372772123822 0.2635163676294186 2.8566049845560957 -0.45771377278619685 0.030282118716033132
5.096369743347168 -1.1916334193995972 1.163286034260885 4.96570514419631 -1.458092991505758 -5.5940545240985315 -0.37174788680751997 0.4783744736773985 0.26404195447277146 2.857423264407412 -0.4577004079947077 0.029567530491086753
5.096345901489258 -1.1927060347846528 1.163201634083883 4.965717303543844 -1.458092991505758 -5.594006840382711 -0.3717036425027142 0.4783015883287831 0.26470275707688207 2.8583981038856976 -0.45786783693524247 0.02872419764209174
5.096309185028076 -1.1940186780742188 1.1631429831134241 4.965741145401754 -1.458092991505758 -5.5940545240985315 -0.3716396143906483 0.47819959849865096 0.2654920078451005 2.859566050970249 -0.4579286782851822 0.02771084380951973
5.096297740936279 -1.1956693095019837 1.163142506276266 4.96570514419631 -1.458081070576803 -5.594030682240621 -0.3715778892861486 0.4780545794454696 0.2664556357945873 2.8610116392820615 -0.4580755518490998 0.026447418134105744
5.096322059631348 -1.197556124334671 1.1630943457232874 4.965729224472799 -1.458069149647848 -5.593982998524801 -0.37152177397423886 0.47786774494522116 0.26757485642648765 2.8626533247138757 -0.45821820838123345 0.025027242408600818
5.096322059631348 -1.199760065679886 1.162997070943014 4.965729224472799 -1.458092991505758 -5.5940426031695765 -0.371439044912371 0.4776803647511648 0.2688991329545981 2.864668281587266 -0.4582607576503321 0.023337304969391577
5.096333980560303 -1.2021761995605011 1.1629388968097132 4.96570514419631 -1.458092991505758 -5.594006840382711 -0.37135732780280495 0.47745842659247717 0.2703313737003523 2.8668220378562146 -0.45843539752536 0.021487656503842573
5.096297740936279 -1.204968438749649 1.162903134022848 4.965729224472799 -1.458081070576803 -5.594030682240621 -0.37123131527292497 0.47719219498023885 0.2719708474724897 2.8692343239198412 -0.458611322681309 0.019374294759379032
5.096309661865234 -1.2081074577621003 1.162891689931051 4.965717303543844 -1.4580567518817347 -5.594018999730245 -0.37111703128165474 0.4768704522810622 0.27380238821746083 2.8719515912129134 -0.45878933826856555 0.0169894544222625
5.096309661865234 -1.2115780276111145 1.1628668943988245 4.96570514419631 -1.4581168333636683 -5.594030682240621 -0.37095950681162587 0.4765252227971809 0.27582864785748973 2.875010875713598 -0.4589633204098023 0.014442955309086751
5.096297740936279 -1.2153038841537018 1.1628301779376429 4.965717303543844 -1.458069149647848 -5.594018999730245 -0.37081034505304383 0.47613579448618165 0.2780093565661189 2.878213510981862 -0.459208366324033 0.011576447438323851
5.096309661865234 -1.219379023914673 1.162844483052389 4.965765225678243 -1.458081070576803 -5.594030682240621 -0.3706285758425095 0.47567452125722054 0.2803656673564201 2.8816814131039625 -0.4593949212000832 0.008582704814471846
5.096273899078369 -1.2238584023765107 1.1628192106830042 4.965753304749288 -1.4581168333636683 -5.594018999730245 -0.3704068858959977 0.47520648803360027 0.2829731811958678 2.885575948146831 -0.4597087486691315 0.0052304748112860025
5.096309661865234 -1.228641079073288 1.1628196875201624 4.96570514419631 -1.4581049124347132 -5.594018999730245 -0.3702151983596409 0.4746651002206004 0.2857458479647418 2.8897310718015996 -0.4599210530899703 0.001583702045992577
5.096309661865234 -1.233765111570694 1.162772003804342 4.965741145401754 -1.458092991505758 -5.594066683446066 -0.36998091754055984 0.47407343512296957 0.2887304680862145 2.8941468924422535 -0.46013117776246915 -0.002315855873793432
5.096322059631348 -1.2390407484820862 1.162772003804342 4.96570514419631 -1.458092991505758 -5.594018999730245 -0.3697394927507511 0.47345409320680365 0.291781498461303 2.8986960983445256 -0.46046790320556136 -0.00632674347018852
5.096345901489258 -1.2445110541633149 1.1627958456622522 4.965753304749288 -1.458069149647848 -5.594030682240621 -0.3694823407390013 0.47275968581487054 0.29492746322509406 2.903318272662289 -0.4607061000893972 -0.010451865833199701
5.096322059631348 -1.2502305966666718 1.162772003804342 4.965753304749288 -1.458081070576803 -5.593971077595846 -0.36918416426973877 0.47206471238510705 0.2982352572713217 2.9082218355819274 -0.46113148561019873 -0.014802182007729862
5.096309661865234 -1.2561776500991364 1.1628311316119593 4.96570514419631 -1.458092991505758 -5.5940426031695765 -0.3688697086698875 0.4713116078421739 0.30163532342561455 2.913317737296925 -0.4613573194178745 -0.01932933943028802
5.096322059631348 -1.2624434393695374 1.1628082434283655 4.965753304749288 -1.4580567518817347 -5.594018999730245 -0.36855266306579276 0.47047669854826996 0.3052463392584267 2.9186247547834343 -0.46170097218133677 -0.024147190216653822
5.096297740936279 -1.2687430840781708 1.162783447896139 4.965765225678243 -1.4581287542926233 -5.593994919453756 -0.36818304900371646 0.46965154141448884 0.3088705681476702 2.924035161364604 -0.46209653855967125 -0.0289027848117836
5.096333980560303 -1.2751571995070954 1.1628196875201624 4.965741145401754 -1.458081070576803 -5.594030682240621 -0.36785738743255125 0.4687499712186634 0.3125330618655488 2.9294788254999746 -0.46232105148761066 -0.033894418930828105
5.096322059631348 -1.2818372708610077 1.1627605597125452 4.965741145401754 -1.458081070576803 -5.5940426031695765 -0.3674785786639776 0.46782728385073263 0.3163813751839619 2.9352105885148023 -0.46266393562602337 -0.03910517170751672
5.096345901489258 -1.2886143785766144 1.1627958456622522 4.965765225678243 -1.458081070576803 -5.5940426031695765 -0.3670895362617056 0.4668246148630917 0.32023420717331963 2.940920774420726 -0.4629673648048984 -0.044310650834176776
5.096357822418213 -1.2955056887916108 1.1627958456622522 4.9657771466071985 -1.4580567518817347 -5.5940426031695765 -0.36668945899715627 0.4657940868049065 0.32416217602177483 2.9467439090682883 -0.463293240361798 -0.04969201127940982
5.096309661865234 -1.3025562030128022 1.162783447896139 4.965741145401754 -1.4581049124347132 -5.594006840382711 -0.36622840349578556 0.46475975733696967 0.32817945333327003 2.9527611721834215 -0.4637673555430924 -0.0551734422618104
5.096309661865234 -1.3096367877772828 1.1627958456622522 4.965741145401754 -1.458092991505758 -5.594018999730245 -0.3657872002662766 0.4636549262963795 0.3321938286227385 2.958732993657048 -0.46409520024243633 -0.060726909338042374
5.096322059631348 -1.3167677980712433 1.162772003804342 4.965753304749288 -1.458092991505758 -5.594006840382711 -0.365336492262996 0.4625170603006341 0.33624358589135006 2.964761217608846 -0.4644405773735883 -0.06633919180612331
5.096322059631348 -1.323963777428009 1.1627472082721155 4.965753304749288 -1.458069149647848 -5.5940426031695765 -0.36487274528940195 0.4613472462272472 0.3403233080125049 2.9708420073862913 -0.4647330106015124 -0.07206991118418755
5.096333980560303 -1.3311822724393387 1.162783447896139 4.965753304749288 -1.4580567518817347 -5.594018999730245 -0.3643935771317591 0.4601301236856473 0.34437801502692084 2.976874086626875 -0.46508986635380134 -0.07776860661108152
5.096309661865234 -1.3384384673884888 1.162783447896139 4.9657771466071985 -1.4580567518817347 -5.593994919453756 -0.3638813296534897 0.4588951445286515 0.34845889254155404 2.982937213641146 -0.46550053140710146 -0.08351513000644205
5.096345901489258 -1.3457091015628357 1.1627357641803187 4.965741145401754 -1.458081070576803 -5.5940426031695765 -0.3633888304621864 0.4576371128517889 0.35256416831216114 2.989136923186259 -0.46571607474083737 -0.08934918986027299
5.096333980560303 -1.353077159529068 1.1628311316119593 4.965753304749288 -1.458092991505758 -5.594030682240621 -0.3628421574198503 0.45630738072893356 0.35664380814147245 2.9952154535176088 -0.4660840230556141 -0.09514439691184015
5.096345901489258 -1.3603461694768448 1.162783447896139 4.9657771466071985 -1.4580567518817347 -5.5940426031695765 -0.36232587900515734 0.454980272977271 0.36072492821677693 3.0012951096099547 -0.4663764402672261 -0.10104859384381976
5.096309661865234 -1.3675547552159806 1.162772003804342 4.965753304749288 -1.458081070576803 -5.594030682240621 -0.3617671848092459 0.45366657087617723 0.36474714270920516 3.007340917695818 -0.4667731533017794 -0.10685797638661342
5.096322059631348 -1.3746412259391327 1.1628311316119593 4.965753304749288 -1.458069149647848 -5.594006840382711 -0.36123068969697764 0.4523075211478423 0.3686569740543504 3.013182571637089 -0.4670994487703957 -0.11255525640565463
5.096322059631348 -1.3817261469415207 1.1627958456622522 4.965765225678243 -1.4581168333636683 -5.5940545240985315 -0.36066840262453126 0.4509491603355035 0.3725971527398888 3.019131425737085 -0.4673402891486211 -0.11826681498761026
5.096357822418213 -1.3887464863112946 1.1628082434283655 4.965765225678243 -1.458081070576803 -5.594006840382711 -0.36013694978083327 0.44954999358381004 0.37647230624538597 3.024921627058471 -0.4676572009680066 -0.124016379811015
5.096309661865234 -1.3956559312394639 1.1628082434283655 4.9657771466071985 -1.458092991505758 -5.593994919453756 -0.35955347222995454 0.4481825132689352 0.3802791126524556 3.030630187515284 -0.4680424079109143 -0.12964115064475734
5.096322059631348 -1.402353749876358 1.162772003804342 4.965765225678243 -1.458081070576803 -5.594018999730245 -0.3590165356247526 0.44682286678283034 0.3839796693466677 3.036212095502591 -0.46826953665502125 -0.13518996382105752
5.096309661865234 -1.408886508350708 1.1628196875201624 4.9657771466071985 -1.458069149647848 -5.594018999730245 -0.35846439323916846 0.4454619166933766 0.38753753964508175 3.0415480622365463 -0.46855591033333754 -0.1405324560371461
5.096333980560303 -1.415197343831398 1.162783447896139 4.965801226883688 -1.4580567518817347 -5.5940426031695765 -0.35794372522117707 0.44412508290938324 0.3910035613140991 3.046764883181068 -0.46874100535596047 -0.14576785259098346
5.096297740936279 -1.4212492865375062 1.1628196875201624 4.965753304749288 -1.4581049124347132 -5.594006840382711 -0.35739681652048766 0.4428583750160448 0.39428999268862575 3.051766402357907 -0.4691002380070821 -0.15072558590731644
5.096322059631348 -1.4270989161780854 1.1628196875201624 4.965741145401754 -1.458069149647848 -5.594030682240621 -0.35690826558658795 0.4415833424051256 0.3974745601337425 3.056574866203232 -0.4692579623876159 -0.15563989496771571
5.096333980560303 -1.432765693669655 1.162783447896139 4.965765225678243 -1.458069149647848 -5.594018999730245 -0.356412483827366 0.4403362537619863 0.40056461255432085 3.0612339754747 -0.469482157963627 -0.1603685471614693
5.096309661865234 -1.43818353236232 1.1627958456622522 4.965753304749288 -1.458092991505758 -5.594030682240621 -0.3559108004776399 0.43914544106808895 0.40349194804780547 3.0656856491114897 -0.4697160788837296 -0.1648625577878192
5.096322059631348 -1.4434063148549576 1.162783447896139 4.965765225678243 -1.458081070576803 -5.594030682240621 -0.3554457864128305 0.4379648601725288 0.4063176093868591 3.069955277102629 -0.4698979297427804 -0.16925116506064403
5.096309661865234 -1.4484368202141304 1.162844483052389 4.965813147812643 -1.4581049124347132 -5.593994919453756 -0.3549638533732791 0.43680574283632373 0.4089923558597187 3.0739782402350513 -0.47016300632762553 -0.17335068823327282
5.096309661865234 -1.453230471616127 1.1628082434283655 4.965789305954733 -1.458069149647848 -5.594030682240621 -0.35453435646134096 0.43571275185191566 0.41159067161015994 3.0779294016731242 -0.4702882176867209 -0.17748233227381816
5.096285820007324 -1.457829163675644 1.1628311316119593 4.965813177614965 -1.4581049124347132 -5.593994919453756 -0.3540801186999766 0.43464789469452175 0.4140424637050919 3.0816456730207955 -0.4705550915944867 -0.18127441228996583
5.096297740936279 -1.4620726567557831 1.1627958456622522 4.9657771466071985 -1.458081070576803 -5.593994919453756 -0.35369695509358046 0.43366199129538646 0.41633601869695885 3.0851469774207154 -0.4706941320189291 -0.18495247259894967
5.0963215827941895 -1.466025986974575 1.1628559271441858 4.965789305954733 -1.458069149647848 -5.5940426031695765 -0.35332876106035294 0.43270548382465257 0.41841772237134 3.0883145646037504 -0.47072541470464635 -0.18825566161905105
5.096285820007324 -1.469587357049324 1.1628311316119593 4.965789305954733 -1.458069149647848 -5.594018999730245 -0.3529728737131059 0.4318737838997101 0.4203290983037734 3.091214798150495 -0.4709482772313161 -0.19129878028684746
5.096285820007324 -1.4727689188769837 1.1627958456622522 4.965801226883688 -1.4581049124347132 -5.5940426031695765 -0.3526565661558631 0.43111693084830055 0.42203781234765964 3.09384389150762 -0.4710330373094553 -0.19397613326554877
5.096297740936279 -1.4755591985634346 1.1628196875201624 4.965837228089132 -1.4580567518817347 -5.594018999730245 -0.35239785447207456 0.4304210515280092 0.4235068743085627 3.096025367694767 -0.47114285933517586 -0.196363315048967
5.096285820007324 -1.4778538581779976 1.1627958456622522 4.965741145401754 -1.4580448309527796 -5.594018999730245 -0.3521831014671615 0.42989610503717857 0.424748680641473 3.0979733614018654 -0.47124588458453837 -0.19843678365109424
5.096285820007324 -1.479766146545746 1.1627958456622522 4.965789305954733 -1.458069149647848 -5.594006840382711 -0.3519836828154756 0.4294203252604681 0.42575658829241775 3.0994936851022197 -0.471334566908121 -0.1999953911753533
5.096250057220459 -1.481223115032055 1.1628196875201624 4.965753304749288 -1.458092991505758 -5.5940545240985315 -0.3518207510550201 0.42908528884828834 0.4265205697932759 -3.098366364533844 0.4710166507159067 0.20106700806055727
5.096261978149414 -1.4822121498039742 1.1628673712359827 4.965801226883688 -1.4581049124347132 -5.594030682240621 -0.3517170849442868 0.42882048449294735 0.4270149059138722 -3.0975701852672266 0.47083708547165976 0.2017151029806659
5.096285820007324 -1.4826933082989235 1.162844483052389 4.965789305954733 -1.458081070576803 -5.594018999730245 -0.35168870164586163 0.42869790790083323 0.4272830977091732 -3.0971288488227096 0.4707043493379949 0.2021315613717936
5.096322059631348 -1.4826901716044922 1.1627958456622522 4.965789305954733 -1.4580448309527796 -5.594030682240621 -0.35171712636092856 0.42868911467976933 0.42730651374500406 -3.0971168630570207 0.47062081769896746 0.2022154296911646
5.096309661865234 -1.4826519203237076 1.1628673712359827 4.965765225678243 -1.458081070576803 -5.594018999730245 -0.35170420164553984 0.42870259862139554 0.42725279512539016 -3.097171556665864 0.47067644667589803 0.20210178816345625
5.096249580383301 -1.482507811193802 1.162879769002096 4.965753304749288 -1.4581049124347132 -5.5940426031695765 -0.3516868471303702 0.428763013145686 0.42717106274776295 -3.097275456884153 0.4707638414477653 0.20196098175339877
5.096285820007324 -1.482412965302803 1.162844483052389 4.965837228089132 -1.458081070576803 -5.594006840382711 -0.3517113861582496 0.4287541787146844 0.42712896686425994 -3.097417262442754 0.4707963845353839 0.20188780554627828
5.096237659454346 -1.4823535171202202 1.1629036108600062 4.965789305954733 -1.4581049124347132 -5.594006840382711 -0.3516917834053159 0.42879212280323775 0.4270733542357982 -3.0974552500437116 0.47088558438699774 0.20180207692491292
5.096285820007324 -1.4824138444713135 1.1628559271441858 4.965765225678243 -1.4580448309527796 -5.5940545240985315 -0.351727910069634 0.42876710139850227 0.4271335240697639 -3.0973865752461838 0.47070859761946443 0.20198295523052828
5.096273899078369 -1.482487217789032 1.1628559271441858 4.965789305954733 -1.458092991505758 -5.594030682240621 -0.3517001172092219 0.4287523076368437 0.4271679787794773 -3.0973147317947505 0.4707526102166257 0.20195335602175088
5.096273899078369 -1.482534610932209 1.1628673712359827 4.965789305954733 -1.458069149647848 -5.594030682240621 -0.35170112638412626 0.42873635626234874 0.42718819773682937 -3.0972930967557644 0.47074493464294737 0.20201292196117784
5.096261978149414 -1.4825458464077492 1.1628311316119593 4.965813147812643 -1.4581049124347132 -5.594030682240621 -0.35168497308052266 0.4287408568011931 0.4272080000829065 -3.097253341285699 0.4707577058413136 0.2019811849232697
5.096273899078369 -1.4825458091548462 1.1628196875201624 4.9657771466071985 -1.458081070576803 -5.594006840382711 -0.3517009422520294 0.4287451469534908 0.4272186534609266 -3.0972210220653444 0.47076616337206095 0.20204938630849498
5.096297740936279 -1.4825099271586915 1.1628673712359827 4.965765225678243 -1.4581049124347132 -5.5940426031695765 -0.3517067650445668 0.42874427071601917 0.427176862279135 -3.0972875430304696 0.47068921445155865 0.20196321585052696
5.096285820007324 -1.4825098526528855 1.162844483052389 4.965825068741598 -1.458092991505758 -5.593994919453756 -0.35169989503956006 0.4287349001351645 0.4271813341146097 -3.0973136223424422 0.4707905371523428 0.20195246304490522
5.096297740936279 -1.4824977231076737 1.1628311316119593 4.965837228089132 -1.458081070576803 -5.593982998524801 -0.3517089043923361 0.4287311618809153 0.427180410074823 -3.0973298942097944 0.4707934260796078 0.20196092226026752
5.096297740936279 -1.4825338137200852 1.1628559271441858 4.965789305954733 -1.458069149647848 -5.5940426031695765 -0.35171210629222643 0.4287298573098245 0.42719340523295046 -3.097292842897147 0.4706873167391464 0.202020900278055
5.096309661865234 -1.4825465318611641 1.1628311316119593 4.965825068741598 -1.4581049124347132 -5.5940545240985315 -0.35170409106569533 0.42872080140193786 0.4272069433941652 -3.097281627426785 0.4706497145989257 0.20197300408406849
5.096322059631348 -1.482557975952961 1.1628311316119593 4.965801226883688 -1.458069149647848 -5.593982998524801 -0.3517203551528866 0.428715920156659 0.4272169756580821 -3.0972570698790407 0.470734632123916 0.20204893792354228
5.096309661865234 -1.4825574991158028 1.162844483052389 4.965837228089132 -1.4581168333636683 -5.594030682240621 -0.3516977417863383 0.42871427348541147 0.4272043561840226 -3.0972853129968425 0.4706899705580207 0.20194594518355033
5.096345901489258 -1.482533761566021 1.1628559271441858 4.9657771466071985 -1.4580567518817347 -5.594066683446066 -0.351737358065289 0.42871474217183775 0.42719521881989075 -3.0973059464125643 0.4705730981797987 0.20204709198948168
5.096345901489258 -1.482558624153473 1.1628311316119593 4.965849149018087 -1.458081070576803 -5.5940426031695765 -0.35172226713515514 0.4286961605265822 0.42721123393491034 -3.097311183902678 0.47061560291267285 0.20199728251893492
5.096333980560303 -1.4826060098460694 1.1628196875201624 4.965813147812643 -1.458081070576803 -5.594030682240621 -0.3517169445206154 0.4286998268098169 0.42724623830840447 -3.09722164917438 0.47063133283105907 0.20206766692408468
5.096297740936279 -1.482569509451725 1.1627958456622522 4.965765225678243 -1.4580448309527796 -5.593994919453756 -0.35172118466958463 0.42873358427654357 0.42724549965103875 -3.0971889297957675 0.47073530732634716 0.20214367803352803
5.096249103546143 -1.4825819295695801 1.1628196875201624 4.9657771466071985 -1.458081070576803 -5.594006840382711 -0.35168673704121356 0.428745001934014 0.4272377773694117 -3.0971816469986 0.4707963032664622 0.20207607879276737
5.096041202545166 -1.4826058906367798 1.1628196875201624 4.965789305954733 -1.458081070576803 -5.594018999730245 -0.3515939410618017 0.42880904719647506 0.4272490149828764 -3.0971111587424534 0.47109473454655965 0.2020835617512165
5.09574031829834 -1.4825818476131936 1.1628559271441858 4.965789305954733 -1.4581168333636683 -5.5940426031695765 -0.3514555637223828 0.42891930627255653 0.42721732438939386 -3.097063359031907 0.47153385287580324 0.20198758156780613
5.09531831741333 -1.48250965893779 1.162879769002096 4.965753304749288 -1.4580567518817347 -5.594006840382711 -0.35130010864642325 0.4290845851991516 0.42717356831140685 -3.097009641646014 0.47225295061701394 0.2020234272066823
5.0948991775512695 -1.4825700682452698 1.1627958456622522 4.965789305954733 -1.458069149647848 -5.594030682240621 -0.35111213445862743 0.4292213065222126 0.42724215589176473 -3.096786963858548 0.4728367518173792 0.2020841631947145
5.094442844390869 -1.482618348007538 1.1628082434283655 4.965729224472799 -1.4580567518817347 -5.594018999730245 -0.35092036943451044 0.4293821527615683 0.4272691687789616 -3.096568395177432 0.47353560174686804 0.2021696140511376
5.093888759613037 -1.482569770222046 1.1628196875201624 4.965753304749288 -1.458092991505758 -5.594030682240621 -0.3506742772728876 0.42958444342686375 0.42723380143366496 -3.0964630124157093 0.4743882439903538 0.2020539023167528
5.093153953552246 -1.4825694796494027 1.1628082434283655 4.965753304749288 -1.458092991505758 -5.5940545240985315 -0.35035922365564476 0.42984376881723757 0.4272392774339699 -3.09623623128968 0.47547909164884233 0.20205752668510973
5.092154026031494 -1.482606218462326 1.1628082434283655 4.965729224472799 -1.458081070576803 -5.594030682240621 -0.3499313456552697 0.4301898592132047 0.4272619755143534 -3.0958818115407953 0.4770408560997894 0.20211291199702916
5.0908284187316895 -1.482679383163788 1.162844483052389 4.965729224472799 -1.4580329100238245 -5.594030682240621 -0.3493644224412662 0.43062474608564044 0.4272844109806503 -3.0954686976376835 0.4790720487631711 0.20219836295404867
5.089106559753418 -1.4826903131655236 1.1628082434283655 4.965729224472799 -1.458081070576803 -5.594018999730245 -0.3486105583588006 0.43123356020495673 0.4273064987609395 -3.0948817129940567 0.4817267868024742 0.20215584374884424
5.087064266204834 -1.4827382054976006 1.1628311316119593 4.965789305954733 -1.4580448309527796 -5.5940545240985315 -0.34772670499547065 0.4319097570930361 0.42731458405507555 -3.0943115555278746 0.48481997590431464 0.20216671651495224
5.084718227386475 -1.4827140060118218 1.162783447896139 4.965729224472799 -1.4580567518817347 -5.594018999730245 -0.34672049710907493 0.4327544474164257 0.42733201246733954 -3.0935066221094645 0.48846178448229205 0.20219634078551282
5.082001209259033 -1.4827747282436867 1.1628196875201624 4.96570514419631 -1.4581049124347132 -5.593982998524801 -0.34552503996852946 0.4336859820721803 0.42734767338606505 -3.0925982723560415 0.4926805206927039 0.2021472117818498
5.078876495361328 -1.4828601118973275 1.162783447896139 4.965789305954733 -1.458081070576803 -5.594018999730245 -0.34416010672193825 0.4347231290170886 0.4274014290808324 -3.0916104202205172 0.4974159821563906 0.20218579928729397
5.075470447540283 -1.482980230157711 1.162772003804342 4.965765225678243 -1.458069149647848 -5.5940426031695765 -0.3426724125528059 0.43586988454463826 0.4274738942881078 -3.0904146720238375 0.5025725916825973 0.2022911348751194
5.071770191192627 -1.4831748989275475 1.1627958456622522 4.965729224472799 -1.4580329100238245 -5.594030682240621 -0.34105116050853335 0.4370887743468212 0.4275706500162868 -3.089074694175492 0.5082214910078868 0.2024639947368709
5.067653179168701 -1.483439901178219 1.162772003804342 4.965692984848776 -1.458069149647848 -5.594006840382711 -0.33921944048978186 0.4384401573461977 0.4277258168665182 -3.0874531876785887 0.5144956087336452 0.20261681310653454
5.063175201416016 -1.4838981938413163 1.162783447896139 4.965741145401754 -1.458081070576803 -5.593994919453756 -0.33720251063421347 0.4398273433453126 0.42795657339997606 -3.0856486855212575 0.5212829458153372 0.20285048905790526
5.058482646942139 -1.4842928659966965 1.1627958456622522 4.965717303543844 -1.4580567518817347 -5.594030682240621 -0.33510762764802726 0.44130828739413963 0.4281628985867303 -3.083776227717995 0.5283177012977519 0.20313367047159805
5.0535383224487305 -1.4846539136818429 1.1627605597125452 4.965729224472799 -1.458069149647848 -5.593994919453756 -0.3328868981348797 0.44287267804257113 0.4283694299859841 -3.0817932700479003 0.5358474492842533 0.2033447987534353
5.048274993896484 -1.4850743573955079 1.162783447896139 4.965741145401754 -1.4580567518817347 -5.5940545240985315 -0.33051562095399256 0.44450526719984607 0.4285794819794363 -3.079713246733567 0.543710313789508 0.2035831495377598
5.042701244354248 -1.4855918523720284 1.1627958456622522 4.965729224472799 -1.458069149647848 -5.594018999730245 -0.3279854266239475 0.44621277671496934 0.4288480289968541 -3.077359976156861 0.5521544123187223 0.20387266796212186
5.036839008331299 -1.4860588622144242 1.162783447896139 4.965765225678243 -1.4580567518817347 -5.594066683446066 -0.3253252007449544 0.4480009627572218 0.4290970655020457 -3.0749769071558437 0.5609198690175545 0.20413539556891444
5.0306901931762695 -1.486429863875248 1.162772003804342 4.965741145401754 -1.458081070576803 -5.5940545240985315 -0.322529510875893 0.4499092863505477 0.42930089309981545 -3.072473180681887 0.5702138874660397 0.20431276075634286
5.024411678314209 -1.4868005153587838 1.162772003804342 4.965741145401754 -1.458069149647848 -5.5940426031695765 -0.3196713856874529 0.4518301899934813 0.42949711953800596 -3.0699412183462416 0.5797048510166439 0.20450891391815745
5.0179762840271 -1.487051897948124 1.1627958456622522 4.965753304749288 -1.458081070576803 -5.594030682240621 -0.3167315020202293 0.45380824427499006 0.4296163390390292 -3.06745219602343 0.5894638883572781 0.2045578514645452
5.011157035827637 -1.4872420218637963 1.1627605597125452 4.965729224472799 -1.4580567518817347 -5.594030682240621 -0.3136249344346338 0.4559186540875341 0.4297378266341372 -3.0647789633811167 0.5997696266995859 0.20467129625653493
5.0041093826293945 -1.4873495709947129 1.1627243200885218 4.965765225678243 -1.4580329100238245 -5.594030682240621 -0.3104010745742373 0.4580838133143509 0.4298089097367378 -3.0621127164420763 0.6104486252475722 0.20468055952498942
4.996861457824707 -1.4874439027956505 1.1627605597125452 4.965717303543844 -1.458081070576803 -5.594030682240621 -0.3070545851546153 0.4603088284790796 0.42984512587692203 -3.059308498562857 0.6214185065216713 0.20458066005623843
4.989405632019043 -1.4873956528357049 1.1627958456622522 4.965729224472799 -1.4580448309527796 -5.594030682240621 -0.3036252632530742 0.4625862661408235 0.4298019675868844 -3.0565982463754136 0.6327482944969163 0.2044589171045284
4.981635093688965 -1.4873835754445572 1.162772003804342 4.965692984848776 -1.458081070576803 -5.594006840382711 -0.3000160549392993 0.46495102408257905 0.4298105534063631 -3.0535637221957384 0.6445381516474556 0.20432323717702658
4.973588943481445 -1.4874320042184372 1.1628082434283655 4.965717303543844 -1.458069149647848 -5.594030682240621 -0.2962620882024106 0.467324398001027 0.42981572420369973 -3.0504606408739705 0.6566755423049628 0.20420780380682968
4.965365409851074 -1.4874680501273652 1.1627605597125452 4.965765225678243 -1.4580567518817347 -5.5940545240985315 -0.29240860422924003 0.4697288217178526 0.4298528756625175 -3.04719649820493 0.6690528953574407 0.20411822368371102
4.956971645355225 -1.4874797847918053 1.1627958456622522 4.965753304749288 -1.4580567518817347 -5.593994919453756 -0.2884542810596088 0.47216149705555616 0.42984312373382594 -3.0438285177127042 0.6818124578354868 0.2039752709549453
4.948314189910889 -1.4874557641199608 1.1627472082721155 4.965717303543844 -1.458092991505758 -5.594030682240621 -0.28435125713722936 0.47466709054839984 0.42985759157935366 -3.040249045509278 0.6947842777660876 0.20381719208537105
4.9395751953125 -1.4875038352659722 1.1627114454852503 4.965765225678243 -1.4580567518817347 -5.594030682240621 -0.2801978705422327 0.4771112404495788 0.42989597579760364 -3.0366183150977655 0.7079250959655035 0.20374156902393187
4.9307756423950195 -1.4875042003444214 1.1626761595355433 4.965741145401754 -1.4580567518817347 -5.594018999730245 -0.27599134253477914 0.4795702716543288 0.4299164580558318 -3.0328679059207 0.7211478488492998 0.20362390771539182
4.921864986419678 -1.487565168445446 1.1626761595355433 4.965717303543844 -1.4580567518817347 -5.594018999730245 -0.2717051694727087 0.48200108035531475 0.42995153345945714 -3.0289937481589106 0.7344924091492085 0.20351485210746253
4.912721157073975 -1.4876865235022088 1.1626508871661585 4.965717303543844 -1.4580567518817347 -5.594018999730245 -0.26728087950302093 0.4844373962708773 0.4300280799637993 -3.024904186811972 0.7481469145566481 0.20343408097448082
4.903554439544678 -1.4878922191313286 1.162518326436178 4.96570514419631 -1.4581049124347132 -5.594006840382711 -0.2628094805067879 0.48683955198424456 0.4302019791516466 -3.0205405790377613 0.7617668364030612 0.2034006853957805
4.894387722015381 -1.488194429581501 1.1623838583575647 4.965729224472799 -1.458069149647848 -5.594030682240621 -0.25833388935896556 0.4891606438738301 0.4304260672675789 -3.016099727459371 0.7752903743172778 0.20351526468367573
4.885246753692627 -1.4887263265303154 1.1620577017413538 4.965729224472799 -1.4581049124347132 -5.5940426031695765 -0.2538257961663068 0.4914131205340112 0.4308665539826083 -3.0111829779016284 0.7886228820378705 0.20378041427421467
4.8761162757873535 -1.4893897336772461 1.1615875403033655 4.965729224472799 -1.458081070576803 -5.594018999730245 -0.24931808389052612 0.49360531854871526 0.4314493633246643 -3.0059713556641445 0.8018763195342786 0.20427687895453145
4.867095947265625 -1.490257517700531 1.1609109083758753 4.965729224472799 -1.4581049124347132 -5.594006840382711 -0.244828793523092 0.49570790934774195 0.4322404048824764 -3.0003712914055876 0.814779653714583 0.20492355434629503
4.858248233795166 -1.4912925151041527 1.1598246733294886 4.965753304749288 -1.458092991505758 -5.594030682240621 -0.24041932015108794 0.49773620076811664 0.43332013617263887 -2.9943236387062133 0.8271536511106415 0.20591399843499178
4.8495097160339355 -1.4924724486521264 1.1583035627948206 4.965765225678243 -1.458081070576803 -5.594030682240621 -0.23605140072412573 0.49972719608393384 0.4346929105182965 -2.9877339394031703 0.8391626460750305 0.20720726056207794
4.8411054611206055 -1.4938696187785645 1.1560147444354456 4.965765255480566 -1.458081070576803 -5.594018999730245 -0.2318382697945021 0.5016581901412615 0.43656161816110234 -2.9803519872425186 0.8503108601210561 0.20900453214237727
4.833047389984131 -1.4954426300576706 1.153093163167135 4.965789335757055 -1.4581049124347132 -5.594018999730245 -0.22778048792635908 0.5035072749139988 0.4388339524389895 -2.972384825471039 0.8606112374040251 0.21115353190099348
4.8252081871032715 -1.497189686899521 1.1495259443866175 4.965753334551611 -1.458092991505758 -5.594030682240621 -0.22383452758520228 0.5053251503744319 0.44152903970852064 -2.963708055496104 0.8702128166275355 0.21377271085155608
4.817596912384033 -1.4990985629013558 1.1453450361834925 4.965765225678243 -1.4581168333636683 -5.593994919453756 -0.2199807272220695 0.5070775168119817 0.4446101409567606 -2.9544224086099122 0.8792376867140803 0.216664092446201
4.81041955947876 -1.501266026203968 1.140712086354391 4.965741890459814 -1.4581168333636683 -5.594006840382711 -0.21633881907715122 0.5086863810360207 0.4480618224376799 -2.944673584537793 0.8872332844080197 0.2199164281377076
4.803683757781982 -1.5036336791566391 1.1358311812030237 4.96581448891715 -1.458081070576803 -5.593994919453756 -0.21291395933328103 0.5101004093354216 0.4517357945490348 -2.9348011884602934 0.8944374062604206 0.2233383666778874
4.797175407409668 -1.506304220562317 1.1306751410113733 4.965755182295599 -1.4581049124347132 -5.594018999730245 -0.20957538857940827 0.5114030416943722 0.45572742768819047 -2.9243748515920385 0.9009421195436124 0.22695712420379538
4.7910380363464355 -1.5090530154160042 1.1248615423785608 4.965789305954733 -1.4580567518817347 -5.594006840382711 -0.2064399469380859 0.5126093078567003 0.46008461138843093 -2.9135428751657453 0.906671561938719 0.2309320008154435
4.785250186920166 -1.5119346913746377 1.1183317343341272 4.965825068741598 -1.4580567518817347 -5.594006840382711 -0.20346384669317408 0.5137368584236894 0.4648758117308508 -2.9020979640316464 0.9115106020893106 0.23518011056886096
4.779857158660889 -1.5148941811970253 1.1113837401019495 4.965729224472799 -1.4581168333636683 -5.594018999730245 -0.2006685177887983 0.5147856970501441 0.46994256158404607 -2.890262021080749 0.9154773356027971 0.2395706935939449
4.7749924659729 -1.5182095256498833 1.1043365637408655 4.9657771466071985 -1.4581168333636683 -5.593982998524801 -0.19814586726390138 0.5155249962913739 0.47523633196664516 -2.878403971962631 0.918590364323486 0.24413856085954416
4.770400047302246 -1.521709469412901 1.0973876158343714 4.965789454966345 -1.4581168333636683 -5.594006840382711 -0.19575477884068823 0.5160848844426252 0.48059003950416634 -2.866587423558146 0.9211326681842751 0.2486794925506527
4.766167163848877 -1.525100440984108 1.0898574034320276 4.965813147812643 -1.4581287542926233 -5.594006840382711 -0.19354675870849747 0.5166001482205427 0.48618538198495076 -2.8545199235667664 0.9229818936396496 0.25335581849526567
4.762185573577881 -1.5284492795220395 1.0820415655719202 4.9658014354999445 -1.458092991505758 -5.5940545240985315 -0.19148099780355282 0.5170469214617273 0.49191768252713963 -2.8423539859104214 0.9242554298789134 0.2581490392724875
4.7584428787231445 -1.5318113465658207 1.074531380330221 4.965765404492178 -1.458081070576803 -5.594030682240621 -0.1895274694205339 0.5173515412781875 0.4975116244746611 -2.8305113685555874 0.9253585508672262 0.26272224316118353
4.755023002624512 -1.535157387410738 1.0674870649920862 4.965765225678243 -1.458092991505758 -5.594018999730245 -0.18773026783247856 0.5174848304438768 0.502859139681919 -2.8192969770183782 0.9261560117536226 0.26697647174584926
4.751768589019775 -1.5383559961668034 1.0605714956866663 4.965741145401754 -1.458081070576803 -5.594006840382711 -0.1860265853075691 0.5175723436147748 0.5080725524520089 -2.808396993370762 0.9267857162447249 0.2710931506009859
4.748707294464111 -1.5412713096341868 1.0537422339068812 4.965753304749288 -1.458092991505758 -5.594006840382711 -0.1844185109591122 0.5176500921250389 0.5130905494679131 -2.797957976729414 0.9272590017961735 0.2749479931408004
4.745846748352051 -1.5440969087979575 1.047446076069967 4.965717273741522 -1.458081070576803 -5.593994919453756 -0.1829212651077271 0.5176440536203911 0.5178006648337348 -2.7881418239903786 0.927664851981981 0.27854951785292764
4.742971897125244 -1.5468391843936224 1.042072598134176 4.965740936785497 -1.458081070576803 -5.594006840382711 -0.18141226823550913 0.5175478101714228 0.5219861241177647 -2.7792812745943136 0.9284448364714917 0.281610446037708
4.739997863769531 -1.549411616554 1.0376699606524866 4.9657292542751215 -1.4580567518817347 -5.594030682240621 -0.1798606518660099 0.51744123835368 0.5255923465828194 -2.7713724929243293 0.9297463822574734 0.284166089820678
4.736710548400879 -1.5517380342683573 1.0340889135943812 4.965717303543844 -1.458081070576803 -5.5940426031695765 -0.17813574155675047 0.5174031873808674 0.5286469915137427 -2.764236087734502 0.9318898175733086 0.2861117636883035
4.733111381530762 -1.5537109368345519 1.030830208455221 4.965765315085211 -1.458081070576803 -5.594018999730245 -0.17626039110863123 0.5174931316989971 0.5313418600710047 -2.7575826242748502 0.9347700005479064 0.2877009990948322
4.729238033294678 -1.5554335045493026 1.0280755201922815 4.965765285282888 -1.4580448309527796 -5.594018999730245 -0.17425643796685722 0.5176872815838038 0.5336564861828188 -2.7514308499929703 0.9382391662453474 0.2889641852574451
4.725052356719971 -1.5568471134505053 1.0259912649737757 4.965705173998632 -1.458069149647848 -5.594030682240621 -0.17207557062356857 0.5180131347091982 0.5354740173995671 -2.745920009119584 0.942462277056729 0.289680172164984
4.720589637756348 -1.5579782410389562 1.0244587103473108 4.965705173998632 -1.458069149647848 -5.594006840382711 -0.16975904134322 0.518432838338729 0.5368508306695496 -2.74104835640356 0.9474409758397883 0.2899997224867197
4.715831756591797 -1.5588181841051956 1.023569409047262 4.965741145401754 -1.458069149647848 -5.594078604375021 -0.1672894104869998 0.5189560557597134 0.5377387405287815 -2.7369171444000844 0.9530529097983679 0.28984049618114843
4.7109055519104 -1.5594710952467103 1.0233052412616175 4.96570514419631 -1.4580567518817347 -5.5940426031695765 -0.1647348515975322 0.5195508757635123 0.5382206911707792 -2.7333083439913657 0.9593219613974809 0.2893788083742619
4.705846786499023 -1.5598893689787765 1.0232818762408655 4.9657771466071985 -1.4580567518817347 -5.5940545240985315 -0.16210567856409963 0.5202036004067068 0.538437232838451 -2.730153273495424 0.965927835294514 0.2886291433772324
4.700536251068115 -1.5599789426526804 1.0232818762408655 4.965765225678243 -1.4580329100238245 -5.5940545240985315 -0.15934812372716883 0.5210263097778263 0.5384865867742653 -2.7270842286869525 0.9729831886268144 0.2877603841730891
4.695046424865723 -1.5599781053936859 1.0232818762408655 4.9657771466071985 -1.4580448309527796 -5.594006840382711 -0.15648198992316062 0.521890632095747 0.538483678141136 -2.723970426154471 0.9803864925390678 0.2867717664307634
4.689363479614258 -1.5598450855216761 1.023330036793844 4.9657771466071985 -1.458069149647848 -5.594030682240621 -0.1535054596377435 0.5228191257604979 0.5383890704277566 -2.720906069964947 0.9880096836925112 0.28565215542761263
4.68344259262085 -1.5598341415501018 1.023365322743551 4.965765225678243 -1.458081070576803 -5.594018999730245 -0.1504036358409154 0.5237241860824979 0.5383669723186717 -2.717542059486613 0.9959273928956353 0.2845692408666215
4.677387237548828 -1.5598945182612916 1.0233777205096644 4.965801226883688 -1.458081070576803 -5.594018999730245 -0.14723071009899585 0.5245930511656803 0.5383855766411744 -2.714045626825902 1.0039763899060583 0.2834927188542771
4.670955657958984 -1.5598707751235743 1.0233896414386194 4.965813147812643 -1.4580448309527796 -5.594006840382711 -0.1438639955521367 0.5255345821954408 0.5383661077708105 -2.710365755925011 1.0125506212658977 0.28237704933102575
4.6642842292785645 -1.5598825712553044 1.023341480885641 4.965765225678243 -1.4580567518817347 -5.594066683446066 -0.14035080785931756 0.5264925121704749 0.5384051360432276 -2.706400749562905 1.0212705660336903 0.2811936164310101
4.6574578285217285 -1.5599065109020849 1.023341480885641 4.9657771466071985 -1.4580567518817347 -5.594018999730245 -0.13675417958322772 0.5274263727968961 0.5384154587827464 -2.7023598284755526 1.0303692481326405 0.27998002029520275
4.650478363037109 -1.5599185277572651 1.0233057180987757 4.965741145401754 -1.458092991505758 -5.594018999730245 -0.13305883952321987 0.5283738975812086 0.5384453711881474 -2.6981482223124904 1.0395630911409894 0.27870264802453565
4.6434478759765625 -1.5599064987948914 1.0233176390277308 4.965741145401754 -1.458092991505758 -5.5940426031695765 -0.12934058668508427 0.5293002207791483 0.5384329888987577 -2.693992898347986 1.0488181887719685 0.2774207606955445
4.6363725662231445 -1.559894578797259 1.0232937971698206 4.9658012864883325 -1.458092991505758 -5.594030682240621 -0.12559312638270684 0.5301927606869146 0.5384284253763987 -2.689786724245324 1.0581766035453455 0.27612633848743945
4.6293463706970215 -1.5599184467322011 1.0233057180987757 4.965777206211843 -1.458069149647848 -5.594030682240621 -0.12187201005937022 0.5310589334458032 0.5384396741347429 -2.6855167058756244 1.0673979763663488 0.27489869616056517
4.622271537780762 -1.559918457908072 1.0233057180987757 4.965765255480566 -1.458081070576803 -5.594018999730245 -0.11810812373732126 0.5319106227180019 0.5384414313451966 -2.6811952888596755 1.0766984538672162 0.2736030900926971
4.61530876159668 -1.559918462564685 1.0233295599566858 4.965753334551611 -1.458069149647848 -5.594066683446066 -0.11440499114875496 0.5327220965162702 0.5384316366486824 -2.676967829728773 1.0857624616390547 0.2723396491007015
4.608335971832275 -1.5599064289456983 1.0233295599566858 4.9657411752040765 -1.4581049124347132 -5.594030682240621 -0.11067656758462796 0.5335136206236094 0.5384264483980075 -2.6726444671785687 1.0949391497974132 0.2710242716029453
4.6012701988220215 -1.5599064391902466 1.0233176390277308 4.9657411752040765 -1.458081070576803 -5.594030682240621 -0.10691096082034267 0.5342834498849955 0.5384333163103666 -2.6682548384567473 1.1041592778775393 0.26977020807824625
4.5943217277526855 -1.5599425596049805 1.0233057180987757 4.965777176409521 -1.458081070576803 -5.593994919453756 -0.10319855202575842 0.5349915927590169 0.5384518377465903 -2.663886404693718 1.1132620723976399 0.2685081501173
4.587411880493164 -1.5599184793284913 1.023341480885641 4.965789335757055 -1.458081070576803 -5.594030682240621 -0.09949888701854104 0.5356961094846356 0.5384187750461893 -2.6596230813477866 1.1222399634568294 0.26721061554527786
4.580691337585449 -1.5598945080167432 1.0233176390277308 4.965741145401754 -1.4580567518817347 -5.594018999730245 -0.09590056688784226 0.5363754350728713 0.5384278673421202 -2.6553282364341704 1.1309624466168688 0.2660264375576422
4.573960304260254 -1.5599192402190347 1.0232699553119105 4.965741145401754 -1.458092991505758 -5.593994919453756 -0.09227857753491864 0.5370007953374509 0.5384641473199144 -2.6509592234210073 1.1396966907936878 0.26476235833404704
4.567337989807129 -1.559954777625837 1.0233176390277308 4.9657771466071985 -1.458092991505758 -5.594006840382711 -0.08872398790632738 0.5375756651160415 0.5384516889433888 -2.6467657916915734 1.1482779780742125 0.2635230521964144
4.560869216918945 -1.559942628522851 1.0233057180987757 4.965813147812643 -1.4580567518817347 -5.594018999730245 -0.08525569243344858 0.5381358246986895 0.5384462491263781 -2.6426435027757806 1.1566360776870628 0.262364852822228
4.554511070251465 -1.5599184281057497 1.0232818762408655 4.965801226883688 -1.4581049124347132 -5.593994919453756 -0.08181652052758831 0.5386783317820047 0.5384465927572325 -2.638490217481148 1.1648747285709666 0.2611272102912454
4.548224925994873 -1.5599183591878791 1.023341480885641 4.965753304749288 -1.458069149647848 -5.594030682240621 -0.07843751182639444 0.539192290420844 0.5384254529269642 -2.634429890440631 1.1729263416503886 0.26000100475609206
4.54203462600708 -1.5599306973493476 1.0233295599566858 4.965825068741598 -1.4580567518817347 -5.594066683446066 -0.07510555347634498 0.5396463601359441 0.5384256733722098 -2.6304361041450437 1.180862042458519 0.2588477644035889
4.535859107971191 -1.5599786911955853 1.0232937971698206 4.965741145401754 -1.458069149647848 -5.594030682240621 -0.07176715950966879 0.5401039769070541 0.5384834774152124 -2.6261993635554237 1.1887614501385118 0.2577348323781311
4.5297651290893555 -1.5599306973493476 1.023341480885641 4.96580125668601 -1.4580448309527796 -5.594030682240621 -0.06848131625161177 0.5405330139752336 0.5384241159942946 -2.6223033997594696 1.196647125966525 0.2565887998200811
4.523819923400879 -1.5599064699238916 1.0233057180987757 4.96580125668601 -1.458081070576803 -5.5940426031695765 -0.06525413112325826 0.540939629247881 0.5384288343453568 -2.618333410342577 1.20424063060985 0.25542824927910535
4.517867565155029 -1.5599184597707172 1.0233295599566858 4.965777176409521 -1.458081070576803 -5.594030682240621 -0.06203307093999815 0.5413187794658232 0.5384270519955412 -2.6143324844881075 1.2118577487852509 0.2543202491764111
4.511942386627197 -1.55991846442733 1.0232937971698206 4.9658372578914545 -1.4580567518817347 -5.594030682240621 -0.058834160272889534 0.5416650542956483 0.538435569043043 -2.610372429615338 1.2194271871943039 0.2532380440912462
4.505992412567139 -1.5599425530857225 1.0233295599566858 4.965801226883688 -1.4580567518817347 -5.5940426031695765 -0.05561062973534436 0.5420037370731541 0.5384360493444128 -2.606335066153195 1.2269788570306839 0.252125661370685
4.500199317932129 -1.5599545941552897 1.0232818762408655 4.965825068741598 -1.4580567518817347 -5.594006840382711 -0.052471535296927566 0.5423088633285171 0.5384626232970112 -2.6023480060866366 1.234376800459504 0.25105296216126
4.494464874267578 -1.5599545932239671 1.023365322743551 4.965813147812643 -1.458092991505758 -5.594066683446066 -0.0493508164160699 0.5425977583437 0.5384206809273994 -2.598520910494853 1.2416197592701261 0.24989251015264433
4.488749027252197 -1.559930621912219 1.0232818762408655 4.965801226883688 -1.458092991505758 -5.594030682240621 -0.04624501576655961 0.5428866923577311 0.5384532886766934 -2.594518104737931 1.2488786327144052 0.24883988683131553
4.4830193519592285 -1.5599425353905936 1.0232937971698206 4.965861069947042 -1.458069149647848 -5.594030682240621 -0.043145037864051265 0.5431246248455462 0.5384434765714136 -2.5906250232539416 1.256158871289936 0.24777704842228937
4.4773125648498535 -1.5599665113589545 1.0232818762408655 4.965801226883688 -1.458092991505758 -5.594006840382711 -0.04003657146057348 0.5433669403436701 0.5384719259570377 -2.58657266340456 1.2633571247664115 0.24669222343668243
4.471714973449707 -1.5599306209808965 1.0233176390277308 4.965801226883688 -1.4581049124347132 -5.594006840382711 -0.03698825065290096 0.5435931954774786 0.5384345189905875 -2.5827377954562216 1.270458499456346 0.24559791968343125
4.466129302978516 -1.5599064214951177 1.0233057180987757 4.965801226883688 -1.458069149647848 -5.5940426031695765 -0.03395910124153078 0.543802925671128 0.5384291781554502 -2.5788720038489945 1.2774498763033513 0.24457980199981524
4.4607014656066895 -1.5599306237748642 1.0233057180987757 4.965837228089132 -1.458092991505758 -5.594006840382711 -0.031004720238873247 0.543960210980813 0.5384346479196417 -2.575046744183891 1.2843341873562457 0.24351959867433973
4.4553303718566895 -1.5599064261517306 1.0232937971698206 4.965801226883688 -1.458069149647848 -5.593982998524801 -0.028084591664985763 0.5441385018828436 0.538435315755917 -2.5712302044094173 1.2910957746412672 0.24254221486765598
4.449995040893555 -1.5599545885673543 1.0233295599566858 4.965825068741598 -1.458081070576803 -5.594018999730245 -0.025184408784508266 0.5442548648248458 0.5384373378950977 -2.567481292084719 1.297746755849098 0.24150021621568732
4.44468355178833 -1.5599306479892512 1.0233057180987757 4.9657771466071985 -1.458069149647848 -5.5940426031695765 -0.02229074296899275 0.5444031183855718 0.5384460209258408 -2.5636801590821134 1.3043395700121803 0.24051070297008242
4.439445495605469 -1.5599184830537816 1.0233295599566858 4.965837228089132 -1.458069149647848 -5.594066683446066 -0.019441978846049632 0.5445012283573476 0.5384168004880228 -2.5600365758124486 1.3109075054661548 0.2394851946637625
4.434206008911133 -1.5599306386760254 1.0232699553119105 4.965801226883688 -1.458081070576803 -5.594030682240621 -0.016583427144550286 0.5446018636445824 0.5384597962350244 -2.5561651892312636 1.3174399657407898 0.23849722275467647
4.429018974304199 -1.5599306386760254 1.0232699553119105 4.965789305954733 -1.458069149647848 -5.5940426031695765 -0.013760855590725948 0.5446842761450298 0.5384622697975845 -2.5524308048452293 1.3238815290076111 0.2375216228014841
4.423805236816406 -1.5599425596049805 1.0233295599566858 4.965837228089132 -1.4580567518817347 -5.5940426031695765 -0.010929857298379735 0.5447309394888802 0.5384296815302263 -2.5487461303563745 1.3304195099315346 0.2365201823834487
4.4185791015625 -1.5599184793284913 1.0233057180987757 4.965789305954733 -1.4580567518817347 -5.594018999730245 -0.008076438021469347 0.5448018653885567 0.5384379279112852 -2.5448992878744736 1.3369188080719654 0.23553195836154098
4.413137435913086 -1.55991843183104 1.0233057180987757 4.965837228089132 -1.458092991505758 -5.594006840382711 -0.005105117306344761 0.5448235477850698 0.5384283166942272 -2.540961402252055 1.3437169863742129 0.23442791960968215
4.407759666442871 -1.5598944903216143 1.023341480885641 4.965825068741598 -1.458092991505758 -5.594018999730245 -0.002172049717303247 0.5448529123646502 0.538399630284669 -2.5370747555668234 1.3503882180222526 0.23338191784555842
4.402477264404297 -1.5599063972807308 1.023341480885641 4.965837228089132 -1.4580567518817347 -5.594066683446066 0.0006937209922571659 0.5448525231546614 0.5384047675877266 -2.533230476264414 1.3568543987798933 0.23240731383522478
4.397410869598389 -1.5598581603593011 1.0233777205096644 4.965849149018087 -1.458069149647848 -5.594006840382711 0.0034617150377552986 0.5448537038875813 0.5383585797652853 -2.529536280003081 1.3632424867134665 0.23140619267339274
4.392438888549805 -1.5598464573598285 1.023353401814596 4.965813177614965 -1.458081070576803 -5.5940426031695765 0.006178572352060853 0.5448426183579406 0.5383710185837327 -2.525835645080222 1.3693017008321218 0.23043227384308182
4.387514591217041 -1.5598099076053877 1.0233896414386194 4.96580125668601 -1.4580329100238245 -5.594078604375021 0.008852867639275824 0.544823762016199 0.5383369651924363 -2.522259084919845 1.3753442388342925 0.22953133792413358
4.382723331451416 -1.5597733559883018 1.0233657995807093 4.9658372578914545 -1.4580567518817347 -5.5940426031695765 0.011471670761163857 0.544778664679428 0.5383231552506879 -2.5187008280886882 1.3813113870150737 0.2285692440207999
4.3780517578125 -1.5596888449839135 1.0234020392047327 4.9658491788204095 -1.4581049124347132 -5.594006840382711 0.014038665419927503 0.5447404368710138 0.5382570351011318 -2.515285930727536 1.3871727474926632 0.22757981915418604
4.3735575675964355 -1.5595816469616075 1.0234735647784632 4.965789305954733 -1.458069149647848 -5.594030682240621 0.01649399235838804 0.5447237044348477 0.5381762275517898 -2.5120322576463097 1.3927122632075015 0.2267347930023081
4.369186878204346 -1.5595462688109656 1.0235217253314417 4.965813147812643 -1.458081070576803 -5.594030682240621 0.01887957674601185 0.5446499948925049 0.538128486279268 -2.5088278317223285 1.3981250324176389 0.2258524609095627
4.364999294281006 -1.559546193373837 1.0234859625445765 4.9658372578914545 -1.458081070576803 -5.594006840382711 0.02115874583613609 0.5445621983752562 0.5381425880888142 -2.505638616488201 1.4032696930022777 0.22504731900130173
4.360920429229736 -1.5595583285069843 1.0235570112811487 4.965861069947042 -1.458092991505758 -5.594018999730245 0.023378171938434153 0.5444570921418389 0.5381077543909726 -2.5026222767540625 1.4082832861247736 0.22422266577888939
4.356969833374023 -1.5595343385687848 1.0235212484942835 4.965813147812643 -1.458081070576803 -5.5940426031695765 0.025533585014614474 0.544382924103074 0.5381225346818744 -2.4995872872239677 1.4130361594195373 0.22347773027309892
4.35299825668335 -1.5595222984305401 1.0235331694232386 4.965813147812643 -1.4580567518817347 -5.5940545240985315 0.027690153292645722 0.5442831713608353 0.5381108878643229 -2.4965916346857693 1.417868936352316 0.2227341886922088
4.349181652069092 -1.55944896795366 1.0235932509051722 4.965801226883688 -1.458092991505758 -5.5940545240985315 0.02978694619609206 0.5441958179510017 0.5380428786037081 -2.4937697803022307 1.4225866048740492 0.2219205898656858
4.345519065856934 -1.5593643042123695 1.0236061255084437 4.965813147812643 -1.458092991505758 -5.594006840382711 0.031790016005473376 0.5441093560130984 0.5379901644353522 -2.491022041454833 1.4271608656450785 0.2211998359626321
4.3419904708862305 -1.5591593108004709 1.0237739721881312 4.965861069947042 -1.458092991505758 -5.594006840382711 0.033730202863635254 0.5440465086665914 0.537788823678287 -2.488658697105226 1.431683879512873 0.2204475230993133
4.338593482971191 -1.5590388293242832 1.0237491766559046 4.965872990875997 -1.458092991505758 -5.594018999730245 0.03559402065097061 0.5439692459312017 0.537736877920164 -2.4861386724110623 1.4358498139684133 0.21976775094726916
4.335302352905273 -1.5588223312846203 1.0237491766559046 4.965813147812643 -1.458081070576803 -5.594006840382711 0.03741630287744166 0.5439397225556646 0.5376353083170635 -2.4837202806119962 1.4399404221584786 0.21912268905884816
4.332082271575928 -1.5585438658348103 1.023773495350973 4.965849149018087 -1.4580567518817347 -5.594030682240621 0.039196017105984596 0.5439062750497318 0.5374724514928386 -2.481526586825331 1.4439983367727784 0.21847547026808162
4.328814506530762 -1.558157681753375 1.0239060560809534 4.965825068741598 -1.458081070576803 -5.5940426031695765 0.04103369365512245 0.5439064021633537 0.5372069882943774 -2.479403085946272 1.4482224679804259 0.21772982666609764
4.325616836547852 -1.5576145120761176 1.0240500609027308 4.965861069947042 -1.458069149647848 -5.593994919453756 0.04284006821295131 0.543946810990794 0.5368444518241625 -2.4774805495809615 1.4525612261037137 0.21702976212308805
4.3223137855529785 -1.556866032337286 1.0241087118731897 4.965813147812643 -1.4581049124347132 -5.593994919453756 0.04475618540876215 0.5440658981283696 0.5364322182835606 -2.47552371908883 1.456992278442745 0.21622907705533256
4.319142818450928 -1.5559267907268186 1.024144474660055 4.965837228089132 -1.4580567518817347 -5.594018999730245 0.046599706722678255 0.5442429598090368 0.5359221069871671 -2.4738881054043085 1.4613579377874453 0.2155383093417659
4.316104412078857 -1.5548176609775801 1.0241573492633265 4.965837228089132 -1.4581168333636683 -5.5940426031695765 0.04842897035653767 0.544473623556665 0.5353358398661646 -2.4724343688635186 1.4656504864062347 0.21470498480642108
4.313113689422607 -1.5534714621356507 1.0242398420916956 4.965789305954733 -1.4580329100238245 -5.594006840382711 0.05023250796564304 0.5448039529733618 0.5346024465975953 -2.4712032234766435 1.4700888820771683 0.2140664680035792
4.310338973999023 -1.5518916950425883 1.0243004004107874 4.965849149018087 -1.458092991505758 -5.593971077595846 0.05198295129551361 0.545179424510565 0.533734430368612 -2.470375767103847 1.4744747365451492 0.21322499717862567
4.307723045349121 -1.5499799617430945 1.0243361631976526 4.965861069947042 -1.4581049124347132 -5.5940426031695765 0.05368943085024237 0.5456869620001217 0.5327145403544461 -2.4699593549940375 1.4786785588372122 0.2124327776185591
4.305388927459717 -1.5477766909501334 1.0244086424456995 4.965813147812643 -1.458092991505758 -5.594006840382711 0.05528557325683516 0.5463163322300602 0.5315328895465664 -2.469908444370659 1.4828337007643702 0.21171840236610867
4.3032355308532715 -1.5453355771354218 1.0244315306292933 4.965825068741598 -1.4581049124347132 -5.594006840382711 0.05682140934852054 0.5470154605550013 0.5302390280977095 -2.4702186337116765 1.486877206804522 0.2109704123786265
4.3013410568237305 -1.5425073255649586 1.0244558493243616 4.965789305954733 -1.458081070576803 -5.5940426031695765 0.05826931917818543 0.5478674592763968 0.5287480856390425 -2.471036906721371 1.4907608779738826 0.2102765425370712
4.299555778503418 -1.539337096070387 1.0245030562030237 4.965813147812643 -1.458069149647848 -5.5940426031695765 0.05970568164982307 0.5488163430636878 0.5270516744088415 -2.472256331764099 1.4948126183626176 0.20954335887286019
4.297963619232178 -1.5359191049686451 1.0246127287494105 4.965789305954733 -1.458092991505758 -5.594018999730245 0.06108634699303909 0.5498544825636307 0.5251958057731678 -2.473817531937549 1.4988243792880322 0.20877021359758574
4.296549320220947 -1.5323249411633988 1.0246599356280726 4.965813147812643 -1.458069149647848 -5.594006840382711 0.06237950013976156 0.5509506466556632 0.523267866038051 -2.4756617421002893 1.5026995660988576 0.20808057629819515
4.295246124267578 -1.5283506487360974 1.0247424284564417 4.965789305954733 -1.458081070576803 -5.594066683446066 0.06368053767123835 0.5521745559032432 0.5211224332794075 -2.477935768136706 1.5065745291193688 0.20730427919548558
4.294045925140381 -1.524141327743866 1.0248144308673304 4.965813147812643 -1.458092991505758 -5.5940545240985315 0.06495372761605185 0.5534607590190178 0.5188436167672678 -2.480458943984111 1.5105812053968708 0.2065289288775871
4.292932987213135 -1.519746159469225 1.0247305075274866 4.965801226883688 -1.4580567518817347 -5.594006840382711 0.06619994312119583 0.5548254241154174 0.5165466638778918 -2.4830243746192195 1.5145220236805763 0.20584943994031688
4.29198694229126 -1.5150827591172238 1.0247305075274866 4.965789305954733 -1.4581287542926233 -5.594018999730245 0.06741732533896704 0.5562586197790397 0.5140528661511841 -2.4860355843738344 1.5184106042002474 0.20499011802739578
4.29111385345459 -1.5101347503117104 1.0247305075274866 4.965861069947042 -1.4580567518817347 -5.594030682240621 0.06858537064182996 0.5577713214198899 0.5113892265802876 -2.4894182990839493 1.5224150575695312 0.20430852147847503
4.290493965148926 -1.505075142984726 1.024802033101217 4.965801226883688 -1.4580209890948694 -5.594030682240621 0.06964624950382917 0.5593451471084508 0.5086408196699815 -2.493032424030399 1.5261655425681109 0.20361307240347487
4.289967060089111 -1.4997902151993294 1.0247424284564417 4.965813147812643 -1.458069149647848 -5.593982998524801 0.07070205627314544 0.5609653926919381 0.5058143853444139 -2.4968097256195465 1.5299759988155452 0.2027976724000943
4.289525032043457 -1.494410091345646 1.0247662703143519 4.965825068741598 -1.458069149647848 -5.5940545240985315 0.07170333259074568 0.5626058358183161 0.5028856058470228 -2.5008896147621487 1.5336335334854079 0.20202460397366084
4.289179801940918 -1.488840439622738 1.0247662703143519 4.965825068741598 -1.458092991505758 -5.594018999730245 0.07267972370288384 0.5642983924480504 0.4998571299050809 -2.5050915179612994 1.5374066664577288 0.2012275811018609
4.289050102233887 -1.4832447481206437 1.0247543493853968 4.965825068741598 -1.458069149647848 -5.594078604375021 0.07351967806556062 0.5660050860835533 0.49681151446042604 -2.509553342350625 1.5407995481910899 0.20051478785869176
4.288980007171631 -1.4773874145797272 1.0247543493853968 4.965849149018087 -1.4580329100238245 -5.594030682240621 0.07434850623104426 0.5677740411392908 0.4936025353122838 -2.5142274914379255 1.5444348986798635 0.1998031983147102
4.289003849029541 -1.4716563013247033 1.0248025099383753 4.965837228089132 -1.4580448309527796 -5.594006840382711 0.07511416149448402 0.569494080937226 0.4904312990753641 -2.518897431133865 1.5478627867915011 0.19904146038557197
4.288992404937744 -1.4658850517920037 1.0247419516192835 4.965789305954733 -1.4580448309527796 -5.594018999730245 0.07590290404210294 0.5712264463007802 0.48728818990834455 -2.5234800433621487 1.5512254284038693 0.1982971570191019
4.288980007171631 -1.460168072288372 1.0248025099383753 4.965813147812643 -1.458081070576803 -5.5940426031695765 0.07667438845179378 0.5728937299424982 0.4840907537179552 -2.5281775238392408 1.5546615496101024 0.19747616307906452
4.288992404937744 -1.454379678969719 1.0248015562640589 4.9657771466071985 -1.458069149647848 -5.594018999730245 0.07742982940095161 0.5745926495899563 0.48088484753193905 -2.5328248338060173 1.5580949841534018 0.19673804668431824
4.288968563079834 -1.44856150568042 1.0247543493853968 4.965825068741598 -1.458092991505758 -5.594006840382711 0.07820466311634401 0.5762603255065087 0.4776614332534417 -2.537500067650972 1.5616033733680845 0.1959282788044324
4.288980484008789 -1.4427484583905716 1.0247543493853968 4.965837228089132 -1.458092991505758 -5.594030682240621 0.07894603938453214 0.5779190409101986 0.4744124381094831 -2.5422379112866635 1.565023408557293 0.19514900217951375
4.288956165313721 -1.4369876992753525 1.024778191243307 4.965801226883688 -1.4580567518817347 -5.594006840382711 0.07968856274470479 0.5795564518213187 0.4711783670280988 -2.546851233904934 1.5685030957109396 0.19443128622147238
4.288931846618652 -1.4312866044095536 1.0247424284564417 4.965849149018087 -1.458081070576803 -5.594006840382711 0.08042560108863554 0.581138841163116 0.4679836951053949 -2.551446277270629 1.5719372873167252 0.1936219136520085
4.288956642150879 -1.425662488942482 1.024778191243307 4.965837228089132 -1.458069149647848 -5.593994919453756 0.08111059756434782 0.5826986193765606 0.46479628951840524 -2.5560233471054863 1.5752851618712578 0.19287800120581186
4.288931846618652 -1.4201887112906952 1.024790112172262 4.965813147812643 -1.458092991505758 -5.593994919453756 0.0818106383117463 0.5841984969614126 0.4616970518331172 -2.560412899010301 1.5785720437156552 0.19209575321982894
4.288931369781494 -1.4148548406413575 1.0247305075274866 4.965789305954733 -1.4580567518817347 -5.594006840382711 0.08246016961193524 0.5856620290575852 0.45870602244500136 -2.5646654679290277 1.5816841425951893 0.19143029129944236
4.288919448852539 -1.4096883696368714 1.024802033101217 4.965861069947042 -1.458092991505758 -5.5940545240985315 0.08309135328518542 0.5870181536986443 0.4557206383913792 -2.5689755229442888 1.5848049319762614 0.1906406560889291
4.28884744644165 -1.4046789121678849 1.0247543493853968 4.9657771466071985 -1.458069149647848 -5.594030682240621 0.08374071441481158 0.5883732928376044 0.4529000903814279 -2.572837668520988 1.5878344553175938 0.18999864057613003
4.288785457611084 -1.399909721021988 1.024790112172262 4.965789305954733 -1.4580567518817347 -5.5940426031695765 0.0843378139034578 0.5896180824751234 0.4501544947768373 -2.5766837024561258 1.5907703163897304 0.18934349484882376
4.288593292236328 -1.3951886755279084 1.024790112172262 4.965801226883688 -1.458069149647848 -5.594030682240621 0.08500949565619795 0.5908287673509863 0.4474471655494697 -2.580330947362172 1.5938539865654606 0.18865168318604833
4.2883620262146 -1.3907068383744736 1.0247424284564417 4.965789305954733 -1.458081070576803 -5.594006840382711 0.08567698531331291 0.5919746541395224 0.44489801038552135 -2.5836842554562764 1.5968186588232103 0.18800024960217226
4.287988185882568 -1.3863453579000016 1.0247305075274866 4.965801226883688 -1.4580567518817347 -5.594030682240621 0.08639664876016734 0.5930606329175424 0.44239266236632513 -2.5869049603552914 1.5998639860999575 0.18739688514105085
4.28739595413208 -1.38212804616008 1.024778191243307 4.965801226883688 -1.4580567518817347 -5.594018999730245 0.08723021838095324 0.5940733123401788 0.43993637063880897 -2.589832078164765 1.603178016689848 0.18675728603207184
4.286576271057129 -1.3780262631228943 1.024778191243307 4.9657771466071985 -1.458081070576803 -5.593994919453756 0.08819493427013556 0.5950361559955092 0.43756806221866107 -2.5924011357409027 1.6066880808257378 0.1860934348042817
4.285647869110107 -1.3740863513997574 1.0247424284564417 4.965789305954733 -1.4580567518817347 -5.594018999730245 0.08918886694896302 0.5959403249642385 0.4353035731851795 -2.5947844756308593 1.6101766104448756 0.18551844316581734
4.284394264221191 -1.370345414882042 1.0247424284564417 4.965789305954733 -1.4580567518817347 -5.5940426031695765 0.0903582506869387 0.5967522508011219 0.43313340501342523 -2.596743459122697 1.6139772479196068 0.18491392640784124
