qblc7/bachelorproject/Testdaten/Hindernis_o1/robot_data_o1.csv
actual_q_0 actual_q_1 actual_q_2 actual_q_3 actual_q_4 actual_q_5 actual_TCP_pose_0 actual_TCP_pose_1 actual_TCP_pose_2 actual_TCP_pose_3 actual_TCP_pose_4 actual_TCP_pose_5
5.027843475341797 -1.1360243123820801 1.1939199606524866 4.564928217525146 -1.458081070576803 -5.593887154256002 -0.3734197744316392 0.6107684546389476 0.24600848986167656 -3.054511620612435 0.5680279116028478 0.21694808100773125
5.027831554412842 -1.136060432796814 1.1938961187945765 4.564880056972168 -1.4581168333636683 -5.593910996113912 -0.37340817612830535 0.6107929901079503 0.2460509148805565 -3.054401882870019 0.5679815412116583 0.21697128258985832
5.027843475341797 -1.1360483926585694 1.1939075628863733 4.5649401384541015 -1.4581287542926233 -5.593827072774069 -0.37340621067768104 0.6107713733169816 0.24602868091348265 -3.054457846968225 0.568114107360707 0.21690005401115947
5.027831554412842 -1.136012391453125 1.1939199606524866 4.564963980312012 -1.4581530729876917 -5.593863073979513 -0.3733899585258137 0.6107710489573736 0.24599342378756628 -3.0545165172989757 0.5680950591236893 0.21681555751000064
5.027867317199707 -1.1360364717296143 1.1939199606524866 4.564952059383057 -1.4581049124347132 -5.593887154256002 -0.37342541840204313 0.610754475450077 0.24601321460554024 -3.0545210407244787 0.5679947909889285 0.21690752989209547
5.027843475341797 -1.1360364717296143 1.1939075628863733 4.564928217525146 -1.4581049124347132 -5.593875233327047 -0.37341408678404175 0.6107732686677794 0.24602262472646638 -3.0544776901678854 0.5680399776461373 0.21693198919645165
5.027843475341797 -1.1360003513148804 1.1939438025103968 4.564952059383057 -1.458092991505758 -5.593875233327047 -0.37341282199434767 0.6107582799350302 0.2459760898869895 -3.054568413276657 0.5680644706019248 0.21688281102069676
5.027855396270752 -1.1360364717296143 1.1938827673541468 4.5649401384541015 -1.458081070576803 -5.593851153050558 -0.37342918483857584 0.6107705740983967 0.2460347092193742 -3.0544744801019377 0.5680558951037413 0.21697491189353887
5.027843475341797 -1.1360243123820801 1.1939323584186 4.5649401384541015 -1.458092991505758 -5.593851153050558 -0.3734143125797273 0.6107628328008681 0.2460002015772421 -3.0545208614677266 0.5680895094360552 0.2169157962146491
5.027831554412842 -1.1360483926585694 1.1939075628863733 4.564928217525146 -1.4581287542926233 -5.593887154256002 -0.37339996512748513 0.6107789866477601 0.2460301784611215 -3.054456061216893 0.5680365821316733 0.2169063349856829
5.027831554412842 -1.136012391453125 1.1939199606524866 4.564963980312012 -1.4581168333636683 -5.593851153050558 -0.3733998911654042 0.6107676853408791 0.24599456561651606 -3.054528175516146 0.5681135357889356 0.21686631754409394
5.027855396270752 -1.1360003513148804 1.1939075628863733 4.564952059383057 -1.4581168333636683 -5.593851153050558 -0.37341695660680513 0.6107664665558011 0.24599408991713848 -3.054525565225091 0.5680742639393398 0.2168753181468339
5.027807712554932 -1.1360243123820801 1.1938961187945765 4.5649401384541015 -1.4581168333636683 -5.593887154256002 -0.37338932277877657 0.6107888240399737 0.24601820211976727 -3.054474329794515 0.568079028587734 0.21690551299901042
5.027879238128662 -1.1360483926585694 1.1938827673541468 4.564987822169922 -1.4581168333636683 -5.593875233327047 -0.3734294964328599 0.6107513961991979 0.24603589703750733 -3.0545059580219514 0.5679918759215187 0.21690068346204616
5.027819633483887 -1.1360364717296143 1.1938827673541468 4.564963980312012 -1.4581168333636683 -5.593839232121603 -0.3733954690315245 0.6107809238478337 0.24603058699251698 -3.0544665844737118 0.5681344607328676 0.2169082117722546
5.027831554412842 -1.1360243123820801 1.19387132326235 4.564928217525146 -1.4581049124347132 -5.593851153050558 -0.3734105056658196 0.6107891092186923 0.24603290589860724 -3.0544467244640443 0.5680890472989563 0.2169487524925627
5.027831554412842 -1.1360243123820801 1.1939199606524866 4.564916296596191 -1.4581287542926233 -5.593839232121603 -0.37340045974257585 0.6107804940684012 0.24600848451582016 -3.0544676334480108 0.56811651807557 0.21689077758954475
5.027867317199707 -1.1360243123820801 1.1939323584186 4.564963980312012 -1.4581168333636683 -5.593875233327047 -0.37342026851312227 0.6107498187456328 0.24599645551932017 -3.0545463858665878 0.5680223924053395 0.21686630230723938
5.027819633483887 -1.136012391453125 1.1939075628863733 4.564928217525146 -1.4581406752215784 -5.593910996113912 -0.3733903408609635 0.6107874021133812 0.24600472155315356 -3.0544845693972063 0.5680270132965025 0.2168641833802211
5.027855396270752 -1.1360483926585694 1.1938827673541468 4.564928217525146 -1.4581049124347132 -5.593863073979513 -0.37342337970276085 0.6107750026787387 0.2460437604692394 -3.0544463825779444 0.5680313638858809 0.21695771455381746
5.027867317199707 -1.1360003513148804 1.1938827673541468 4.564963980312012 -1.458081070576803 -5.593875233327047 -0.3734353220182811 0.6107626657498217 0.24600654986218745 -3.054537500399846 0.5680160699710903 0.21693359007779284
5.027843475341797 -1.136012391453125 1.1938961187945765 4.564928217525146 -1.4581287542926233 -5.593887154256002 -0.37340924026130967 0.6107806850100207 0.24601101886239476 -3.054482202853168 0.5680247581737614 0.2168898357685108
5.027867317199707 -1.1360483926585694 1.1939552466021937 4.5649401384541015 -1.4581530729876917 -5.593863073979513 -0.3734096490227175 0.6107510118072753 0.24600324100929258 -3.054507139019895 0.5680345116211959 0.21683329385807107
5.027855396270752 -1.1360483926585694 1.1938827673541468 4.564952059383057 -1.4581168333636683 -5.593839232121603 -0.3734180414300101 0.6107697853142663 0.2460403895695194 -3.0544578210939215 0.5680741888061589 0.21692544202684508
5.027843475341797 -1.1360364717296143 1.19387132326235 4.5649401384541015 -1.4581287542926233 -5.593851153050558 -0.3734099045630237 0.6107827434286341 0.24603912825329805 -3.054441310611011 0.5680709080797366 0.2169160416010127
5.027831554412842 -1.1360483926585694 1.1938961187945765 4.565000219936035 -1.4581287542926233 -5.593910996113912 -0.3733947808269472 0.6107631795640521 0.2460270554804436 -3.054515331916258 0.568015574508655 0.21686432852504756
5.027843475341797 -1.1360364717296143 1.1939199606524866 4.564952059383057 -1.4581530729876917 -5.593887154256002 -0.3733976569006717 0.6107678487157342 0.2460116970978808 -3.0544937419131717 0.5680307468836276 0.2168398653290499
5.027831554412842 -1.1360003513148804 1.1939199606524866 4.564952059383057 -1.4581287542926233 -5.593887154256002 -0.3733979683061155 0.6107729093763712 0.24598729926215426 -3.054531425723926 0.5680580376618226 0.21684870066241915
5.027807712554932 -1.136012391453125 1.1939194838153284 4.564952536220215 -1.4581530729876917 -5.593923155461447 -0.3733764350628348 0.6107831239397732 0.24599510793480872 -3.0545105497944185 0.568035594123955 0.21682153283679811
5.027819633483887 -1.1360364717296143 1.1939323584186 4.564963980312012 -1.4581406752215784 -5.593863073979513 -0.37338429855707866 0.6107688719331954 0.246004175231356 -3.0545067653772016 0.5681101860054253 0.21684051033177856
5.027807712554932 -1.1360483926585694 1.1938961187945765 4.564963980312012 -1.4581406752215784 -5.593899075184957 -0.37338009921059084 0.6107828010021721 0.24603123205617805 -3.05446731143938 0.5680606494611612 0.2168721913238326
5.027843475341797 -1.1360243123820801 1.1938961187945765 4.5649401384541015 -1.458092991505758 -5.593863073979513 -0.37341770061403334 0.6107732571694707 0.2460189535247115 -3.054491021982214 0.5680620097336588 0.21694025507391249
5.027831554412842 -1.1360364717296143 1.1938961187945765 4.564963980312012 -1.4581168333636683 -5.593923155461447 -0.37340150196721794 0.6107726322070651 0.24602367831884056 -3.0545009406024843 0.5679905570525517 0.2168972220098671
5.027843475341797 -1.1360364717296143 1.1939199606524866 4.564928217525146 -1.458081070576803 -5.593851153050558 -0.3734194623017329 0.6107674894848873 0.24601696098428694 -3.0544929275626327 0.5680802609676489 0.2169573317495784
5.027843475341797 -1.1360483926585694 1.1939075628863733 4.564963980312012 -1.458092991505758 -5.593899075184957 -0.37341394156672236 0.6107617297003554 0.24602681298465642 -3.0545088453416507 0.5680095211672476 0.21693168084698689
5.027843475341797 -1.1360364717296143 1.1938827673541468 4.564987822169922 -1.4581049124347132 -5.593875233327047 -0.3734112273892687 0.6107645906240486 0.24602796777307528 -3.054508758444596 0.5680491101477838 0.21690819750316792
5.027855396270752 -1.1360243123820801 1.1939075628863733 4.564928217525146 -1.4581049124347132 -5.593839232121603 -0.3734216799050522 0.6107697823974141 0.24601415355733072 -3.054484930310323 0.5680804310172641 0.2169249119744397
5.027831554412842 -1.1360243123820801 1.1939323584186 4.564952059383057 -1.4581168333636683 -5.593899075184957 -0.3733994616293621 0.6107663350290071 0.24599795282452883 -3.0545283643646473 0.5680367802166109 0.21687290807364756
5.027819633483887 -1.136012391453125 1.1938827673541468 4.564987822169922 -1.4581287542926233 -5.593899075184957 -0.3733907490275366 0.6107776176660131 0.2460104404175029 -3.0545177351828587 0.5680545391037837 0.21685729703360698
5.027831554412842 -1.1360243123820801 1.193859879170553 4.564987822169922 -1.458092991505758 -5.593875233327047 -0.3734096655556112 0.6107754842908965 0.24603171576707586 -3.0544996558803628 0.5680645132052163 0.21693180846157087
5.027831554412842 -1.136012391453125 1.19387132326235 4.564928217525146 -1.4581049124347132 -5.593887154256002 -0.3734108117234204 0.610790055633416 0.2460246006881912 -3.054465204611691 0.5680366381937785 0.2169396638300472
5.027831554412842 -1.1360364717296143 1.1939075628863733 4.5649401384541015 -1.4581168333636683 -5.593887154256002 -0.37340250303407635 0.6107756645126432 0.24602075153746078 -3.054482060969635 0.5680427195863751 0.2169066282155738
5.027831554412842 -1.136060432796814 1.1938961187945765 4.564976378078125 -1.4581287542926233 -5.593923155461447 -0.3733965426035012 0.6107685477946638 0.24603843826680488 -3.0544859008355636 0.5679876475742821 0.21688854476723896
5.027819633483887 -1.1360243123820801 1.1938961187945765 4.564976378078125 -1.4581287542926233 -5.593863073979513 -0.37339018893671155 0.6107758665330607 0.24601327430528794 -3.054500976129495 0.5681073635005989 0.21686508137234298
5.027819633483887 -1.136012391453125 1.1938961187945765 4.564916296596191 -1.4581049124347132 -5.593851153050558 -0.3734022480398828 0.6107905367758855 0.24601326769002305 -3.054464739904751 0.5681133049798727 0.2169314898767741
5.027843475341797 -1.136060432796814 1.1938827673541468 4.564963980312012 -1.4581049124347132 -5.593899075184957 -0.37341268308462394 0.610769012187921 0.24604765576511753 -3.0544712021471496 0.5680001744699161 0.21694026689859106
5.027855396270752 -1.1360364717296143 1.1939552466021937 4.5649401384541015 -1.4581168333636683 -5.593875233327047 -0.373412606801803 0.6107530453569147 0.24599607799077133 -3.054530506756314 0.568036989688194 0.216874965759776
5.027819633483887 -1.1360364717296143 1.19387132326235 4.5649401384541015 -1.4581530729876917 -5.593910996113912 -0.3733886769283005 0.6107939031938461 0.2460383620755424 -3.054436380498062 0.5680148059600539 0.2168800155651592
5.027843475341797 -1.136060432796814 1.1939199606524866 4.5649401384541015 -1.4581406752215784 -5.593910996113912 -0.37340147524283385 0.6107679578910252 0.24603027809037473 -3.0544717113201347 0.5679849316689004 0.21688104707432893
5.027843475341797 -1.1360243123820801 1.1938827673541468 4.564976378078125 -1.4581168333636683 -5.593887154256002 -0.3734092663483085 0.6107696980028469 0.24602055852615393 -3.0545073109093464 0.5680308422173831 0.21689079589857466
5.027831554412842 -1.136072353725769 1.19387132326235 4.5649401384541015 -1.4581049124347132 -5.593851153050558 -0.3734082365345522 0.6107821322825142 0.24606487802940452 -3.054414407506445 0.5680799516722524 0.2169734711166181
5.027831554412842 -1.1360364717296143 1.1938961187945765 4.564928217525146 -1.4581287542926233 -5.593863073979513 -0.3734013409949695 0.6107832248078544 0.2460277951964761 -3.054451253208547 0.5680737904224956 0.2169066250028362
5.027807712554932 -1.136072353725769 1.1938961187945765 4.564963980312012 -1.4581049124347132 -5.593887154256002 -0.3733892859796963 0.6107775792264196 0.24604905194945872 -3.054457350118212 0.5680730505411848 0.21693867973761993
5.027855396270752 -1.136072353725769 1.1938961187945765 4.564928217525146 -1.4581049124347132 -5.593875233327047 -0.3734215161996989 0.6107692598184818 0.24605354482391842 -3.054439539340839 0.5680099403617128 0.2169646669092375
5.027819633483887 -1.1360003513148804 1.1939438025103968 4.564952059383057 -1.4581049124347132 -5.593875233327047 -0.3733949929608968 0.6107682890286459 0.24597571416074096 -3.054555360921326 0.5681005471094575 0.2168655985989617
5.027843475341797 -1.1360243123820801 1.1938961187945765 4.564963980312012 -1.4581287542926233 -5.593875233327047 -0.3734058277802708 0.6107702526092055 0.24601483158652987 -3.0545009056594865 0.5680493250452876 0.2168738574202113
5.027843475341797 -1.136072353725769 1.1938961187945765 4.564987822169922 -1.4581049124347132 -5.593910996113912 -0.3734090578977254 0.6107579013678777 0.2460460568981352 -3.0544963786379347 0.5679883239548079 0.21692269454966126
5.027807712554932 -1.1360364717296143 1.1938827673541468 4.564963980312012 -1.4581287542926233 -5.593863073979513 -0.3733849205995951 0.6107864814241928 0.24603021135152045 -3.054462893301297 0.5681157703833244 0.21689068932723837
5.027819633483887 -1.1360483926585694 1.1938961187945765 4.564963980312012 -1.4581287542926233 -5.593875233327047 -0.37339064760409313 0.610777243485866 0.24603160765629703 -3.0544710026366677 0.5680793396692968 0.21688971401986637
5.027843475341797 -1.1360483926585694 1.1938961187945765 4.5649401384541015 -1.4581049124347132 -5.593910996113912 -0.37341381508906296 0.6107724519795303 0.24603535402992988 -3.054475204056591 0.5679820842539742 0.21693889118611925
5.027831554412842 -1.136060432796814 1.19387132326235 4.564963980312012 -1.4581049124347132 -5.593827072774069 -0.3734064718678256 0.6107767551131299 0.24605357761079674 -3.054441142370483 0.5681262039282257 0.21694964558682173
5.027843475341797 -1.136012391453125 1.1938961187945765 4.5649401384541015 -1.458081070576803 -5.593875233327047 -0.3734212739064847 0.6107730969050303 0.24601102420817578 -3.054509010772913 0.5680463484509561 0.21694838064632202
5.027831554412842 -1.1360243123820801 1.1938961187945765 4.564952059383057 -1.4581406752215784 -5.593851153050558 -0.37339631495017195 0.6107789724574031 0.24601595341223528 -3.0544761550427513 0.5681013414534403 0.2168657243240174
5.027807712554932 -1.1360364717296143 1.1938827673541468 4.564987822169922 -1.4581168333636683 -5.593899075184957 -0.37338611717984577 0.6107790508518098 0.24602759209016756 -3.0544967011962405 0.5680665356086363 0.21689005819527107
5.027807712554932 -1.1360364717296143 1.1939199606524866 4.5649401384541015 -1.4581049124347132 -5.593863073979513 -0.373390049312208 0.6107798943473496 0.24601471203164463 -3.054484245352817 0.568119079266059 0.21691475760505396
5.027843475341797 -1.1360364717296143 1.19387132326235 4.564963980312012 -1.4581049124347132 -5.593887154256002 -0.3734143681886603 0.6107742063793491 0.24603688443721675 -3.0544798039420864 0.568021712325797 0.21693200471405186
5.027795314788818 -1.1360483926585694 1.1938961187945765 4.565000219936035 -1.4581287542926233 -5.593910996113912 -0.3733726467537286 0.6107767108494492 0.2460270554804436 -3.0545026165395326 0.5680704711197437 0.2168633902898168
5.027831554412842 -1.1360364717296143 1.1939199606524866 4.564963980312012 -1.4581049124347132 -5.593875233327047 -0.37340254042348314 0.6107646677081106 0.2460117172190999 -3.054516554917912 0.5680703977522418 0.21689876516009995
5.027831554412842 -1.136012391453125 1.1939075628863733 4.564952059383057 -1.4581049124347132 -5.593887154256002 -0.37340535299086036 0.6107733073402768 0.246002853663446 -3.054518935938723 0.5680519385065376 0.21689860290184867
5.027819633483887 -1.1360483926585694 1.1939075628863733 4.564976378078125 -1.458092991505758 -5.593875233327047 -0.373398302936844 0.6107673438501342 0.24602525566117922 -3.0545063793826497 0.568085547410198 0.21692320764094686
5.027867317199707 -1.1360364717296143 1.1939075628863733 4.564952059383057 -1.4581049124347132 -5.593839232121603 -0.3734265775335112 0.6107580415988082 0.24601962975209227 -3.0544995404338144 0.5680654478640893 0.2169172438786068
5.027831554412842 -1.1360483926585694 1.1939438025103968 4.564987822169922 -1.458092991505758 -5.593875233327047 -0.37340120188285186 0.6107494325648561 0.24600506656623872 -3.0545532160554973 0.568079589432538 0.21689092741005675
5.027795314788818 -1.1360364717296143 1.1939075628863733 4.564976378078125 -1.4581168333636683 -5.593923155461447 -0.37337722107821464 0.610779583264388 0.24601619935823826 -3.0545095435356204 0.5680515419356841 0.21687999006124492
5.027831554412842 -1.1360364717296143 1.193859879170553 4.5649401384541015 -1.4581049124347132 -5.593899075184957 -0.37341022778710264 0.6107882733772356 0.24604580145193045 -3.0544466661056275 0.5680123725535109 0.2169555015679627
5.027831554412842 -1.1360364717296143 1.1939199606524866 4.564963980312012 -1.4581049124347132 -5.593887154256002 -0.37340254042348314 0.6107646677081106 0.2460117172190999 -3.054519143805485 0.5680520431818102 0.2168984566447551
5.027819633483887 -1.1360364717296143 1.1938961187945765 4.564976378078125 -1.4581168333636683 -5.593863073979513 -0.3733931441310577 0.6107737948878009 0.24602212099601958 -3.0544947874030446 0.5681043223292249 0.2168899960326481
5.027831554412842 -1.136012391453125 1.1939199606524866 4.56501214086499 -1.458092991505758 -5.593899075184957 -0.3734022424259315 0.6107526973070275 0.2459892683144173 -3.054590987122475 0.5680522649641813 0.21686535430434692
5.027879238128662 -1.136012391453125 1.1938350836383265 4.564987822169922 -1.4581287542926233 -5.593899075184957 -0.37343161175099 0.610769076177608 0.2460351140294876 -3.05449597842474 0.5679522178834645 0.21689142880972948
5.027843475341797 -1.1360845130733033 1.193859879170553 4.564987822169922 -1.4581168333636683 -5.593899075184957 -0.37340886589234956 0.6107684651824615 0.24607290470179416 -3.0544457995733474 0.5679944144255211 0.21693949180391267
5.027855396270752 -1.136072353725769 1.1938961187945765 4.564963980312012 -1.4581168333636683 -5.593839232121603 -0.37341514243117474 0.610760880508313 0.2460486762683459 -3.054458988953803 0.5680745643310193 0.21692456242042285
5.027843475341797 -1.1360483926585694 1.1938474814044397 4.564976378078125 -1.4581168333636683 -5.593899075184957 -0.37341194660683463 0.6107779351983386 0.24605559351112638 -3.054456786598576 0.5679974834062055 0.2169310754920782
5.027831554412842 -1.136108474140503 1.1939075628863733 4.564952059383057 -1.4581168333636683 -5.593887154256002 -0.3733996186495254 0.6107667850462515 0.24606941594980444 -3.0544283128654146 0.5680275536843075 0.21694773834699596
5.027843475341797 -1.136072353725769 1.1938827673541468 4.564963980312012 -1.4581168333636683 -5.593899075184957 -0.37340910965021895 0.6107691720462386 0.24605558508691291 -3.0544558537250386 0.5679971149798293 0.21693182626765695
5.027843475341797 -1.1360964340022583 1.1938474814044397 4.564976378078125 -1.4581168333636683 -5.593923155461447 -0.37341071249950114 0.6107741191715228 0.24608906299480682 -3.054419045735958 0.5679482363979739 0.21696331492205354
5.027843475341797 -1.1361085039428254 1.1938961187945765 4.565000219936035 -1.4581049124347132 -5.593863073979513 -0.37340705252219714 0.6107517418816824 0.24606968386970493 -3.0544647171159274 0.568056149650352 0.2169401942151688
5.027855396270752 -1.1361205738833924 1.1938350836383265 4.564987822169922 -1.4581049124347132 -5.593910996113912 -0.37342080514183146 0.610767172942077 0.24611123408822416 -3.054402814421251 0.567942648698093 0.2169977005704662
5.027867317199707 -1.136096553211548 1.1938121954547327 4.564976378078125 -1.4581168333636683 -5.593899075184957 -0.3734285696087711 0.610775354144992 0.24610740583804663 -3.054390500314181 0.5679402634899618 0.2169887546745193
5.027807712554932 -1.1360965234092255 1.1938474814044397 4.56501214086499 -1.4581406752215784 -5.593910996113912 -0.37337922630964737 0.6107801927820828 0.24608388092335468 -3.0544263601976223 0.5680302625187581 0.21690513170904765
5.027855396270752 -1.1361690920642395 1.1938350836383265 4.564987822169922 -1.4581168333636683 -5.593875233327047 -0.3734162906461743 0.6107644230923506 0.24614465983092815 -3.054346968545458 0.5679853790983836 0.2170152251176042
5.027867317199707 -1.1362050932696839 1.19387132326235 4.564987822169922 -1.4581049124347132 -5.593875233327047 -0.3734225259549665 0.6107455821842935 0.24615136241398602 -3.054356066727253 0.5679673823252048 0.21703199311865046
5.027843475341797 -1.1362175804427643 1.1938350836383265 4.564952059383057 -1.4581287542926233 -5.593887154256002 -0.37340760168165693 0.6107756106176306 0.24618255935735278 -3.054265363206396 0.5679635271802407 0.21705561727157827
5.027879238128662 -1.136290655737259 1.1938121954547327 4.565000219936035 -1.458092991505758 -5.593875233327047 -0.3734353211698666 0.6107469291234361 0.24624038785630156 -3.0542465715719938 0.5679159653139928 0.2171393604037171
5.027855396270752 -1.1364845496467133 1.1937277952777308 4.564987822169922 -1.4581168333636683 -5.593863073979513 -0.3734181896444851 0.61077014195382 0.24641996000100677 -3.053966155991198 0.5678971021737748 0.21730462199068407
5.027843475341797 -1.1366885167411347 1.1937993208514612 4.5649401384541015 -1.4581168333636683 -5.593863073979513 -0.37340310543553135 0.6107504084234844 0.24653103057514966 -3.053800925431641 0.5678692147199278 0.217427507749665
5.027867317199707 -1.1369050306132813 1.1937153975116175 4.564963980312012 -1.4581287542926233 -5.593863073979513 -0.3734145638644989 0.6107430812630585 0.24672193817730828 -3.0535571250053675 0.5677632046787798 0.2176006337744903
5.027843475341797 -1.1371593934348603 1.1936915556537073 4.564987822169922 -1.4581168333636683 -5.593887154256002 -0.3733968312968924 0.6107310159979088 0.2469088567413789 -3.053331083450702 0.5676979697797284 0.21778983928608717
5.027867317199707 -1.1375208360007782 1.193679157887594 4.565000219936035 -1.4581168333636683 -5.593887154256002 -0.3734020781966155 0.6106933424496138 0.24716550255777264 -3.05301607610009 0.567570376418636 0.2180375323539019
5.027831554412842 -1.1379926663688202 1.1936314741717737 4.56501214086499 -1.4581049124347132 -5.593910996113912 -0.37337460709160586 0.6106780514839875 0.24751774751607797 -3.052559192884533 0.5674593665459 0.2183993169737934
5.027855396270752 -1.1385850471309205 1.1936190764056605 4.565000219936035 -1.4581049124347132 -5.593875233327047 -0.3733758328847331 0.6106278723064414 0.24793830207772244 -3.052008011108147 0.5673220319436035 0.21882220094212257
5.027867317199707 -1.139490858917572 1.1936081091510218 4.564976378078125 -1.4581287542926233 -5.593863073979513 -0.3733557811644543 0.6105612565519645 0.24857714871224226 -3.051158457705918 0.567084311314525 0.21943192890891022
5.027843475341797 -1.1406501096538086 1.193631951008932 4.564952059383057 -1.4581168333636683 -5.593863073979513 -0.3733135629640669 0.6104733984524017 0.24937555785104007 -3.050116766391029 0.5668264878527615 0.22023914717237156
5.027831554412842 -1.1421218079379578 1.193631951008932 4.565024061793945 -1.4581168333636683 -5.593887154256002 -0.3732605027118254 0.6103365656603396 0.25039112793774393 -3.0488645968008674 0.5664533331884198 0.22119240440851784
5.027879238128662 -1.1438814860633393 1.1935718695269983 4.564987822169922 -1.4581168333636683 -5.593899075184957 -0.3732503797956191 0.6101973619488775 0.25165197350870094 -3.0472218145758396 0.5658928475058139 0.2224575525205342
5.027879238128662 -1.145979569559433 1.1935957113849085 4.56501214086499 -1.4581168333636683 -5.593899075184957 -0.3731880765643199 0.6100049659117536 0.2530966905306389 -3.0453854158025226 0.56537394686037 0.22385211539480063
5.027855396270752 -1.1483500462821503 1.1935718695269983 4.565024061793945 -1.4581287542926233 -5.593899075184957 -0.37310474846347114 0.6098125608066567 0.2547565249481665 -3.0432373012878213 0.5648070154151962 0.22545322077435068
5.027819633483887 -1.1511476200870057 1.1935094038592737 4.56501214086499 -1.4581406752215784 -5.593887154256002 -0.3730061436959559 0.6095997437726881 0.2567361384457606 -3.040642567942829 0.5641524637131782 0.22738362939263204
5.027807712554932 -1.1542917650989075 1.193535629902975 4.565037413234375 -1.4581049124347132 -5.593875233327047 -0.3729118952060455 0.6093020120041267 0.2589063155957332 -3.0378755838481815 0.5634057809494041 0.2295268785500008
5.027843475341797 -1.1577842694571991 1.193474594746725 4.565048380489014 -1.4581168333636683 -5.593839232121603 -0.37283002544493216 0.6089797408708317 0.26136359069030846 -3.0346962819026495 0.5625110307670733 0.23190658704954728
5.027867317199707 -1.161613480453827 1.1934993902789515 4.565098448390625 -1.4581049124347132 -5.593851153050558 -0.3727231733313635 0.6085851368563678 0.2640040741284602 -3.0313400319463875 0.5615073640002525 0.23445449636011903
5.027843475341797 -1.1658477050117035 1.1934755484210413 4.565168543452881 -1.4581287542926233 -5.593910996113912 -0.37256398335332996 0.6081699962759443 0.2669457635757277 -3.0275709988216986 0.5603936400190435 0.23723389460283045
5.027843475341797 -1.1704350274852295 1.1934879461871546 4.565168543452881 -1.4581049124347132 -5.593887154256002 -0.37241960330832413 0.6077020591809708 0.27012219044901087 -3.0234607325011638 0.5592731295928105 0.24033591270114688
5.027891635894775 -1.1753653150847931 1.193463150654928 4.565168066615723 -1.4581168333636683 -5.593839232121603 -0.3722817243287473 0.6071796642378218 0.2735525899891704 -3.0190027899846004 0.558022266523904 0.24363801649209568
5.027819633483887 -1.1806127589992066 1.1934755484210413 4.565192385310791 -1.4581049124347132 -5.593887154256002 -0.37205564204133473 0.606632772580572 0.2771775428816726 -3.014297691150277 0.5567405319496492 0.2471210559552966
5.027843475341797 -1.186058686380722 1.193463150654928 4.565179987544678 -1.4581287542926233 -5.593899075184957 -0.37187004659383405 0.6060292412325939 0.28095371370451994 -3.009366630745604 0.5553063907191066 0.25072323584919404
5.027879238128662 -1.1917103093913575 1.193463150654928 4.56526438772168 -1.4581406752215784 -5.593887154256002 -0.371671520422324 0.6053484618526378 0.28484870104534654 -3.0043479723967805 0.5538672258519968 0.25439586572031975
5.027819633483887 -1.1975706082633515 1.1935232321368616 4.565251989955566 -1.4581168333636683 -5.593899075184957 -0.371413276485754 0.6046633247548867 0.28886633361746356 -2.999087919680787 0.5524704099088092 0.25825866466448716
5.027819633483887 -1.2035387021354218 1.1934755484210413 4.56526438772168 -1.4581168333636683 -5.593863073979513 -0.37117980791426874 0.603943700397466 0.29300731682705006 -2.9936527107350934 0.551011150211654 0.26220731692134785
5.027807712554932 -1.209722713833191 1.1935232321368616 4.565263910884521 -1.4581168333636683 -5.593875233327047 -0.3709157875960118 0.6031566366772646 0.2972430062270545 -2.988096813774496 0.5494635873181601 0.2662242581115818
5.027819633483887 -1.2159456473639985 1.1934879461871546 4.5652758318134765 -1.4581168333636683 -5.593851153050558 -0.3706620345830736 0.6023482111160426 0.30154313412700473 -2.982437597406845 0.547908682874127 0.27030188146887996
5.027843475341797 -1.2223067444613953 1.1934879461871546 4.565299673671387 -1.4581406752215784 -5.593887154256002 -0.3703906847914151 0.6014816565565845 0.3059112326380152 -2.976697032947064 0.5462252526918718 0.2743864829592267
5.027843475341797 -1.2286210817149659 1.1934879461871546 4.565299673671387 -1.4581649939166468 -5.593863073979513 -0.3701003444554492 0.6006102152864522 0.3102449594962467 -2.9709514756927535 0.5446740684810205 0.2784427276212646
5.027855396270752 -1.2350698870471497 1.1935470739947718 4.565323992366455 -1.4581049124347132 -5.593875233327047 -0.3698188367340692 0.599660675491613 0.31463161057117295 -2.965197088917503 0.5430328954764605 0.28262855333351034
5.027855396270752 -1.241554782991745 1.1934993902789515 4.565299673671387 -1.4581406752215784 -5.593863073979513 -0.369505672544179 0.5987299333409669 0.3190992448968629 -2.9592175761361204 0.5414052461792864 0.28679184512770706
5.027867317199707 -1.247916893368103 1.193463150654928 4.5653120714375 -1.4581049124347132 -5.593887154256002 -0.3692123550972706 0.5977671754963667 0.32346688679410884 -2.9534257873547625 0.5397442644985665 0.29092355347705007
5.027843475341797 -1.2543513935855408 1.1935108343707483 4.565323992366455 -1.4581287542926233 -5.593875233327047 -0.36886289473643963 0.5967665061479149 0.3278295663204113 -2.9475966225659227 0.5381977164930791 0.29495133910739013
5.027855396270752 -1.2608423990062256 1.1934993902789515 4.56533591329541 -1.4581168333636683 -5.593887154256002 -0.368537238318178 0.5957268304597902 0.3322573792363839 -2.9416868778259313 0.536532160649464 0.29908585810471977
5.027831554412842 -1.267302857046463 1.1934993902789515 4.56533591329541 -1.4581168333636683 -5.593910996113912 -0.36817990561001585 0.5946796347665722 0.33665250141710545 -2.9357837767058945 0.5349103346991066 0.303163205226947
5.027843475341797 -1.2736175817302247 1.1934993902789515 4.565395994777344 -1.458081070576803 -5.593899075184957 -0.36784798936476715 0.5935987552701065 0.3409327850847035 -2.9300828501465417 0.5333386306133078 0.30715123175728176
5.027831554412842 -1.2799323958209534 1.1934993902789515 4.56535975515332 -1.4581168333636683 -5.593887154256002 -0.3674817912479691 0.592531590171643 0.3452194488906486 -2.92425335342611 0.5317849935101805 0.3110852907283195
5.027867317199707 -1.2863014501384278 1.1935470739947718 4.565372629756592 -1.4581049124347132 -5.593851153050558 -0.3671380899472364 0.5913848425066807 0.34950239359751034 -2.918488086296292 0.530204513859072 0.3150504808410433
5.027831554412842 -1.2925580006888886 1.1935232321368616 4.56535975515332 -1.458081070576803 -5.593899075184957 -0.36676045087344045 0.5902790019047015 0.3537462364517111 -2.912725030041135 0.5286064318750053 0.318986603010913
5.027831554412842 -1.2987566155246277 1.1935108343707483 4.5653721529194335 -1.4581287542926233 -5.593887154256002 -0.3663769415462699 0.5891440038339116 0.3579307892877954 -2.9070194737039587 0.5270781243596458 0.32276565898235826
5.027831554412842 -1.3048751217177887 1.1934993902789515 4.565408869380615 -1.458092991505758 -5.593875233327047 -0.3660110742109702 0.5879853225098868 0.3620518056737454 -2.901436627814105 0.5255667942767074 0.3265765879508868
5.027867317199707 -1.3108637791923066 1.1935470739947718 4.56535975515332 -1.4581168333636683 -5.593875233327047 -0.36565328198639074 0.5868295397072494 0.3660578034455966 -2.895936646015841 0.5240203513194238 0.33023394677760853
5.027843475341797 -1.316727952366211 1.1935470739947718 4.565420313472412 -1.4581406752215784 -5.593923155461447 -0.36525548269422664 0.5856804405511943 0.36998090613249157 -2.8905902566763175 0.5225372006168633 0.33374804313301454
5.027867317199707 -1.3224377495101471 1.1934993902789515 4.565443678493164 -1.4581287542926233 -5.593899075184957 -0.3649041901211235 0.5845376311462935 0.3738279300033045 -2.8853217390741825 0.5211044132026232 0.3372720914779015
5.027855396270752 -1.3280752760222931 1.1934879461871546 4.565432234401367 -1.458092991505758 -5.593887154256002 -0.3645369206158243 0.5834007636839962 0.37760621031081965 -2.8801150208587942 0.5197201033710032 0.3407633019507414
5.027831554412842 -1.3335952174714585 1.1934993902789515 4.565432234401367 -1.4581049124347132 -5.593899075184957 -0.3641488302247653 0.5822701605834709 0.3812828665518531 -2.875026512953024 0.5183632502956226 0.34408154048611844
5.027819633483887 -1.3389291775277634 1.1935470739947718 4.565456076259277 -1.4581168333636683 -5.593851153050558 -0.3637702426467523 0.5811430448830095 0.38480421604823833 -2.870155904340385 0.5171385145355307 0.34725141426397593
5.027843475341797 -1.3440223795226593 1.1935470739947718 4.565467997188232 -1.4581049124347132 -5.593875233327047 -0.36343364339802686 0.580045919452395 0.38818912945297845 -2.865482154511781 0.5158005575671231 0.3503276092869569
5.027855396270752 -1.3490196031383057 1.1934879461871546 4.565492315883301 -1.458092991505758 -5.593910996113912 -0.3630939892586469 0.5789652354904046 0.39153593221041605 -2.860848199326406 0.5144755602369642 0.35336052848905725
5.027843475341797 -1.353999377494194 1.193559471760885 4.565529032344482 -1.4581049124347132 -5.593887154256002 -0.36272173535310676 0.5778577322626464 0.3947879850530274 -2.85633298525607 0.5133147944449584 0.35626274647704653
5.027879238128662 -1.3587640684894104 1.1934993902789515 4.565564318294189 -1.4581049124347132 -5.593863073979513 -0.36239840636933757 0.5767876811886209 0.3979677322861327 -2.851912087259643 0.5121062236949163 0.3591313158267913
5.027819633483887 -1.3634377282908936 1.1934879461871546 4.565589113826416 -1.4581049124347132 -5.593851153050558 -0.3620202013842125 0.5757525101673964 0.40105620218491056 -2.847575931677162 0.5110467504633694 0.3618958002893561
5.027867317199707 -1.367894933824875 1.1935232321368616 4.565648241634033 -1.4581287542926233 -5.593851153050558 -0.3617038694750153 0.5747011362028943 0.40396294985920744 -2.8435442495169183 0.5098979264227212 0.36446177301013843
5.027831554412842 -1.372245044713356 1.1934993902789515 4.565721197719238 -1.4581287542926233 -5.593875233327047 -0.3613522773125022 0.5736968147415569 0.40682633633602355 -2.839550035479045 0.5088434549752157 0.36699593324771845
5.027831554412842 -1.3764642787030716 1.1934993902789515 4.56574456273999 -1.4581049124347132 -5.593851153050558 -0.3610363330383282 0.572703594439239 0.40959540394904714 -2.835665134979264 0.5078300606775822 0.3695077413653513
5.027867317199707 -1.3806362015059968 1.1935108343707483 4.565756006831787 -1.4581530729876917 -5.593899075184957 -0.3607216067909519 0.5717057213195951 0.4123225374910293 -2.8318193287434155 0.5066881775492098 0.3718847211504224
5.027843475341797 -1.3847330969623108 1.1934755484210413 4.565828962916992 -1.4581287542926233 -5.593923155461447 -0.36039262569373404 0.570722695584575 0.41501353638885996 -2.8280559246562187 0.5056738444991026 0.3742904900353061
5.027843475341797 -1.3886766743711014 1.1934993902789515 4.565839930171631 -1.4581406752215784 -5.593887154256002 -0.3600777384264121 0.5697662689301829 0.4175766978233859 -2.824416925019687 0.5047562600248048 0.3765709478921254
5.027843475341797 -1.392572135930397 1.1934993902789515 4.565839930171631 -1.4581406752215784 -5.593863073979513 -0.35976880720421683 0.5688170270842073 0.4201206666469358 -2.8207945884725887 0.5038229018588113 0.3788513935016998
5.027843475341797 -1.3963121336749573 1.193463150654928 4.565864248866699 -1.4581168333636683 -5.593875233327047 -0.35947576587790575 0.5678944113811183 0.4225763779822219 -2.8173177507417417 0.5028692381579853 0.3810666329669372
5.027867317199707 -1.3998954606107255 1.1934993902789515 4.565912409419678 -1.4581168333636683 -5.593910996113912 -0.35919435858419774 0.5669797464851304 0.4248792735288119 -2.814077966747526 0.5019165027718052 0.3830988415170741
5.027867317199707 -1.4034316700747986 1.1934993902789515 4.565912886256836 -1.4581049124347132 -5.593875233327047 -0.3589092182200461 0.5660926104301501 0.4271786833509654 -2.8107878691294013 0.5010874743989212 0.3851729462421863
5.027855396270752 -1.4068960708430787 1.1934993902789515 4.565936251277588 -1.4581168333636683 -5.593863073979513 -0.3586125976366229 0.5652175275697869 0.4294230148945588 -2.807575175801957 0.5002698123829452 0.38714970587156733
5.027867317199707 -1.4102511566928406 1.1934879461871546 4.56593577444043 -1.4581287542926233 -5.593899075184957 -0.3583384259819823 0.564361453447686 0.43160460342164964 -2.8044454876003395 0.49936921282300883 0.3890743973478962
5.027867317199707 -1.4135092806867142 1.193535629902975 4.565972014064453 -1.4581649939166468 -5.593899075184957 -0.3580513830146789 0.5635135790388954 0.4336781765097546 -2.801476069583403 0.4985894958543008 0.3908575497350802
5.027879238128662 -1.4166249197772522 1.1935108343707483 4.566020174617432 -1.4581406752215784 -5.593851153050558 -0.3577998921648217 0.5626935309974466 0.43569822921536555 -2.7986007637770243 0.49786959342521725 0.3926809186060788
5.027831554412842 -1.419704408650734 1.1934755484210413 4.566056891078613 -1.4581049124347132 -5.593863073979513 -0.357520417839792 0.5619010893931774 0.43770096057951435 -2.7957289306420625 0.49714815973088916 0.3944821202169605
5.027855396270752 -1.4226429921439667 1.1935232321368616 4.566032095546387 -1.4581049124347132 -5.593887154256002 -0.3572823839239576 0.5611201380886637 0.4395732004685261 -2.7930220118900495 0.49635834473300816 0.39615325127836415
5.027843475341797 -1.4254189741662522 1.1935108343707483 4.566044016475342 -1.458081070576803 -5.593851153050558 -0.35704306924236895 0.5603875380937268 0.4413667087623754 -2.790431249720411 0.49573267500838536 0.3977777402261444
5.027819633483887 -1.4280673277429123 1.1935718695269983 4.5660435396381835 -1.4581049124347132 -5.593851153050558 -0.35679140909550566 0.5596862131573809 0.4430343258960294 -2.787999688053741 0.4951292849901569 0.3992199768801146
5.027879238128662 -1.430352972154953 1.1934879461871546 4.566091700191162 -1.4581287542926233 -5.593863073979513 -0.356619474152209 0.5590568252296924 0.44454167804935973 -2.7858473401670882 0.494460946723472 0.4005236960973703
5.027879238128662 -1.4325054299882432 1.1935232321368616 4.566055937404297 -1.4581049124347132 -5.593863073979513 -0.35643865970120997 0.5584791127143457 0.44591089912159226 -2.7838457339760754 0.4939224370607168 0.40178050297232965
5.027867317199707 -1.4342255306294938 1.1934993902789515 4.566055937404297 -1.458092991505758 -5.593839232121603 -0.35628507507290463 0.558020960079058 0.4470285302407765 -2.782213816593616 0.4935380225208006 0.40279046677077457
5.027867317199707 -1.4354731899550934 1.1935833136187952 4.566079779262207 -1.4581287542926233 -5.593875233327047 -0.35616012330589275 0.5576705742298883 0.44777350473470523 -2.7811415201042493 0.49321287256423396 0.4033843836776139
5.027879238128662 -1.4361224633506318 1.1935470739947718 4.566055937404297 -1.4581168333636683 -5.593863073979513 -0.35611585991683087 0.5574988173487219 0.4482158479533995 -2.7804856722472273 0.4930353890614535 0.40380792548869787
5.027867317199707 -1.43607750654731 1.193559471760885 4.566103621120117 -1.4581049124347132 -5.593899075184957 -0.35611249144185986 0.5575020501632455 0.44817051114784145 -2.7805886566615285 0.493024557901026 0.4037529511154284
5.027843475341797 -1.4357611697963257 1.1937177816974085 4.56611601888623 -1.4581406752215784 -5.593887154256002 -0.3561099271675278 0.5575768109675886 0.4478719125375604 -2.781020960264845 0.4932023508161886 0.4034278257493049
5.027819633483887 -1.4353654843619843 1.1937163511859339 4.566213770503662 -1.4581049124347132 -5.593875233327047 -0.3561343210359673 0.5576677948835521 0.44760048144363196 -2.7814829207771976 0.4933662480582801 0.4031917192457453
5.027843475341797 -1.4350078117898484 1.1936920324908655 4.566322012538574 -1.4581406752215784 -5.593875233327047 -0.35616273078386373 0.5577393400353503 0.447362533368592 -2.781891190940718 0.49345120574804785 0.4029002357799966
5.027843475341797 -1.4348062139800568 1.1937397162066858 4.56649033605542 -1.4581406752215784 -5.593851153050558 -0.35616642705814844 0.557750912084011 0.4471715233411644 -2.7822778052480177 0.49358923915868974 0.4026684283058243
5.027831554412842 -1.4348204892924805 1.1937158743487757 4.566645784968994 -1.4581049124347132 -5.593887154256002 -0.3561580864149318 0.5577167889272316 0.4471642392566731 -2.782400575204012 0.49357675370739706 0.4026372167430932
5.027843475341797 -1.4348450166038056 1.193728272114889 4.566751642818115 -1.4581406752215784 -5.593923155461447 -0.35614476350662194 0.5576847756730183 0.4471503164815721 -2.7824846511697765 0.49354107665229147 0.4025327461120284
5.027843475341797 -1.4348204892924805 1.1937158743487757 4.5667149263569335 -1.4581287542926233 -5.593863073979513 -0.3561533121999671 0.5576998461725419 0.4471495867956526 -2.7824576343324585 0.49361699166034645 0.40257534232942166
5.027819633483887 -1.4348081064275284 1.1936920324908655 4.566824122066162 -1.4581049124347132 -5.593863073979513 -0.3561407524679674 0.5576885003240063 0.44713421098496453 -2.7825487374047353 0.4936691972622516 0.40254524134386793
5.027819633483887 -1.4348445695689698 1.1937034765826624 4.566788359279297 -1.4581049124347132 -5.593863073979513 -0.3561396213924432 0.5576849621884498 0.44715812275828715 -2.782492001122806 0.4936539783210582 0.4025797640416607
5.027795314788818 -1.4348691564849396 1.1937397162066858 4.566811247462891 -1.458081070576803 -5.593887154256002 -0.35612719245427576 0.5576748228392715 0.4471488220997637 -2.782527311025125 0.49365678302197985 0.4025800693969414
5.027783393859863 -1.434868649845459 1.193728272114889 4.566811247462891 -1.4581049124347132 -5.593887154256002 -0.35611460429825814 0.5576831160356481 0.4471544750072307 -2.782504455277042 0.4936756446664379 0.40255298816200163
5.027795314788818 -1.4348081213286896 1.1937158743487757 4.566823645229004 -1.4581049124347132 -5.593887154256002 -0.3561262175270522 0.5576941533668938 0.4471204134872424 -2.782565213756726 0.49367434634589435 0.40252122892200676
5.027831554412842 -1.4347963345101853 1.1937397162066858 4.566871805781982 -1.4581049124347132 -5.593899075184957 -0.35614300803684085 0.5576707962202994 0.4470892376684801 -2.7826579813415595 0.49362874197964307 0.4024790562073293
5.027855396270752 -1.4348326486400147 1.1936920324908655 4.566883249873779 -1.458092991505758 -5.593923155461447 -0.35615752986791177 0.5576549843211649 0.4471383534325084 -2.782606195604752 0.49354159848257617 0.4025355719682626
5.027843475341797 -1.434856892829277 1.193667236958639 4.566871328944824 -1.458081070576803 -5.593863073979513 -0.35615388006856596 0.5576572982509238 0.4471711031274903 -2.782540945158666 0.49362498557373835 0.4025962247631113
5.027807712554932 -1.434868649845459 1.1937158743487757 4.566907091731689 -1.4581168333636683 -5.593887154256002 -0.35611858600636204 0.5576563237052905 0.44714201303667517 -2.7825867761865775 0.4936659757482625 0.4024957301647664
5.027831554412842 -1.434844509964325 1.1937034765826624 4.566907091731689 -1.4581287542926233 -5.593887154256002 -0.35613129701791146 0.5576571902815745 0.44713342541063417 -2.7826020262044953 0.4936387880080094 0.4024790170554672
5.027855396270752 -1.4347845029881974 1.1937158743487757 4.5668956476398925 -1.4581530729876917 -5.593875233327047 -0.35614357884608916 0.5576682879833837 0.447089341444795 -2.7826572498101605 0.4936432297436145 0.40242102308273836
5.027807712554932 -1.4347965580276032 1.1937158743487757 4.566931410426758 -1.4581530729876917 -5.593899075184957 -0.356113361635041 0.5576741875120202 0.4470898499416499 -2.782665679369101 0.493681042383289 0.40239170715900396
5.027843475341797 -1.4348326933434983 1.1937511602984827 4.566942854518555 -1.4581168333636683 -5.593899075184957 -0.3561376439916723 0.5576408950123231 0.44709117864326153 -2.782701067270866 0.4936267058878437 0.4024402381226167
5.027819633483887 -1.4348326933434983 1.1937397162066858 4.5669190126606445 -1.4581049124347132 -5.593839232121603 -0.35612977415988156 0.5576548822023927 0.4471030110561073 -2.782655594212545 0.4937324079008912 0.4024835840806643
5.027831554412842 -1.4348566395095368 1.193728272114889 4.566943331355713 -1.4581168333636683 -5.593910996113912 -0.3561298186913307 0.5576415418452283 0.4471197738114052 -2.782655164544058 0.4936147934717281 0.4024612955323585
5.027843475341797 -1.4348573845675965 1.1937034765826624 4.567042036647461 -1.4581049124347132 -5.593887154256002 -0.3561336040078585 0.5576175321361633 0.4471151398992582 -2.7827285734370815 0.49364804238708815 0.4024430611649595
5.027904033660889 -1.4350270640901108 1.1937034765826624 4.567087813014648 -1.458092991505758 -5.593910996113912 -0.3561523724702449 0.5575388303403358 0.44721497347864014 -2.7826418611121997 0.4934982436342083 0.40253705185739025
5.027927398681641 -1.4351577919772645 1.193655792866842 4.5671111780354 -1.4581049124347132 -5.593899075184957 -0.35615097694087416 0.557497433560579 0.4473214736732627 -2.7824995038563247 0.4934473748641418 0.4026177345470802
5.027867317199707 -1.435217635040619 1.1936553160296839 4.5671350198933105 -1.4581049124347132 -5.593863073979513 -0.35611051673441263 0.5574974770054543 0.4473552794014647 -2.7824390832474375 0.4935716550047469 0.40263315672919886
5.027867317199707 -1.435326562528946 1.1936081091510218 4.567099257106445 -1.4581049124347132 -5.593851153050558 -0.35610546262631204 0.5574819370368723 0.44745981333754536 -2.782258231015388 0.49354085126930203 0.4027448431181543
5.027867317199707 -1.435445861225464 1.1936314741717737 4.567110701198242 -1.4581406752215784 -5.593851153050558 -0.3560834364736527 0.5574477086372998 0.44751925966619976 -2.7821667325375903 0.49352776984841573 0.40274694028864116
5.027867317199707 -1.4355289053967972 1.1935718695269983 4.567110701198242 -1.4581649939166468 -5.593887154256002 -0.3560720204067272 0.5574354213645186 0.44760650933168034 -2.782029875516903 0.49344705864809946 0.40278874353672545
5.027891635894775 -1.4355894935182114 1.193594757710592 4.567086859340332 -1.4581168333636683 -5.593887154256002 -0.35609403889869234 0.5574076890753183 0.44763819320826825 -2.7819980300645475 0.49338780945021593 0.4028910123522878
5.027879238128662 -1.4357738059810181 1.1934621969806116 4.567086859340332 -1.4581168333636683 -5.593887154256002 -0.3560764257193575 0.5573793391862192 0.447833570409673 -2.7816976116457774 0.49332651133500194 0.40306828548077533
5.0279035568237305 -1.4362320017865677 1.1934154669391077 4.567099257106445 -1.4581406752215784 -5.593839232121603 -0.3560440959242019 0.5572521041538961 0.4481510929958832 -2.781231225865632 0.4932441354637146 0.4033336141356846
5.027843475341797 -1.4367127579501648 1.193463150654928 4.567074938411377 -1.4581530729876917 -5.593875233327047 -0.35596447712712104 0.5571432894853355 0.4484356851689624 -2.7807832178796352 0.4931650945545016 0.40355608048441427
5.027843475341797 -1.4373032313636322 1.193378750477926 4.567110701198242 -1.4581287542926233 -5.593887154256002 -0.3559197492730915 0.5569832941248543 0.4488564196200103 -2.7801963289195593 0.4929849869391883 0.403947573233186
5.027855396270752 -1.4380989980748673 1.193390194569723 4.567123098964355 -1.458092991505758 -5.593887154256002 -0.35586414142724815 0.5567544430603726 0.4493575642140171 -2.779491985943688 0.4927697303315066 0.4044343247148298
5.027843475341797 -1.439193771486618 1.1932457129107874 4.567099257106445 -1.4581049124347132 -5.593899075184957 -0.35576463817205356 0.5564846603049216 0.4501467458941458 -2.7783049718107784 0.49245930284992695 0.4051300062344277
5.027843475341797 -1.4404087227633973 1.1931608358966272 4.567099257106445 -1.4581168333636683 -5.593875233327047 -0.3556565919070563 0.5561639992559486 0.45097282177383413 -2.777082820373506 0.49217390779682196 0.4058567229443734
5.027807712554932 -1.4419009995511551 1.1929681936847132 4.567110701198242 -1.4581406752215784 -5.593899075184957 -0.3555038485600151 0.5557910644550297 0.4520359501156133 -2.7755007741581625 0.4917807375306007 0.40676013341232886
5.027819633483887 -1.4436794829419632 1.1927884260760706 4.567063017482422 -1.4581168333636683 -5.593875233327047 -0.355367933289231 0.5553267656141168 0.4532871449577516 -2.7736348507126496 0.4912962797598052 0.40793315850822626
5.027831554412842 -1.4457972210696717 1.1926572958575647 4.567074938411377 -1.4581049124347132 -5.593851153050558 -0.35519116675395807 0.5547482242833741 0.45471296236675635 -2.7715482139472103 0.49075790057100316 0.4092200869673377
5.027855396270752 -1.4481379327229043 1.1924775282489222 4.567051096553467 -1.4581049124347132 -5.593910996113912 -0.3550009581886531 0.5541150596680866 0.45631503560294784 -2.7691848556178416 0.49001203179754427 0.41064660096876965
5.027855396270752 -1.4508550775102158 1.1921995321856897 4.567110701198242 -1.4581049124347132 -5.593851153050558 -0.35475978320869034 0.5533746715106622 0.45819552998401814 -2.766430026921669 0.4893706525870841 0.41231312019058225
5.027807712554932 -1.4537967827967186 1.19171649614443 4.567074938411377 -1.4581049124347132 -5.593863073979513 -0.35448443379282857 0.5526272039449652 0.46035648294362197 -2.763175463681654 0.4885636872336941 0.41424325236506765
5.027843475341797 -1.4570292618921776 1.191064182912008 4.567086859340332 -1.4581287542926233 -5.593851153050558 -0.3542224928259279 0.5517721909467177 0.4627885135362013 -2.759551456523562 0.4875807808912714 0.41639477656599777
5.027819633483887 -1.4604724881104012 1.1901610533343714 4.567074938411377 -1.458092991505758 -5.593863073979513 -0.35393208571731594 0.5508964023161409 0.46550538059236257 -2.7554736392845225 0.4865121050161707 0.4188681838118916
5.027819633483887 -1.4640791726163407 1.1888464132892054 4.567086859340332 -1.458092991505758 -5.593899075184957 -0.3536392226252516 0.5499980610944405 0.46855864622457866 -2.7508759746528404 0.4852506735210344 0.4215956481855776
5.027819633483887 -1.4677906867912789 1.1870067755328577 4.567099257106445 -1.458092991505758 -5.593839232121603 -0.35335009808597556 0.5491116926858916 0.47198406272899274 -2.7456726420219923 0.48396860571429745 0.4246868753547632
5.027807235717773 -1.471609317963459 1.184793774281637 4.567051096553467 -1.4581168333636683 -5.593851153050558 -0.3530483710929729 0.5482344337674718 0.4757066670853548 -2.7399546412022495 0.48247639977570317 0.4280152670177787
5.027758598327637 -1.4756820437363167 1.1822360197650355 4.567074938411377 -1.458081070576803 -5.593851153050558 -0.3527175238629539 0.5472861123688041 0.4797768403736938 -2.733743787517835 0.480906130791707 0.4316897971343873
5.027625560760498 -1.4798576098731537 1.1793459097491663 4.567110701198242 -1.458092991505758 -5.593875233327047 -0.3523189210492197 0.5463456620040459 0.48410148685827337 -2.7270868168535807 0.4793245185557137 0.43549210416100637
5.027566432952881 -1.4840376836112519 1.1762884298907679 4.567074938411377 -1.4581406752215784 -5.593887154256002 -0.35195128593049707 0.5453831587489597 0.48853995165685127 -2.720208025718384 0.4776102993331291 0.4393860529682916
5.027507305145264 -1.4883518678000947 1.1732085386859339 4.567074938411377 -1.4581406752215784 -5.593899075184957 -0.35157139305003826 0.544338114768124 0.49306711023110217 -2.713226390804037 0.4758549379307417 0.44338688314937436
5.027471542358398 -1.4927934122136612 1.1701553503619593 4.567063017482422 -1.4581530729876917 -5.593851153050558 -0.35117760030996975 0.5432143021326208 0.49765761300450717 -2.70612986972556 0.47412697758804956 0.4474360902717605
5.027400016784668 -1.4971889045885582 1.1671364943133753 4.567039175624512 -1.458092991505758 -5.593851153050558 -0.3507783172540768 0.5420776967158837 0.5022003547771682 -2.6991101036994833 0.4723782007624641 0.45149698703354785
5.027411937713623 -1.501629316513874 1.1642974058734339 4.567039175624512 -1.4581049124347132 -5.593863073979513 -0.35038379069725906 0.54085441526541 0.5066535740669279 -2.6922409665418563 0.47056178944456994 0.4553834329427518
5.027412414550781 -1.5059494462660332 1.161285702382223 4.567051096553467 -1.458092991505758 -5.593863073979513 -0.34999578701235357 0.5396522215524774 0.5111284499300291 -2.685330893542905 0.46876156471387426 0.4593032029811016
5.027376174926758 -1.5101086881807824 1.1580727736102503 4.567051096553467 -1.458092991505758 -5.593851153050558 -0.34959747949275166 0.5385033690372022 0.5156216528172011 -2.6783476433803504 0.4670177269612565 0.46321037473296667
5.027315139770508 -1.5140537482551117 1.154569451008932 4.567086859340332 -1.4581287542926233 -5.593887154256002 -0.3491934727559217 0.5374201968098445 0.5201424794146832 -2.6713052923644565 0.46524335180094073 0.4670546289083209
5.027292251586914 -1.5177586574903508 1.1507447401629847 4.567099257106445 -1.4581287542926233 -5.593863073979513 -0.3488439298995579 0.5363947252084627 0.5247096380916179 -2.6641771768057096 0.4634653229621337 0.4710078979374306
5.027292728424072 -1.5212147694877167 1.1467273871051233 4.567063017482422 -1.4581049124347132 -5.593851153050558 -0.34853751122438686 0.5354329839809548 0.5292476358556831 -2.657068288987328 0.4616356879688844 0.47497094521776506
5.027304649353027 -1.5245847192457695 1.1425803343402308 4.567051096553467 -1.4581049124347132 -5.593839232121603 -0.3482308369542356 0.5344701922014755 0.5338019041210362 -2.6499317347023728 0.45979488676964797 0.47889927526139947
5.027243614196777 -1.5278079037419339 1.1385825316058558 4.567051096553467 -1.4581049124347132 -5.593863073979513 -0.34788877321679545 0.53354365148937 0.538172250944291 -2.643060293702505 0.45807738129706876 0.482616038667545
5.0272440910339355 -1.5308459673872967 1.1346896330462855 4.567039175624512 -1.4581406752215784 -5.593863073979513 -0.34758126639476306 0.5326342578427153 0.5423662334969046 -2.6364552715231944 0.45639215699110924 0.48615464936920927
5.027232646942139 -1.5337791641107579 1.1308930555926722 4.56708733617749 -1.4581287542926233 -5.593887154256002 -0.3472789575214435 0.5317198946384081 0.5464237248274808 -2.63010821592424 0.4547400803908411 0.4895905254506547
5.027244567871094 -1.5364076432636757 1.12687856355776 4.567110701198242 -1.4581049124347132 -5.593863073979513 -0.34702439733921847 0.530895146858743 0.5504291736696747 -2.623823006820395 0.45313431585545355 0.4930171088279402
5.027158737182617 -1.5387347799590607 1.1226075331317347 4.567110701198242 -1.4581049124347132 -5.593887154256002 -0.346743854657799 0.5302064325291225 0.5544073216273927 -2.6175168928760297 0.4516042600993221 0.4963419402200614
5.02706241607666 -1.540628719409444 1.118373219166891 4.567051096553467 -1.4581287542926233 -5.593875233327047 -0.34649953150331586 0.529671741836532 0.5581116413459237 -2.6115823974793013 0.45024390012977844 0.49942333274208783
5.026943206787109 -1.542176804771163 1.1144841353045862 4.567086382503174 -1.458092991505758 -5.593910996113912 -0.3462866314836012 0.5292226017236163 0.5613766554548616 -2.6064097098519157 0.4490218141840718 0.5021443837447178
5.026897430419922 -1.5434012909284611 1.111251179371969 4.567086859340332 -1.4581049124347132 -5.593875233327047 -0.34613197261829515 0.5288513897518047 0.5640583870242561 -2.6021381701440793 0.4480465384275935 0.5043707079080542
5.026909351348877 -1.5443422061255951 1.1088135878192347 4.567051096553467 -1.4581049124347132 -5.593875233327047 -0.34603981422834207 0.5285466157290013 0.5661000324655974 -2.5988869089922284 0.44719994158978144 0.5060894149054584
5.026860237121582 -1.5451563701829691 1.1071293989764612 4.567099257106445 -1.4581049124347132 -5.593875233327047 -0.34591984832480177 0.5282759578823614 0.5675929207396443 -2.59653290060638 0.44666641884763936 0.507301202456218
5.026763916015625 -1.545557589536049 1.1064417997943323 4.567026777858398 -1.4581168333636683 -5.593863073979513 -0.3458237578180908 0.5281818271610468 0.5682663907406909 -2.5953865225950796 0.4465264200202127 0.5078397294736251
5.026655197143555 -1.5456968502006312 1.1064723173724573 4.567110701198242 -1.458092991505758 -5.593863073979513 -0.3457502990588744 0.5281477388431588 0.5683132069209972 -2.595332659263556 0.44665115190337434 0.5078443155104048
5.026389122009277 -1.5454995811781664 1.1065548102008265 4.567159338588379 -1.458081070576803 -5.593899075184957 -0.34563436939962855 0.5283044125341109 0.5681320995505397 -2.595560364818665 0.44701939915401545 0.5075922341516671
5.025965213775635 -1.545248682876565 1.1065428892718714 4.567135496730469 -1.458069149647848 -5.593875233327047 -0.3454463800275269 0.5285508469178528 0.5679924266617682 -2.595619007584071 0.44764021099603174 0.5073636311381664
5.025216579437256 -1.545154557829239 1.106602970753805 4.567219896907471 -1.458081070576803 -5.593887154256002 -0.3450538902873449 0.5288307956794146 0.5678782666723208 -2.5955820149188416 0.4486426217252599 0.5069729448322394
5.0241193771362305 -1.5451198381236573 1.1065786520587366 4.567183657283447 -1.4581049124347132 -5.593863073979513 -0.34447354287895754 0.529231869922467 0.5678798407600786 -2.5951629989654035 0.4500761491518217 0.5065942446807905
5.022590637207031 -1.5452174742570897 1.1066024939166468 4.567207022304199 -1.458069149647848 -5.593863073979513 -0.3436602086666013 0.5297118106644759 0.5679203427292514 -2.59459017057944 0.4520016158669416 0.5061457248122553
5.020620346069336 -1.5453374341926356 1.1066144148456019 4.567207022304199 -1.458092991505758 -5.593887154256002 -0.34259461258760027 0.530343819175876 0.5679856972792284 -2.5937886753250594 0.4544639715609081 0.5054959767612875
5.018348217010498 -1.5453602515957137 1.1065424124347132 4.567230864162109 -1.458092991505758 -5.593875233327047 -0.3413850030780889 0.5311091924477906 0.568036912322647 -2.5929178480139945 0.4573585791300311 0.5047660556695497
5.0155134201049805 -1.5453479078463097 1.1065786520587366 4.567194624538086 -1.458081070576803 -5.593863073979513 -0.33988458696706797 0.5320841001857662 0.5680168144374984 -2.591927879030712 0.46098526938948 0.5038181056875523
5.012319564819336 -1.545299382214882 1.1065786520587366 4.567183180446289 -1.458081070576803 -5.593910996113912 -0.33818989267512445 0.5331877577015312 0.5679900197446177 -2.5908316677630148 0.4649986098121123 0.5027008664420923
5.008622646331787 -1.545323872273304 1.1066144148456019 4.567207022304199 -1.458081070576803 -5.593839232121603 -0.3362120418538314 0.5344199475101681 0.5679777440474303 -2.5895346955168357 0.46980716607276657 0.5014538909812754
5.004459381103516 -1.5453239244273682 1.1065543333636683 4.567218943233154 -1.458092991505758 -5.593923155461447 -0.33398063754938007 0.5358152572236988 0.5680105326879114 -2.5879962574977724 0.4749835335596931 0.5000209686351273
4.999924659729004 -1.545347885494568 1.1065786520587366 4.567218943233154 -1.458092991505758 -5.593887154256002 -0.33154455911971686 0.5373144684321021 0.5680105786683407 -2.5863503005958273 0.4807938670689238 0.4984917359699331
4.99500846862793 -1.5453118842891236 1.1065786520587366 4.5672547060200195 -1.4580567518817347 -5.593887154256002 -0.32891110960686804 0.5389419910560351 0.5679808965078238 -2.584637560748892 0.4870426589744969 0.49682832700251256
4.989755630493164 -1.5452998217991372 1.1065786520587366 4.567218943233154 -1.4581049124347132 -5.593863073979513 -0.3260656116371199 0.5406780069766413 0.5679809723251655 -2.582666873929267 0.4937483894831978 0.49500032579325093
4.98427677154541 -1.545347885494568 1.1065905729876917 4.567218943233154 -1.4580448309527796 -5.593899075184957 -0.3231096091923756 0.5424316497349437 0.5680047051332998 -2.580628068982726 0.5006150037849928 0.49320985230019015
4.978366851806641 -1.5453360390714188 1.1065543333636683 4.5672547060200195 -1.458069149647848 -5.593863073979513 -0.319891260584139 0.5443329008831366 0.5680098506992145 -2.578420643378622 0.5081563056336524 0.49116921213989
4.972226142883301 -1.54531190105293 1.1065424124347132 4.567218943233154 -1.4581049124347132 -5.593851153050558 -0.31653711062329154 0.5463063768487844 0.5680100283369166 -2.576073791039545 0.5159438046403608 0.48904120111960503
4.965681076049805 -1.5453239244273682 1.1065905729876917 4.567290945644043 -1.4581168333636683 -5.593910996113912 -0.312946634969789 0.5483488673433727 0.5679707177966509 -2.573695601594999 0.5241671613532058 0.48671475602944747
4.958895683288574 -1.5453239244273682 1.1065667311297815 4.56730238973584 -1.4581049124347132 -5.593899075184957 -0.3092215753258248 0.5504570446165888 0.5679825213555653 -2.5710853911870273 0.5327368577366166 0.4844127348380809
4.951919078826904 -1.5453239244273682 1.1065905729876917 4.567267103786133 -1.4581049124347132 -5.593851153050558 -0.3053752235508659 0.5526068608209308 0.5679768235524617 -2.56836819647508 0.5415877192726781 0.48203887871629814
4.944737434387207 -1.5453239244273682 1.1065543333636683 4.567242785091064 -1.458092991505758 -5.593863073979513 -0.3014032683998587 0.5547897952643899 0.5680047389875817 -2.565511111830181 0.5505887702490304 0.47960712657390203
4.937341213226318 -1.5453118842891236 1.1065543333636683 4.56727854787793 -1.4581049124347132 -5.593910996113912 -0.2972879899435603 0.5570030951204137 0.5679883980503936 -2.5626431360278703 0.559839088890838 0.4770068546754932
4.9298248291015625 -1.5453239244273682 1.1065786520587366 4.56730238973584 -1.458092991505758 -5.593899075184957 -0.29309419305716367 0.5592113462583189 0.5679756978654215 -2.5596852108853505 0.5692943013853833 0.4744164623882245
4.922125339508057 -1.545347885494568 1.1065667311297815 4.56730238973584 -1.458081070576803 -5.593875233327047 -0.28878126338317395 0.5614412299031365 0.567997749623597 -2.5565533590646177 0.5789599212737859 0.4717949398483481
4.9142632484436035 -1.5453239244273682 1.1065667311297815 4.567267103786133 -1.4581168333636683 -5.593887154256002 -0.28435154181607963 0.5637129265742925 0.5679907831900953 -2.553338853353982 0.5887908340041219 0.46903096041793607
4.906304836273193 -1.545299844150879 1.1065543333636683 4.567314787501953 -1.458069149647848 -5.593863073979513 -0.27986989540393303 0.5659556641918675 0.5679731915169538 -2.550138422810654 0.598767928948124 0.46631325635282356
4.898239612579346 -1.5453118805638333 1.1066024939166468 4.567290945644043 -1.458092991505758 -5.593851153050558 -0.2752893480576277 0.5681947541069121 0.5679568663491281 -2.5467960844900284 0.6088564559635872 0.4634827103265464
4.88999080657959 -1.5453239244273682 1.1066024939166468 4.567338629359863 -1.458081070576803 -5.593875233327047 -0.270594022264132 0.5704318490797399 0.5679529329919455 -2.5433826553175156 0.6191067069863457 0.4606053519601815
4.881649494171143 -1.545299844150879 1.1065905729876917 4.567327185268066 -1.4580567518817347 -5.593863073979513 -0.2658354149201103 0.5726794326367919 0.5679488110626125 -2.53985841571393 0.6294874021102173 0.4577337624151777
4.873129367828369 -1.545299844150879 1.1065667311297815 4.5673510271259765 -1.4581049124347132 -5.593923155461447 -0.26093225637887163 0.5749227389694314 0.5679560271752122 -2.5362136688803654 0.640002983629507 0.4546808819184645
4.8646321296691895 -1.5452758272043248 1.1065786520587366 4.567374868983887 -1.458081070576803 -5.593910996113912 -0.25604515366457514 0.5771226966875208 0.5679290859140711 -2.532604653425431 0.6505615373666511 0.45172030597433416
4.856044292449951 -1.5452516463449975 1.1066024939166468 4.5673510271259765 -1.458081070576803 -5.593875233327047 -0.251081517793869 0.579313881214887 0.567905869314246 -2.5288726480573467 0.6612411596569858 0.44871692396350477
4.847417831420898 -1.5452397663942357 1.1066024939166468 4.5673510271259765 -1.4581168333636683 -5.593863073979513 -0.2460652866934455 0.5814650394608621 0.5678976911589825 -2.525068308800636 0.6719273879671104 0.44564778660940507
4.838841438293457 -1.5452758085778733 1.106626335774557 4.567338629359863 -1.458069149647848 -5.593839232121603 -0.2410814129248517 0.5835387217008287 0.5679096488161253 -2.5212362057911895 0.6825088780101005 0.44271294551532
4.830288887023926 -1.5452997808209439 1.1066144148456019 4.567374868983887 -1.458092991505758 -5.593887154256002 -0.23607319227093607 0.5855643387023707 0.5679219649946787 -2.5173962555785234 0.692981807178552 0.43965806469361146
4.821711540222168 -1.5452639044127245 1.1065905729876917 4.5673510271259765 -1.458081070576803 -5.593887154256002 -0.23104750225370324 0.5875864097640007 0.5679204762053659 -2.5134957831670777 0.7035123971651949 0.43665525237047553
4.813109397888184 -1.5452518829009314 1.1066024939166468 4.5673510271259765 -1.4581049124347132 -5.593863073979513 -0.22597816083764133 0.5895578752339179 0.5679053884770782 -2.509563177344831 0.7141095024735937 0.43358937399923103
4.804388046264648 -1.5452637926540156 1.1065786520587366 4.567374868983887 -1.4580567518817347 -5.593851153050558 -0.2208408677497863 0.5914953802863908 0.5679223888266807 -2.505528127894703 0.7247822259525906 0.4305752274443793
4.7956438064575195 -1.545227664788701 1.106626335774557 4.567398710841797 -1.458081070576803 -5.593839232121603 -0.21565410782994696 0.5934140613670537 0.5678653965795215 -2.5015337501453354 0.7355289932568652 0.42741367356548093
4.786841869354248 -1.5452518065324803 1.1066024939166468 4.5673510271259765 -1.4581049124347132 -5.593899075184957 -0.21041575955784164 0.5952897305261459 0.5679053419316455 -2.4973037223532746 0.7461618948035594 0.4242773457065213
4.778043270111084 -1.545227577244379 1.1066024939166468 4.56741110860791 -1.4580567518817347 -5.593863073979513 -0.20518370320782037 0.5971148988132413 0.5678772403245562 -2.4931984305384423 0.7569350459336854 0.421194836593255
4.769254207611084 -1.545191415851452 1.106626335774557 4.567399187678955 -1.4581049124347132 -5.593910996113912 -0.19991483801648968 0.5989132021781062 0.5678425622134075 -2.4890206565283797 0.7675872441454911 0.4179749150539871
4.7604522705078125 -1.5451677341810246 1.1065905729876917 4.567411585445068 -1.4581049124347132 -5.593899075184957 -0.1946359299890353 0.6006576159917091 0.5678465233038967 -2.4847505294896135 0.7782784174106888 0.41484404006798614
4.7516045570373535 -1.5451798413744946 1.106626335774557 4.5674354273029785 -1.4580329100238245 -5.593887154256002 -0.18933431491488373 0.6023440129097031 0.5678285920205914 -2.4804831557107954 0.7889991389572184 0.41176545211394416
4.74277925491333 -1.545179833923914 1.1066620985614222 4.56741110860791 -1.4581168333636683 -5.593887154256002 -0.18398705130553142 0.6039975068147965 0.5678108875470552 -2.476113384050703 0.7996931464984303 0.40850419206634947
4.734096527099609 -1.5451676037958642 1.1066620985614222 4.567471190089844 -1.458092991505758 -5.593875233327047 -0.17874256775318914 0.6055654251472943 0.5677894634417089 -2.4718590656247454 0.810199135897358 0.4054075579083387
4.725317001342773 -1.54515569404278 1.106650177632467 4.567506952876709 -1.458081070576803 -5.593887154256002 -0.17342257854606863 0.6071094914479468 0.5677809655001365 -2.467488537771013 0.8207612003460318 0.40226110690306716
4.716609954833984 -1.5451317571899672 1.106638256703512 4.567506952876709 -1.4581049124347132 -5.593863073979513 -0.16812307742546487 0.6086068498423161 0.567772886302535 -2.4630732377461255 0.8312632179273567 0.3991123546619589
4.707935810089111 -1.5450834979167958 1.106650177632467 4.567495508784912 -1.4581406752215784 -5.593887154256002 -0.16282722669101893 0.6100642929666608 0.5677381783792 -2.4586832213141583 0.8416627981258309 0.3959269336832866
4.699265003204346 -1.545119646271207 1.106638256703512 4.567519350642822 -1.458069149647848 -5.593887154256002 -0.1575523765361656 0.6114333414285839 0.5677634309996974 -2.454212822971205 0.8520056540804198 0.392904937962871
4.690676689147949 -1.5450957466712971 1.1066983381854456 4.567542715663574 -1.4581168333636683 -5.593851153050558 -0.15228155548146266 0.612768550384302 0.5677059763048983 -2.449823449098722 0.8623654638832269 0.3897306084332015
4.68212366104126 -1.5450957168689747 1.1066983381854456 4.567531271571777 -1.4581168333636683 -5.593851153050558 -0.14703496138521968 0.6140507325035817 0.5677087376759478 -2.445332865923505 0.872554837559796 0.38664908692214495
4.67356538772583 -1.5450473178974171 1.1066859404193323 4.567579432124756 -1.4581049124347132 -5.593899075184957 -0.1417774309671578 0.6152973942938618 0.567675273998844 -2.4409108489858937 0.8827060227829969 0.3835300616570284
4.664991855621338 -1.5450356540134926 1.1066859404193323 4.567614718074463 -1.458081070576803 -5.593887154256002 -0.13650399850546358 0.6164883555559457 0.5676602202942669 -2.436393026255667 0.8929113785418868 0.3804498742367775
4.6564788818359375 -1.5450118158808728 1.1067102591144007 4.567603273982666 -1.458069149647848 -5.593875233327047 -0.13125379808680093 0.6176393164911611 0.5676342264859141 -2.4318590750394375 0.90302414692604 0.37737596149439023
4.647979736328125 -1.5450477258167048 1.1067102591144007 4.567614718074463 -1.458081070576803 -5.593875233327047 -0.125997335397444 0.6187158874765453 0.5676530225728409 -2.4272394292613892 0.9130673201930088 0.374286847911794
4.639620304107666 -1.5450237610242148 1.1066859404193323 4.567639036769531 -1.4581287542926233 -5.593863073979513 -0.12080662481680741 0.6197530190419366 0.5676458150040891 -2.4226907514995113 0.9229724286013433 0.3711898827783785
4.631237506866455 -1.5450237722000857 1.1067341009723108 4.567650957698486 -1.4581049124347132 -5.593923155461447 -0.11561435962997897 0.6207408750130976 0.5676147262915141 -2.4181746283980465 0.932788738893952 0.3681344140796339
4.622892379760742 -1.5450118661722918 1.1067221800433558 4.56773488103833 -1.458069149647848 -5.593887154256002 -0.11044150902567752 0.6216738246374335 0.5675951633068101 -2.4136330912291184 0.9426676839252599 0.36513290994653236
4.614588737487793 -1.5450114638409396 1.1066983381854456 4.567674799556396 -1.4581168333636683 -5.593910996113912 -0.1052606435682575 0.6225807311283793 0.567622526920963 -2.4089310996410345 0.9523566286812111 0.36206179735832045
4.606338024139404 -1.5449513153037806 1.106769863759176 4.567710562343262 -1.458069149647848 -5.593899075184957 -0.10013247575144532 0.6234447732453033 0.5675356216105947 -2.404462758382455 0.9620892486586556 0.3590721268931401
4.598086833953857 -1.5449153457633038 1.1067817846881312 4.567710562343262 -1.458081070576803 -5.593863073979513 -0.09497987666564744 0.6242637986320224 0.5675062489884941 -2.399827886627031 0.9717988776964956 0.35604510865413624
4.5898847579956055 -1.5448912654868145 1.106757942830221 4.567746801967285 -1.4581049124347132 -5.593851153050558 -0.08984913213348927 0.6250248555512712 0.5674964163321939 -2.3951842782797628 0.9814009553861414 0.3530120665589216
4.581836700439453 -1.5448788211545725 1.106757942830221 4.56775872289624 -1.458092991505758 -5.593887154256002 -0.08481911545553142 0.6257307482498293 0.5674862492420204 -2.3906152259847118 0.9907290688233676 0.350062897470571
4.573728084564209 -1.544794862424471 1.106769863759176 4.567770643825195 -1.458069149647848 -5.593863073979513 -0.07974509010005237 0.6264296909169869 0.5674256669507538 -2.3860326807346564 1.0002170805940325 0.3471047838303798
4.565596103668213 -1.544734639381506 1.1067937056170862 4.567722960109375 -1.458081070576803 -5.593923155461447 -0.0746401683061325 0.627089589722954 0.5673859482005885 -2.3813676701289306 1.0095885798103676 0.3440770032048184
4.557499408721924 -1.5447107677212735 1.1068418661700647 4.567770643825195 -1.458081070576803 -5.593887154256002 -0.0695604545928359 0.6276731518037973 0.56733099600762 -2.376727844933057 1.0190531909861817 0.3410897093668433
4.549349784851074 -1.5445902918330212 1.1067941824542444 4.567734404201172 -1.4581049124347132 -5.593910996113912 -0.06442682642559835 0.6282742361840545 0.5672942579133411 -2.3719712541821796 1.0284554834172404 0.3380479561968705
4.5411834716796875 -1.5445910108140488 1.1068056265460413 4.567698641414307 -1.458092991505758 -5.593875233327047 -0.05929645448116412 0.6287858434889698 0.5672968404086641 -2.367101615351804 1.03788992305225 0.33507849719784366
4.533102512359619 -1.5445187420449038 1.1068056265460413 4.567746801967285 -1.458081070576803 -5.593910996113912 -0.05421317041421212 0.6292648225978685 0.5672414016911568 -2.3624116516984888 1.0471889798514835 0.3320779743568993
4.524840831756592 -1.544483033274748 1.1068418661700647 4.567746801967285 -1.4580567518817347 -5.593899075184957 -0.04901703916711114 0.629705581360817 0.5671985784678952 -2.3575208520410644 1.0567071485834634 0.32905268982677505
4.516493320465088 -1.5444471959820767 1.1068781057940882 4.567722960109375 -1.4581049124347132 -5.593839232121603 -0.043741553500642294 0.6301087829393952 0.567159560396069 -2.3524843259498067 1.066372428747052 0.32592402049828917
4.50802755355835 -1.5444114574095984 1.106842343007223 4.567770643825195 -1.458081070576803 -5.593887154256002 -0.03841122380406976 0.6304636597863891 0.567148226707565 -2.3474098368641956 1.0759993751404462 0.3228005301958805
4.49954891204834 -1.5444475275329133 1.1069253126727503 4.56775872289624 -1.458092991505758 -5.593887154256002 -0.03306403018499647 0.6307523815358925 0.5671231430222483 -2.3422516685845673 1.0856822213917892 0.3196442672449551
4.491104602813721 -1.5443753127804776 1.1069014708148401 4.567794485683105 -1.458081070576803 -5.593839232121603 -0.027734969715707745 0.6310321116355098 0.5670850144395918 -2.337106808924357 1.0953793300951595 0.3165357643465655
4.482497215270996 -1.5443633545986195 1.1069014708148401 4.567770643825195 -1.4580567518817347 -5.593910996113912 -0.02230731050403967 0.6312576832624981 0.5670841466916842 -2.3318037192900833 1.1050444941714832 0.3133546984284775
4.473973751068115 -1.5443270441940804 1.1069133917437952 4.567746801967285 -1.4581287542926233 -5.593875233327047 -0.01690106042388701 0.6314395608436644 0.5670587668920456 -2.3264747252048417 1.1147692042877364 0.3101117209957364
4.46550989151001 -1.5442423310926934 1.1069014708148401 4.567770643825195 -1.4581287542926233 -5.593875233327047 -0.011548729454801065 0.6315891346209666 0.5670084586963156 -2.3212470783528563 1.124376121848203 0.3069525084020109
4.457093715667725 -1.5441453152200957 1.1069014708148401 4.56775872289624 -1.458081070576803 -5.593899075184957 -0.006235898018328521 0.6317067360272972 0.5669534392745063 -2.316029671092584 1.1338588277486905 0.3038625852981774
4.448653221130371 -1.5440251373550673 1.1069253126727503 4.56778256475415 -1.458092991505758 -5.593887154256002 -0.0008890383290008734 0.6317782976357629 0.566859779935671 -2.310802691260434 1.1434513231820504 0.30068403425264206
4.440225601196289 -1.5438440919718524 1.1069014708148401 4.567806883449219 -1.458081070576803 -5.593887154256002 0.004450574762802426 0.6318306648445434 0.566758037864375 -2.3055738840839695 1.1529940461032333 0.29753223737472745
4.431867599487305 -1.5436394263855 1.1069014708148401 4.56778256475415 -1.4581049124347132 -5.593899075184957 0.009762131939351323 0.6318537231245427 0.5666384626908939 -2.300353175439698 1.1624343731332498 0.29435515229477494
4.423507213592529 -1.543386572306492 1.1069014708148401 4.567794485683105 -1.4581049124347132 -5.593887154256002 0.015072786016090065 0.6318457907111369 0.5664813053599747 -2.2951637970450602 1.1719220175893323 0.29120121250083314
4.4151153564453125 -1.543098024358489 1.1069615522967737 4.567818327541016 -1.458069149647848 -5.593875233327047 0.02039695845992952 0.6318053723990257 0.5662644343501964 -2.290021170465195 1.1814703395836943 0.2880633897835302
4.406867980957031 -1.5427488696626206 1.1069496313678187 4.567770643825195 -1.4581168333636683 -5.593887154256002 0.025665552509370707 0.6317554356389855 0.5660687714402721 -2.284861765506278 1.1907923308745973 0.2848774692496275
4.398657321929932 -1.5423886732063075 1.1069615522967737 4.567830725307129 -1.4581168333636683 -5.593910996113912 0.030893127555574742 0.6316506468411537 0.5658271866692901 -2.2798333954302197 1.2001021412295936 0.2817399885078743
4.3905029296875 -1.542015928109624 1.1069014708148401 4.567818327541016 -1.4581049124347132 -5.593863073979513 0.036088209860557705 0.6315246125505709 0.5656388515538765 -2.274661951474781 1.2093404886055497 0.27868589357333984
4.382434368133545 -1.5415722497603674 1.1069372336017054 4.567830725307129 -1.4581287542926233 -5.593863073979513 0.04124611882910348 0.6313771798408881 0.5653428279046778 -2.269695966129499 1.2185238185515987 0.27557310301879695
4.3744730949401855 -1.5412123904428263 1.1069133917437952 4.567842169398926 -1.4581049124347132 -5.593875233327047 0.04631225870259229 0.6311658553636351 0.5651350966612756 -2.264666399906432 1.2274639783785075 0.2725784146869567
4.366534233093262 -1.5408051808229466 1.1069734732257288 4.567818327541016 -1.458081070576803 -5.593875233327047 0.051371499702035237 0.6309372980987181 0.5648566942119618 -2.259695994922282 1.2364281709398566 0.2695843449824746
4.3586602210998535 -1.5405541707626362 1.106889549885885 4.567770643825195 -1.4581049124347132 -5.593887154256002 0.05638327928119147 0.6306161378717132 0.5647643972603619 -2.2544627798684274 1.2451261601741153 0.26659240373367526
4.350926876068115 -1.54030327432368 1.1069853941546839 4.567830725307129 -1.458092991505758 -5.593851153050558 0.06128595197961008 0.6302440027931931 0.5645394400004173 -2.2495188356027835 1.2538552222868191 0.26367958410591047
4.343423843383789 -1.540123726507165 1.1069734732257288 4.567842169398926 -1.458092991505758 -5.593923155461447 0.06603831437928046 0.6298319824921392 0.564434026450352 -2.244573150111874 1.262067932904914 0.26082589676377727
4.335966110229492 -1.5399935779026528 1.1069014708148401 4.567830725307129 -1.458092991505758 -5.593875233327047 0.07075423021417318 0.62937416147888 0.5644002955680125 -2.2394534360151384 1.2702781825911198 0.25804878172092893
4.3286309242248535 -1.5399706822684784 1.1069133917437952 4.56778256475415 -1.4581049124347132 -5.593875233327047 0.07537884851348875 0.6288537972546842 0.564390494160618 -2.2343686345900236 1.2782517958526873 0.2552894597964244
4.321389675140381 -1.5400189732066174 1.1069372336017054 4.567830725307129 -1.458092991505758 -5.593887154256002 0.07991619604012758 0.6282657891193446 0.5643944250178887 -2.229368212594569 1.2861061685334945 0.252585416499591
4.31423282623291 -1.53997095048938 1.1069014708148401 4.567818327541016 -1.458092991505758 -5.593899075184957 0.08441923912308069 0.6276984531328376 0.5643894567019373 -2.22438110957315 1.293842202154464 0.24989840945577327
4.307171821594238 -1.53997095048938 1.1069014708148401 4.567842169398926 -1.458092991505758 -5.593851153050558 0.08884752278120688 0.6270826118429887 0.5643836910660578 -2.2194225440184194 1.301540055473309 0.24726561834013355
4.300288677215576 -1.5399950307658692 1.1069253126727503 4.567830725307129 -1.458092991505758 -5.593910996113912 0.09315842982794914 0.6264488072362367 0.5643869174040115 -2.2146026827895855 1.308886591158609 0.24466098633043284
4.293486595153809 -1.5399709095111866 1.1069372336017054 4.567818327541016 -1.458092991505758 -5.593875233327047 0.0974221696581635 0.6258113726560619 0.5643680316772836 -2.209790745466053 1.316259523746182 0.2421176245853417
4.286707401275635 -1.5399949804744502 1.1069372336017054 4.567830725307129 -1.458081070576803 -5.593875233327047 0.10165421174728645 0.6251268601740115 0.5643800671627545 -2.204969754011086 1.323527828559425 0.2395864803193345
4.279975891113281 -1.5399587240866204 1.1069372336017054 4.567854567165039 -1.458081070576803 -5.593899075184957 0.105864167510829 0.624437574210527 0.5643521304245321 -2.2002332681310426 1.3307484933837435 0.23704120660793584
4.27326774597168 -1.5399708499065419 1.1069853941546839 4.56778256475415 -1.4580567518817347 -5.593899075184957 0.11004717515249282 0.6237227923480395 0.5643487788485929 -2.1954060195736336 1.3378920399314178 0.23455152669767376
4.2664384841918945 -1.5399468012950202 1.1069496313678187 4.567794485683105 -1.458081070576803 -5.593899075184957 0.11431425907906062 0.6229615130811834 0.5643519494641983 -2.1904903495501613 1.3451863478148967 0.23194938840202917
4.259500503540039 -1.5399588526091357 1.106997315083639 4.567794485683105 -1.4581049124347132 -5.593863073979513 0.1186373294256845 0.6221454214687059 0.5643301582090282 -2.1854818561952474 1.3526417643162476 0.2293162772749252
4.252479553222656 -1.5399585899761696 1.1069496313678187 4.567830725307129 -1.4581168333636683 -5.593899075184957 0.12300315656515184 0.6212907991290874 0.5643494538033775 -2.180401753289674 1.360057047628271 0.22664204319703138
4.245386600494385 -1.539910403346159 1.1069253126727503 4.567842169398926 -1.4581287542926233 -5.593899075184957 0.12741801158575303 0.620417226948403 0.5643314568953246 -2.175262569035876 1.3675999734868163 0.22394937392238265
4.238354206085205 -1.5398620174131175 1.1069853941546839 4.567830725307129 -1.458081070576803 -5.593899075184957 0.1317743780517607 0.6195293415194721 0.5642699371530694 -2.1702083246891157 1.3750802694921158 0.22135073700980945
4.2312397956848145 -1.5398259174874802 1.1069253126727503 4.567818327541016 -1.4581049124347132 -5.593875233327047 0.13619336619927003 0.6185895157897835 0.5642861812044906 -2.164933766141275 1.3825993576259998 0.21864546430740475
4.224030017852783 -1.5397535406849165 1.1069496313678187 4.567842169398926 -1.4581049124347132 -5.593935076390402 0.14066096342340434 0.6176127312662284 0.564221599639396 -2.1597518698806577 1.3901961310573703 0.2158926760339205
4.216917037963867 -1.5396327444216986 1.1069372336017054 4.567830725307129 -1.458081070576803 -5.593899075184957 0.14506841307506152 0.6166443218742471 0.5641585301397072 -2.1545427819935585 1.3977585893547184 0.21324373261440333
4.2097554206848145 -1.539523997609951 1.1069014708148401 4.567842169398926 -1.458081070576803 -5.593923155461447 0.14950126756915155 0.6156267019104603 0.5641106452378654 -2.1492993153458264 1.4052886969306946 0.2105229540217145
4.202559471130371 -1.5393059973469754 1.1069496313678187 4.567818327541016 -1.458069149647848 -5.593887154256002 0.15396861530872052 0.6146157503149736 0.5639545443821673 -2.144095865390063 1.4129968582417658 0.20781945324359663
4.195505142211914 -1.538992752586939 1.1069496313678187 4.567842169398926 -1.458092991505758 -5.593863073979513 0.158366616408416 0.6136166242445833 0.5637564962944116 -2.139050367097189 1.4205977633437172 0.20511583544883502
4.188345432281494 -1.5385946978679677 1.1069372336017054 4.567818327541016 -1.458081070576803 -5.593863073979513 0.16283508390832668 0.6126109104211492 0.5635263827307115 -2.1339455818187445 1.4282702854508353 0.2024093073233793
4.181293487548828 -1.5380638365498562 1.1069615522967737 4.567818327541016 -1.458081070576803 -5.593875233327047 0.1672586325848311 0.6116302671406038 0.563186849258313 -2.12905660384668 1.4359263027666063 0.1997189324529188
4.174321174621582 -1.5374634873918076 1.107009236012594 4.567854567165039 -1.4581168333636683 -5.593887154256002 0.17164740031479114 0.6106439470987411 0.5627809727129135 -2.1242980646667085 1.4435781839684667 0.19701218754366048
4.167455673217773 -1.53680074334655 1.1069977919207972 4.567854567165039 -1.458092991505758 -5.593887154256002 0.17596726007236743 0.6096812121287586 0.5623824176466142 -2.119575893943235 1.4510797378557392 0.1944313817876408
4.160699844360352 -1.5359840777567406 1.1070330778705042 4.567878409022949 -1.458069149647848 -5.593899075184957 0.18024433506689252 0.6087549561265607 0.5618556166347489 -2.115098062002617 1.4585839246054266 0.19188656636289544
4.154026031494141 -1.535178729598858 1.1070454756366175 4.567866488093994 -1.4581049124347132 -5.593839232121603 0.18448351211169603 0.6078076349401944 0.5613562350572031 -2.110543646523446 1.4660444091372304 0.18932954415969047
4.147605895996094 -1.5343130093863984 1.1070573965655726 4.567854567165039 -1.458081070576803 -5.593899075184957 0.18856166139793548 0.606907007974206 0.5608213969238541 -2.106304913249564 1.473122473536132 0.18690347575000463
4.141364574432373 -1.5333160322955628 1.1070931593524378 4.567842169398926 -1.4581049124347132 -5.593899075184957 0.19256720826742463 0.6060497714740818 0.56019023813605 -2.1022520452483584 1.4801854336843272 0.18450950866750612
4.13529109954834 -1.5322810274413605 1.107081715260641 4.567890329951904 -1.4581287542926233 -5.593910996113912 0.19647019455651754 0.6052027297656786 0.5595489933158169 -2.0983571500354987 1.4870879534820725 0.1821798534303898
4.129398822784424 -1.53108103693042 1.1070812384234827 4.567890329951904 -1.4581049124347132 -5.593899075184957 0.20028899884227452 0.6044352017793145 0.5588121390238003 -2.09467524467199 1.4938895782470525 0.17999423892543337
4.123767852783203 -1.5298781555942078 1.107093636189596 4.567854567165039 -1.458092991505758 -5.593851153050558 0.2039545062416362 0.6037008009971893 0.5580734983350575 -2.091135536034543 1.5004467978883687 0.1779116232632085
4.118439197540283 -1.528557912712433 1.1071894804583948 4.567866488093994 -1.4581049124347132 -5.593863073979513 0.20746067725923947 0.6030315100851406 0.5572000061436657 -2.088044132589641 1.5067939357547988 0.17589631589305416
4.113403797149658 -1.527223703717329 1.107201878224508 4.5679027277180175 -1.4581049124347132 -5.593875233327047 0.21078717535045716 0.6024074207735501 0.5563616272355645 -2.085135437236385 1.5128049936958803 0.17401328277478884
4.108489513397217 -1.5258184757879754 1.10720140138735 4.5679027277180175 -1.4581168333636683 -5.593875233327047 0.21406208361468831 0.6018173157120398 0.555494787201473 -2.082312984319947 1.5187199621000838 0.1721717449179528
4.103814601898193 -1.524379239683487 1.1072729269610804 4.567914648646973 -1.4581049124347132 -5.593851153050558 0.21719071101633095 0.6012712977924226 0.5545609002829948 -2.0797428882385565 1.5244833419847084 0.17046736301085308
4.099282741546631 -1.522887547766306 1.1073458830462855 4.567926569575928 -1.458092991505758 -5.593887154256002 0.22024393971436232 0.6007562550292567 0.5535929298977567 -2.077357490717115 1.5300703516772574 0.16880178544937577
4.09508752822876 -1.5212164048901577 1.107333008443014 4.567914648646973 -1.458092991505758 -5.593875233327047 0.2231418769978375 0.6003611694056551 0.5525697177107938 -2.075243441966404 1.5354146105244553 0.1672718518402306
4.09104585647583 -1.519449209128954 1.1073206106769007 4.567950411433838 -1.4581049124347132 -5.593863073979513 0.22596660216802475 0.6000066844694527 0.5514739503975975 -2.0733467111889765 1.5407010641998946 0.16579315622165475
4.087185382843018 -1.5175397743335743 1.1073210875140589 4.567914648646973 -1.4581049124347132 -5.593875233327047 0.2287194769549774 0.5997364230323959 0.5502983670177959 -2.0716674039731195 1.5458288604642254 0.1643968303127576
4.083560943603516 -1.515458994810917 1.107344929371969 4.567974253291748 -1.4581287542926233 -5.593899075184957 0.23136424003818207 0.5995407867945399 0.5489777094514746 -2.070389665125471 1.550904809134817 0.1630662571479507
4.080106258392334 -1.5132841815105458 1.1073926130877894 4.567986651057861 -1.458092991505758 -5.593910996113912 0.23391892241883988 0.5994165143335874 0.5475954671898089 -2.0692941596872503 1.5558506530117946 0.16188945297089694
4.076720714569092 -1.510818687533476 1.1074283758746546 4.567962332362793 -1.4581049124347132 -5.593851153050558 0.23651458791999197 0.5993838943502914 0.5460448838164663 -2.068363197898096 1.5609791905205233 0.16071669886853127
4.073431491851807 -1.508334783171751 1.1074402968036097 4.567950411433838 -1.4581049124347132 -5.593851153050558 0.23905315305263955 0.5993668913001604 0.5444921061538142 -2.0675519025793236 1.5659500226524756 0.15958168524748087
4.070288181304932 -1.5057486084154625 1.1075366179095667 4.567974730128906 -1.4581049124347132 -5.593851153050558 0.24152119091196725 0.5993942739911517 0.5428141370317452 -2.0670160174718206 1.5709238719882654 0.15851488583211365
4.067310333251953 -1.5030852568200608 1.1075356642352503 4.568010492915771 -1.458081070576803 -5.593851153050558 0.2439030518247738 0.5994777304396994 0.5411414087198888 -2.0666031154295625 1.5757202247209967 0.15754773719483983
4.064369201660156 -1.5002974656275292 1.107572380696432 4.567986651057861 -1.458081070576803 -5.593899075184957 0.24630288355927946 0.5995992660454826 0.5393788456212363 -2.0663193546919416 1.5805071652456113 0.15655747743603599
4.0616302490234375 -1.497498908346035 1.1076205412494105 4.568010492915771 -1.4581049124347132 -5.593863073979513 0.2485833975211639 0.5997495643799247 0.5375879691856023 -2.0661761893340405 1.585235749263365 0.15565013846464162
4.05881929397583 -1.4945927646807213 1.1076558271991175 4.5680224138447265 -1.4581168333636683 -5.593899075184957 0.2509300719579008 0.5999059403618805 0.5357373008604027 -2.066083371684393 1.5900156936185879 0.15471824714325058
4.05620813369751 -1.491576575939991 1.1076672712909144 4.5680224138447265 -1.4581049124347132 -5.593875233327047 0.2531778277511658 0.6001392631222325 0.5338317980087122 -2.0661602123589993 1.59470274851877 0.15392148204951125
4.053448677062988 -1.4884077471545716 1.107607666646139 4.567986651057861 -1.458081070576803 -5.593899075184957 0.25555246880087606 0.600377713232721 0.5318775356016082 -2.066177996178305 1.5995196128633753 0.1530813236103635
4.050629615783691 -1.4851158794811745 1.1076791922198694 4.568010492915771 -1.458081070576803 -5.593863073979513 0.2579839470047445 0.6006038714956583 0.5297490857787149 -2.066318623735953 1.604681774891289 0.15223207445145012
4.0476765632629395 -1.4817786154202004 1.1076672712909144 4.5680224138447265 -1.4581049124347132 -5.593863073979513 0.2605152232114166 0.6007953551926117 0.5276397679455601 -2.0663234841114195 1.6099189145182733 0.1513004132697878
4.044520378112793 -1.4782840770534058 1.1076315085040491 4.567998571986816 -1.4581168333636683 -5.593887154256002 0.2632055142100095 0.6009717485670877 0.5254492632361627 -2.0662403420962177 1.6154019439999183 0.1503203143638262
4.041195869445801 -1.4748377290419121 1.1076434294330042 4.5680224138447265 -1.458092991505758 -5.593851153050558 0.26596881668460837 0.6010688944086968 0.523246610521996 -2.0659975967910813 1.6211438161061442 0.14936405181217915
4.037703514099121 -1.4714405548623581 1.1076315085040491 4.567974253291748 -1.458092991505758 -5.593851153050558 0.2688365242423538 0.6010981259732939 0.5211010349455635 -2.065517441545577 1.6269301495389146 0.14831220874334522
4.0341644287109375 -1.4680193823627015 1.1076915899859827 4.568010492915771 -1.458092991505758 -5.593875233327047 0.2717227283796069 0.6010857632629772 0.5188738714164479 -2.0651351527163446 1.6328647391645457 0.1472580758937229
4.030457019805908 -1.4646701899221917 1.1076434294330042 4.567986651057861 -1.458092991505758 -5.593863073979513 0.2747048930571351 0.6010038053793842 0.5167666929236561 -2.064390895317113 1.6388481194668036 0.14616062930179285
4.0265583992004395 -1.4612616461566468 1.107619587575094 4.568010492915771 -1.458092991505758 -5.593887154256002 0.2778065945140136 0.6008567077752935 0.5145921916029383 -2.0635936344096466 1.645079366409918 0.14500679800741884
4.0225372314453125 -1.4578766611269494 1.1076315085040491 4.567974253291748 -1.4581287542926233 -5.593851153050558 0.28098953835224516 0.6006495023841223 0.5124200538450445 -2.0625869109832418 1.6514789001160963 0.14379693057081186
4.018254280090332 -1.4545465943268319 1.107607666646139 4.567998571986816 -1.4581168333636683 -5.593851153050558 0.2842981542076394 0.6003322965431455 0.5102881582067881 -2.0613530841742884 1.6580732124216155 0.14256376242918772
4.013801097869873 -1.451152541940548 1.1076791922198694 4.568010492915771 -1.458092991505758 -5.593910996113912 0.28771516619523785 0.599958749556397 0.5080576568190409 -2.0601111502984923 1.6648763337618186 0.14129480460956076
4.009181022644043 -1.4478319597295304 1.1076315085040491 4.568010492915771 -1.4580567518817347 -5.593899075184957 0.29121808447578706 0.5995041697938515 0.5059444490582184 -2.0585009181074847 1.6717819332004944 0.14001557406583806
4.004384517669678 -1.4446207296899338 1.1076553503619593 4.5680224138447265 -1.458081070576803 -5.593887154256002 0.29480832008273683 0.5989274210193153 0.5038513936362766 -2.0566888617869497 1.6788671921088494 0.13861330626234597
3.9994771480560303 -1.4415396761945267 1.1076434294330042 4.568046255702637 -1.4581049124347132 -5.593910996113912 0.2984328951121751 0.5982588124033043 0.501857771522424 -2.054676889648218 1.6859215296140913 0.13717053765309625
3.994539260864258 -1.438484327202179 1.1076672712909144 4.5680224138447265 -1.4581049124347132 -5.593875233327047 0.30206567374323695 0.5975582655712605 0.4998676552787711 -2.052544581592038 1.6930368094121637 0.135783415880576
3.9895524978637695 -1.435620294218399 1.1076315085040491 4.568010492915771 -1.458092991505758 -5.593887154256002 0.3056804911062259 0.5967728870853086 0.49803174533094746 -2.0502168675624315 1.6999823297545098 0.134379984517036
3.984377384185791 -1.43280445158992 1.1076553503619593 4.568010492915771 -1.458092991505758 -5.593875233327047 0.30939056612788357 0.5958842061604589 0.49618615453406967 -2.047697395925178 1.7071610515923898 0.13292538561788914
3.9792141914367676 -1.4300103199533005 1.107619587575094 4.567986651057861 -1.4581049124347132 -5.593899075184957 0.3130938507900912 0.5949731305418832 0.49439227366465666 -2.0451186926489866 1.7142197493020703 0.13145528801000603
3.973905563354492 -1.427339033489563 1.1075957457171839 4.567986651057861 -1.458069149647848 -5.593875233327047 0.31683688056870096 0.5939641806934045 0.49266500573879934 -2.0422942510187956 1.7213977424891345 0.1300264200999386
3.9685986042022705 -1.4247128528407593 1.1076553503619593 4.568010492915771 -1.4581049124347132 -5.593863073979513 0.3205711043702695 0.5928958266372295 0.4909082613000786 -2.0394917414706244 1.7286244171211582 0.12852022679510966
3.9631714820861816 -1.4221007984927674 1.1076791922198694 4.567986651057861 -1.458069149647848 -5.593839232121603 0.32436106181251817 0.5917820528599067 0.48919210789928513 -2.036490311595968 1.7358917411735773 0.1270827080521945
3.957793712615967 -1.4194737088731308 1.1076434294330042 4.567986651057861 -1.4581168333636683 -5.593851153050558 0.32813828368555314 0.590645777975907 0.4874915549063068 -2.0335131394163786 1.7430798967020127 0.12555198134411888
3.9524035453796387 -1.4168843191913147 1.1076434294330042 4.567998571986816 -1.458092991505758 -5.593875233327047 0.33188863291460863 0.5894789666799967 0.4857917830403191 -2.030529152257308 1.7502516902840297 0.12412622867191743
3.946965217590332 -1.4142708641341706 1.1077035109149378 4.568010492915771 -1.458092991505758 -5.593899075184957 0.33566764315648984 0.5882662959484113 0.4840378894770714 -2.0275339957357303 1.75753562388783 0.12267814573589582
3.9416494369506836 -1.4117038410953064 1.1076315085040491 4.568010492915771 -1.458081070576803 -5.593851153050558 0.3393661810180765 0.5870711445137098 0.48239327123436726 -2.024432944917178 1.7646308032457467 0.1213036514386494
3.936319589614868 -1.4091743987849732 1.1076791922198694 4.568010492915771 -1.458092991505758 -5.593899075184957 0.3430550527913443 0.585823725903472 0.48069995648914654 -2.021432998525889 1.7717033485292375 0.11988701548015421
3.931150197982788 -1.4065592151931305 1.1076915899859827 4.568010492915771 -1.458092991505758 -5.593899075184957 0.34666250921434766 0.5846303208618495 0.4789692447046829 -2.0185519417074858 1.7786965608425007 0.11857215785967781
3.9260973930358887 -1.4039932799390336 1.1076672712909144 4.5680224138447265 -1.458092991505758 -5.593887154256002 0.3501854548164208 0.5834428022716729 0.4772879868570179 -2.0156938171223646 1.7855315899764288 0.1173041616549168
3.921096086502075 -1.4013547909310837 1.1076553503619593 4.567998571986816 -1.458081070576803 -5.593887154256002 0.353690456692503 0.5822726835147075 0.47555736187025643 -2.01290778903451 1.7923330431236382 0.11608491167794951
3.916201114654541 -1.3986418855241318 1.1076791922198694 4.5680224138447265 -1.4581049124347132 -5.593910996113912 0.357141359561889 0.58111598304539 0.4737430373707414 -2.010323598085199 1.7991272805515908 0.11487660939650417
3.9113924503326416 -1.3958346557668229 1.1076791922198694 4.567998571986816 -1.458081070576803 -5.593887154256002 0.3605560900375028 0.580005981877906 0.4718894662030011 -2.0077781354076487 1.805886685317508 0.11379170393344046
3.906846761703491 -1.3928079021028061 1.1076672712909144 4.567998571986816 -1.4581406752215784 -5.593899075184957 0.3638758013096971 0.5789959966471621 0.4698873197002885 -2.005635512652142 1.8125411333203965 0.11270715919513064
3.902468681335449 -1.3896159839681168 1.1076915899859827 4.567986651057861 -1.4581168333636683 -5.593887154256002 0.3671105135371622 0.5780756227057089 0.46775616372366124 -2.0037475455122165 1.819168595658727 0.11183287399988791
3.898308277130127 -1.3862306785634537 1.1076791922198694 4.56803481161084 -1.4581049124347132 -5.593887154256002 0.3702520013287688 0.5772454099966129 0.4655017806097076 -2.0021996605215944 1.825731984951488 0.11104862973004692
3.8943727016448975 -1.3826913398555298 1.1076791922198694 4.568010492915771 -1.4581049124347132 -5.593863073979513 0.3733047663377983 0.5765170733796627 0.4631488331652761 -2.000884487618341 1.8321725708694572 0.11035126518140143
3.8907155990600586 -1.3789809060147782 1.1077287832843226 4.568010492915771 -1.4581049124347132 -5.593863073979513 0.37622011780878367 0.5758997234657025 0.46064364795214136 -2.00000049517115 1.8384961964830493 0.10977822724941388
3.887394428253174 -1.375105620627739 1.1077874342547815 4.568046255702637 -1.4581406752215784 -5.593887154256002 0.37897220271404836 0.5754092222823756 0.458010352981764 -1.9995755524629315 1.844632164543539 0.1092929614315787
3.8843467235565186 -1.3711943191340943 1.10781175294985 4.568046255702637 -1.458092991505758 -5.593875233327047 0.3815600318014277 0.5750366582783275 0.4553785142154473 -1.999347574863596 1.850491803132576 0.10902185565435873
3.88191556930542 -1.3672102403691788 1.10783559480776 4.568094416255615 -1.458092991505758 -5.593875233327047 0.38380443576253787 0.5748805353135169 0.4526823594552071 -1.9997769376984287 1.8558402592376047 0.10889090372464857
3.8798019886016846 -1.3630392116359253 1.1078231970416468 4.568094416255615 -1.458081070576803 -5.593887154256002 0.38590866292810133 0.5748812542151114 0.44988739075555484 -2.0005786110884043 1.8609405271878772 0.1088899427822869
3.87814998626709 -1.358790547852852 1.1077874342547815 4.568082972163818 -1.4581287542926233 -5.593863073979513 0.3877733188865612 0.5750532277056816 0.44704935593513057 -2.001800853991698 1.8656763718838612 0.1089650908785531
3.877042055130005 -1.3544026029160996 1.1078107992755335 4.568070097560547 -1.458092991505758 -5.593863073979513 0.3893241798392094 0.5754628931584685 0.4440803230014376 -2.0036985826822717 1.86997787007784 0.10933642689680736
3.8762969970703125 -1.3499261748841782 1.107847038899557 4.56803481161084 -1.4581168333636683 -5.593887154256002 0.3906906397139749 0.5760093396090713 0.441041318042754 -2.0060079740027175 1.873975230377102 0.10973806742199325
3.8759915828704834 -1.3454374831965943 1.1078842321978968 4.568082972163818 -1.4581049124347132 -5.593851153050558 0.3917753154830578 0.5767138305110726 0.43797213470592333 -2.0087488990180162 1.8776648447046065 0.11034438320538208
3.8759236335754395 -1.3409068596414109 1.107943360005514 4.568143053645752 -1.4581168333636683 -5.593887154256002 0.3927219409248871 0.5775004292549131 0.4348532559395679 -2.0118309370038294 1.8811101065392297 0.11097640807424676
3.875960350036621 -1.336359367971756 1.1080406347857874 4.56816737234082 -1.458092991505758 -5.593863073979513 0.39359568188257016 0.5783308153888371 0.4317035101849439 -2.014974020988332 1.8845186761766746 0.11170613812817046
3.875972032546997 -1.331803025012352 1.1080873648272913 4.568166895503662 -1.458081070576803 -5.593899075184957 0.3944870169793104 0.5791495748762598 0.42857623518471744 -2.018102004075229 1.8878451177999906 0.11238815375014516
